Aizawa-Shun/Mikkelsen/data/joint_angles.csv
episode,time,joint_1,joint_2,joint_3,joint_4,joint_5,joint_6,joint_7,joint_8,joint_9,joint_10
0,0.02,0.0,0.0,0.0007115466086784361,-0.00021101752104528724,-7.160251847456352e-20,0.0,0.0,0.0007318658300531958,-0.0003800345038613698,0.011561749941528615
0,0.08,0.0,0.0,-0.181506475528307,0.1388111497023875,0.002495919182002701,0.0,0.0,0.14739618512006972,-0.25356960889657276,0.04219783940814997
0,0.13999999999999999,0.0,0.0,0.21279857912317857,-0.0904611447259124,0.0016531470923051878,0.0,0.0,0.10732407852622476,-0.1903523596370334,0.04629586200825992
0,0.20000000000000004,0.0,0.0,0.21448423833546065,-0.3702696997860174,-0.16096233737402754,0.0,0.0,-0.14575980171209588,0.02539496955266854,0.09318981064833771
0,0.26000000000000006,0.0,0.0,0.1946279041646959,-0.058392623626661685,-0.03313790833997078,0.0,0.0,-0.21196510838215446,0.11505198979353617,0.09640079901994986
0,0.3200000000000001,0.0,0.0,0.11830869289214868,0.07484830427729262,-0.1686108982491479,0.0,0.0,-0.2963460084858417,0.04640067463431607,0.1401124387477884
0,0.38000000000000017,0.0,0.0,0.35928591881828964,-0.16756780882325228,-0.16891687817425288,0.0,0.0,-0.10914535202496631,-0.16619555913021583,0.10831632510478616
0,0.4400000000000002,0.0,0.0,0.31658115001946135,-0.11171575080420154,-0.26853088013474485,0.0,0.0,-0.24026015868706202,-0.03055947952223813,0.022449623610209014
0,0.5000000000000002,0.0,0.0,0.43963153306938874,-0.034479190730869164,-0.2661872106659904,0.0,0.0,-0.3516156599776996,0.09676570101522573,0.016796472102746887
0,0.5600000000000003,0.0,0.0,0.37719721770181747,0.16203494148783953,-0.26199909481791434,0.0,0.0,-0.31058191908933436,-0.00286900218313821,0.008038368128265937
0,0.6200000000000003,0.0,0.0,0.18982033281019048,0.24379831111076694,-0.3221613464414814,0.0,0.0,-0.43237463639456103,0.13098124684074997,0.0008709257881222136
0,0.6800000000000004,0.0,0.0,0.04294308441519033,0.46443266012758533,-0.3470278477752127,0.0,0.0,-0.3907195939574694,0.007833824585956328,0.08797597395453313
0,0.7400000000000004,0.0,0.0,0.11247229547019177,0.4265343672720986,-0.5463927885021211,0.0,0.0,-0.543710711496081,0.14327901737765567,0.1208364136225577
0,0.8000000000000005,0.0,0.0,0.17265792209030284,0.3995800072519464,-0.5872881961234855,0.0,0.0,-0.5841780098562724,0.1493227971613608,0.06544887182623343
0,0.8600000000000005,0.0,0.0,0.2027480789400742,0.44313310329389366,-0.5800434192404026,0.0,0.0,-0.49996079781000524,-0.021211538036824563,0.05722733078661164
0,0.9200000000000006,0.0,0.0,0.4372878118982508,0.1790799212550687,-0.630472529706933,0.0,0.0,-0.698730559134026,0.17360967892813797,0.07490938146159139
0,0.9800000000000006,0.0,0.0,0.540659954920692,0.1009318779405193,-0.6269009976490052,0.0,0.0,-0.7207193784025356,0.14314769400643929,0.07487705263525835
0,1.0400000000000007,0.0,0.0,0.4502701507109864,0.28983118128808927,-0.6302912194366888,0.0,0.0,-0.5729252008489171,-0.12829807379982716,0.18815681245139199
0,1.1000000000000008,0.0,0.0,0.722149477879144,0.0051527620591097535,-0.6730381153908543,0.0,0.0,-0.8525532063344197,0.1509408398379305,0.20874104307426974
0,1.1600000000000008,0.0,0.0,0.905263636102822,-0.1443516396782786,-0.6595178475111025,0.0,0.0,-0.8871322627459243,0.09773481892753726,0.5717351803276678
0,1.2200000000000009,0.0,0.0,1.0957547396971794,-0.2902690801088071,-0.6691206487125323,0.0,0.0,-0.8620642585958206,-0.05184857874686567,0.9829759964009601
0,1.280000000000001,0.0,0.0,0.9581030988684521,0.03222514438817352,-1.1798215237025151,0.0,0.0,-1.0349010118890025,0.07030814155280213,1.1089151308155776
0,1.340000000000001,0.0,0.0,0.9322091979482527,0.1906062116899471,-1.2557691320322475,0.0,0.0,-0.9855106710742324,-0.11284957214654631,1.2527949913318346
0,1.400000000000001,0.0,0.0,0.9851572805617295,0.08793476547736796,-1.00728544755858,0.0,0.0,-0.966485948515143,-0.11970976484961848,1.280733954999153
0,1.460000000000001,0.0,0.0,0.8097593126326152,0.14185981356114136,-0.6862415513658704,0.0,0.0,-0.9079553190585652,-0.007283004844732294,0.8210951800853714
0,1.5200000000000011,0.0,0.0,0.6268925750456115,0.06652261330796086,-0.6858049623269166,0.0,0.0,-0.7872019648987059,0.14146812575196951,0.4385107954265419
0,1.5800000000000012,0.0,0.0,0.4165019203819782,-0.07334203294146381,-0.7560094299941711,0.0,0.0,-0.3041032746375562,0.0003960300351389806,0.24551024218838913
0,1.6400000000000012,0.0,0.0,0.04746064332113043,-0.33086558079037454,-0.8908571441918928,0.0,0.0,-0.14340987001161648,0.25360443035623226,0.3133429989069991
0,1.7000000000000013,0.0,0.0,0.055349481267252115,-0.31965459858877565,-0.8819087550553708,0.0,0.0,-0.007267565135042564,-0.1902051581266737,0.370287116340748
0,1.7600000000000013,0.0,0.0,0.09954607568367167,-0.337449285802243,-0.8828698878919683,0.0,0.0,-0.2941795538141,-0.23911869974112474,0.38969786607971896
0,1.8200000000000014,0.0,0.0,-0.022522334265120604,-0.4757667157725093,-0.8615072631070848,0.0,0.0,-0.0208954228699433,-0.15039199437766407,0.37341718723196904
0,1.8800000000000014,0.0,0.0,0.27480429823299124,-0.4851783403818397,-0.8283500749959792,0.0,0.0,-0.026181892046083996,-0.28910224217586344,0.4132293485593644
0,1.9400000000000015,0.0,0.0,-0.09909503530284336,-0.5224960855497571,-0.8283500749959792,0.0,0.0,-0.3249415336345082,-0.3630874799309297,0.39572352462975086
0,2.0000000000000013,0.0,0.0,0.12357003005913023,-0.38749236310828805,-0.8283718801894613,0.0,0.0,0.12009302719591686,-0.23496605394411857,0.3961125947026552
0,2.06,0.0,0.0,0.11550476618069395,-0.26509784878748976,-0.8283718801894613,0.0,0.0,0.3003474178234674,-0.1902866773590731,0.3945851548650986
0,2.1199999999999988,0.0,0.0,0.09656335487187805,-0.11046574415105978,-0.8283718801894613,0.0,0.0,0.2850148890834411,-0.02587237689997266,0.3785843065406766
0,2.1799999999999975,0.0,0.0,-0.05780936672894126,-0.20523833854083712,-0.8283718801894613,0.0,0.0,0.42982338920631996,-0.18671699410084103,0.36754749814694015
0,2.239999999999996,0.0,0.0,-0.22205662763058856,-0.3587434668921329,-0.8283718801894613,0.0,0.0,-0.044666623052113316,-0.2117430350978036,0.38095285401134765
0,2.299999999999995,0.0,0.0,-0.3246017827718368,-0.4158016252777775,-0.8283718801894613,0.0,0.0,-0.30810538345822375,-0.2862603391042292,0.3593020179134723
0,2.3599999999999937,0.0,0.0,-0.21943159685384223,-0.12417137042727733,-0.8283718801894613,0.0,0.0,-0.4093012286798343,-0.030832872808875957,0.34609095285910213
0,2.4199999999999924,0.0,0.0,0.0858665232188894,0.18048260572424735,-0.8283718801894613,0.0,0.0,-0.02260742555960253,-0.12896377585580382,0.34266384093910085
0,2.479999999999991,0.0,0.0,0.27561008314354063,-0.1521281590805751,-0.8283718801894613,0.0,0.0,-0.3044808553059347,0.17579807279793322,0.3562154991766789
0,2.53999999999999,0.0,0.0,0.20918394829015072,0.18075421481564902,-0.8283718801894613,0.0,0.0,-0.3497457831389599,0.11704308482170013,0.3507052919472357
0,2.5999999999999885,0.0,0.0,0.08485491728903502,0.1412450247565539,-0.8283718801894613,0.0,0.0,-0.046268763279049746,0.12756864017390754,0.337983697855677
0,2.6599999999999873,0.0,0.0,0.25500368774089666,-0.009597729105651157,-0.8785388518529048,0.0,0.0,-0.1871401630790771,-0.1708400676522674,0.3559197295133609
0,2.719999999999986,0.0,0.0,-0.12663957068201498,0.09126009652305142,-0.9599758203241563,0.0,0.0,0.10823203970547304,-0.1663717002308564,0.3178366193308031
0,2.7799999999999847,0.0,0.0,-0.07184726464392223,0.1941714984103313,-1.0071654011675293,0.0,0.0,0.03583675751619912,-0.08908206798639996,0.33585049113316146
0,2.8399999999999834,0.0,0.0,0.2788283021236763,-0.08952468721411927,-1.0342606653859687,0.0,0.0,-0.2279213185384832,0.22410589222915636,0.3323793920160166
0,2.899999999999982,0.0,0.0,0.04300377352783442,0.15292663555694172,-1.0536846707128906,0.0,0.0,-0.3763724935558434,0.25975056100721894,0.3320368320818775
0,2.959999999999981,0.0,0.0,-0.20557905903836612,-0.21306448063824987,-1.1201975692334072,0.0,0.0,-0.14853638032102373,0.34916233553779635,0.3282593505737974
0,3.0199999999999796,0.0,0.0,0.17254466567916735,-0.09442915524245224,-1.1201975692334072,0.0,0.0,-0.27282551204343264,-0.12362481752220031,0.33906934455203797
0,3.0799999999999783,0.0,0.0,0.20424014689832024,-0.027001983860929606,-1.1201975692334072,0.0,0.0,-0.16021590798617652,-0.3427471276058916,0.3264535343225552
0,3.139999999999977,0.0,0.0,0.2485005068047559,-0.19293824473980448,-1.1201975692334072,0.0,0.0,0.08519757188144392,-0.47726275786937783,0.3257377875992438
0,3.1999999999999758,0.0,0.0,0.0782357758998772,0.16983909346169807,-1.1201975692334072,0.0,0.0,0.12120041611289288,-0.48242119263056077,0.3363024203211513
0,3.2599999999999745,0.0,0.0,-0.14105406354858116,-0.1940652231807674,-1.1201975692334072,0.0,0.0,-0.24328991118389723,-0.20816716959634834,0.34418573133030905
0,3.319999999999973,0.0,0.0,-0.31915277964694866,-0.051132725424282946,-1.1201975692334072,0.0,0.0,0.1303966828132581,-0.28535154952151265,0.32693300451757784
0,3.379999999999972,0.0,0.0,-0.2644720042090114,-0.26780195711599464,-1.1201975692334072,0.0,0.0,0.07471433022469233,-0.05415512715063525,0.3445807472982699
0,3.4399999999999706,0.0,0.0,-0.06578151638917837,0.13880376073295073,-1.1201975692334072,0.0,0.0,0.0011771181186821644,0.14289087462805394,0.3462880567256883
0,3.4999999999999694,0.0,0.0,0.16051397317108018,0.34866423659849993,-1.120185345138598,0.0,0.0,0.1084104822695197,0.28623751829804117,0.3261770152308369
0,3.559999999999968,0.0,0.0,0.13281222417898159,0.1330558979151725,-1.116558410307372,0.0,0.0,0.11933301161952391,0.45061357650350636,0.5521264815919844
0,3.619999999999967,0.0,0.0,-0.021049493705646675,0.35690779751167884,-1.171466168489624,0.0,0.0,0.12409323449152634,0.510335616462913,1.2168878380356565
0,3.6799999999999655,0.0,0.0,0.1497865279372403,0.11170841323977403,-1.2443954718283663,0.0,0.0,0.05837312766140604,0.4063473154554446,0.9483363472586915
0,3.7399999999999642,0.0,0.0,0.31530741574585575,-0.018560278285822265,-1.295489795826438,0.0,0.0,-0.13442717242131208,0.17402776692542293,0.718966602511832
0,3.799999999999963,0.0,0.0,0.12261686027352875,-0.017072338837629774,-1.3668288404931486,0.0,0.0,0.0645651306485219,0.11917926557790946,0.5660607395295915
0,3.8599999999999617,0.0,0.0,0.06853842720312726,0.09157806632518525,-1.435092183831461,0.0,0.0,-0.07467286202250756,-0.21246787567838216,0.5613976889326497
0,3.9199999999999604,0.0,0.0,-0.2437789960061456,0.08772151431130662,-1.4875115906198233,0.0,0.0,-0.197974593041314,-0.10330144145451776,0.4503857514773429
0,3.979999999999959,0.0,0.0,0.12094395249632825,0.15051182714099545,-1.4729978208166101,0.0,0.0,-0.35210350469885293,0.11007498586558792,0.40057605871652346
0,4.039999999999958,0.0,0.0,0.36673144317481055,-0.14831511947441808,-1.4730549452061497,0.0,0.0,-0.11913354953601049,0.29757264462420474,0.36742591244124617
0,4.099999999999957,0.0,0.0,0.02305876848371629,-0.06766490294305615,-1.4731585819368045,0.0,0.0,-0.13121424257564224,0.40307556817146273,0.34171119855596416
0,4.159999999999956,0.0,0.0,0.1795325241997886,0.21869276244646957,-1.4732313105685642,0.0,0.0,0.09203938073080237,0.22367015410963154,0.328896472444289
0,4.2199999999999545,0.0,0.0,0.07492315006535652,-0.18883605142288867,-1.4734588901301806,0.0,0.0,-0.10632268189486964,0.22752718554858545,0.32550971504314063
0,4.279999999999953,0.0,0.0,0.07310225290285471,-0.31742416369206294,-1.4734781204266307,0.0,0.0,0.25613014556079017,0.17634672511909036,0.3171526766432125
0,4.339999999999952,0.0,0.0,-0.21769221272152936,-0.3756690290465833,-1.4734414765562498,0.0,0.0,0.446831876441167,0.19210156927785074,0.32325542123541395
0,4.399999999999951,0.0,0.0,-0.2420849736618637,-0.3973826723394343,-1.473928904192935,0.0,0.0,0.10079926757535043,0.24769672387264424,0.3250134665445335
0,4.459999999999949,0.0,0.0,0.14242302730365022,-0.07842121142258013,-1.4745664256044946,0.0,0.0,0.027342816730629882,-0.047450103729105735,0.32641473721165265
0,4.519999999999948,0.0,0.0,0.03328440626720148,-0.059627504840770715,-1.474572593281722,0.0,0.0,-0.2820623786166811,-0.20287662026364506,0.32788860223141525
0,4.579999999999947,0.0,0.0,0.07859454946418552,0.1400700202967048,-1.474615731918011,0.0,0.0,-0.2786632685313831,0.003401175628799137,0.30525289757824425
0,4.6399999999999455,0.0,0.0,-0.01478465821892241,-0.05766416136305811,-1.4747060712313291,0.0,0.0,0.14981539581933,0.21240996003936727,0.2984665622088546
0,4.699999999999944,0.0,0.0,-0.3310452929161033,-0.3291696352695255,-1.4747126379284472,0.0,0.0,0.16469444234595326,0.3893014620088033,0.31921285788872694
0,4.759999999999943,0.0,0.0,0.01923575713700073,-0.4294877113636256,-1.4753441977127046,0.0,0.0,0.07364528536401935,0.4498035742934609,0.3219738897505145
0,4.819999999999942,0.0,0.0,-0.22048545000622607,0.061585976363162646,-1.4755298824651744,0.0,0.0,0.17948571879971256,0.21518091231895814,0.3237552419323043
0,4.87999999999994,0.0,0.0,0.10100370523773168,-0.2326658180291837,-1.4755343351478554,0.0,0.0,-0.20639453885803127,0.10496578387646605,0.33446815852470546
0,4.939999999999939,0.0,0.0,-0.10098006022817649,0.12822302766247712,-1.4755479732672876,0.0,0.0,-0.15087928826078334,-0.14128770915244943,0.3195218654386576
0,4.999999999999938,0.0,0.0,0.15968216035286753,-0.21843118430056652,-1.4755666610859326,0.0,0.0,-0.02241070464405116,-0.28118648096345095,0.30907459851648766
0,5.0599999999999365,0.0,0.0,0.12589007973879393,-0.3444250456199298,-1.4756407548054817,0.0,0.0,0.11387365815179673,-0.26251289547569395,0.3095713368789494
0,5.119999999999935,0.0,0.0,0.30076987551090345,0.06048842527004738,-1.475942185214431,0.0,0.0,0.2842498374578202,-0.41639862787122733,0.32410655023989365
0,5.179999999999934,0.0,0.0,0.0015315766147343673,0.3061477833127592,-1.4757063549380873,0.0,0.0,0.33064478095083183,-0.4192333140006102,0.33917200951195714
0,5.239999999999933,0.0,0.0,-0.18179557442846095,0.3219794967505462,-1.5148851881014511,0.0,0.0,0.13805938251268146,-0.4323332687154716,0.34491666605376414
0,5.299999999999931,0.0,0.0,-0.10422965727540096,0.19068596760334602,-1.6278117112780217,0.0,0.0,-0.054620773052716926,-0.5521909057307598,0.33359656006852767
0,5.35999999999993,0.0,0.0,0.17490991017023233,0.08323297882026552,-1.6462328659198022,0.0,0.0,-0.020493200005645456,-0.3298194016168762,0.3161290989873107
0,5.419999999999929,0.0,0.0,0.10295502806261955,0.008652837011916652,-1.7151568507736348,0.0,0.0,-0.30584999131933943,0.11057067090821243,0.3233536557794679
0,5.479999999999928,0.0,0.0,0.16825493061681782,0.08997538438482704,-1.6950970755649963,0.0,0.0,0.05735213793323121,0.36693448974729254,0.31123076824420826
0,5.539999999999926,0.0,0.0,0.2256414708777214,0.13309115486893022,-1.6791438890778358,0.0,0.0,0.09935448136792548,0.4053654618132764,0.32202606543737633
0,5.599999999999925,0.0,0.0,0.0024675721857761526,-0.07441749858099425,-1.759017578031645,0.0,0.0,0.12772726044966343,0.31920668555811965,0.3186334577427869
0,5.659999999999924,0.0,0.0,0.2749618189433225,0.20907109451206024,-1.6155273414730824,0.0,0.0,0.19649026790306517,0.3744731135762204,0.3189898303197299
0,5.7199999999999225,0.0,0.0,0.4668486124022384,0.1729791934211131,-1.5742710721034676,0.0,0.0,-0.1365306685339701,0.19953328942255164,0.32485647901748
0,5.779999999999921,0.0,0.0,0.057317656682444144,-0.05375635310222997,-1.7289657810694854,0.0,0.0,-0.26152103149246453,0.14653594022535243,0.3270590596247979
0,5.83999999999992,0.0,0.0,-0.2153295095586082,-0.10726583802943791,-1.6383875557316583,0.0,0.0,-0.34425699235185314,-0.053638855294975765,0.32975488025717076
0,5.899999999999919,0.0,0.0,-0.038773102583324545,0.19291618102535413,-1.5640051831310227,0.0,0.0,-0.10877999672598374,-0.3020180360560263,0.32218977885883954
0,5.959999999999917,0.0,0.0,0.18315123263578303,0.09153607011670314,-1.6097806365452993,0.0,0.0,0.2341571461511704,-0.08471889506938632,0.31280689729495914
0,6.019999999999916,0.0,0.0,0.24062185319889615,0.33972229037038815,-1.5731353441844258,0.0,0.0,-0.05978873518243718,-0.10163010027052007,0.3496637766381242
0,6.079999999999915,0.0,0.0,0.20800245803022485,0.3202433265355408,-1.5775748485267809,0.0,0.0,0.15762711391942927,0.0670415754116942,0.3173915409369948
0,6.1399999999999135,0.0,0.0,0.29887868094250836,0.14348745848571703,-1.6048471820467198,0.0,0.0,0.10307481836306209,0.002611442444225615,0.3309194648051428
0,6.199999999999912,0.0,0.0,0.3757431388714967,0.06483993476102896,-1.6198874001181305,0.0,0.0,0.2641759474956602,0.2066153501316125,0.3139706699063184
0,6.259999999999911,0.0,0.0,-0.07090254636789226,0.14454594803576648,-1.7438453757766528,0.0,0.0,0.2943882675748546,-0.11921542725146085,0.3235505626085384
0,6.31999999999991,0.0,0.0,-0.2554355267196332,0.25492238578377996,-1.7114554083419602,0.0,0.0,0.04454978676332373,0.17094350339945347,0.3172793487823028
0,6.379999999999908,0.0,0.0,-0.1508257661893516,0.2254592706980374,-1.6939364578034257,0.0,0.0,0.12726548473787302,0.16299828326901006,0.31681654757787375
0,6.439999999999907,0.0,0.0,-0.09351766536282063,0.400029496764159,-1.678759083626007,0.0,0.0,0.33104509806777954,0.39779355457729393,0.31279231160231435
0,6.499999999999906,0.0,0.0,-0.12845175623348606,-0.10243508721028446,-1.727451227418305,0.0,0.0,-0.07335914048467887,0.06102188416774565,0.31612389744591685
0,6.559999999999905,0.0,0.0,-0.3415775000622801,0.2569924163273037,-1.5927874878285175,0.0,0.0,-0.3516559537712727,-0.11318892510220474,0.3086199331506878
0,6.619999999999903,0.0,0.0,0.07087864685951215,0.36845138986820575,-1.5582847984024741,0.0,0.0,-0.39525562019313304,0.005037843713673983,0.2994067305283853
0,6.679999999999902,0.0,0.0,-0.2060531149380842,0.26624073225239736,-1.6950861257095093,0.0,0.0,-0.4081844000787932,0.32153489656508183,0.30149970105184043
0,6.739999999999901,0.0,0.0,-0.016094818062918622,0.09338288572748935,-1.7265444497442484,0.0,0.0,-0.0029490169014844414,0.17632747372519125,0.3124761441733533
0,6.7999999999998995,0.0,0.0,0.18908194328983646,0.19140918343092003,-1.6770211244829618,0.0,0.0,0.09428767147181977,0.00195608073505572,0.31636291340663014
0,6.859999999999898,0.0,0.0,-0.03609864176282726,-0.046377170711401405,-1.7728042689147325,0.0,0.0,0.22777501837081293,0.20402216444345161,0.3010535914966394
0,6.919999999999897,0.0,0.0,-0.04073289947767347,-0.22053601665168143,-1.6449643422471185,0.0,0.0,0.14167840072427582,-0.036173313346777786,0.3085619902855815
0,6.979999999999896,0.0,0.0,0.12111815678166592,-0.22606713250692084,-1.5721766798416053,0.0,0.0,0.0331968771043056,0.22236863862583126,0.29374236640172835
0,7.039999999999894,0.0,0.0,0.02118617632777415,0.17696527696977776,-1.612521502141387,0.0,0.0,-0.21280997889732825,0.15664077373451904,0.30541531426022495
0,7.099999999999893,0.0,0.0,0.061998963116927194,-0.0670941548061543,-1.612490162997762,0.0,0.0,-0.004419614269352553,-0.1420514693473008,0.3015963523283718
0,7.159999999999892,0.0,0.0,-0.15153188099702064,-0.23821725372150138,-1.6123206862320738,0.0,0.0,-0.2203364392697378,-0.35306324833545016,0.3099074733665081
0,7.2199999999998905,0.0,0.0,0.08587752303935704,0.08255483333092029,-1.6123680736051602,0.0,0.0,0.050357622036790284,-0.46297595711946116,0.2835364718620753
0,7.279999999999889,0.0,0.0,-0.12678864122292205,-0.054379873876783225,-1.6122353330360915,0.0,0.0,0.018946259351713884,-0.11061639124096498,0.2920648609242009
0,7.339999999999888,0.0,0.0,-0.34702912628476745,-0.23352178174763666,-1.6121695642581186,0.0,0.0,-0.19728531565342422,-0.09127435915526355,0.30570026165132663
0,7.399999999999887,0.0,0.0,0.07999184887479963,-0.2360460281352533,-1.6127244601287831,0.0,0.0,-0.13788812356092678,-0.002247272500917231,0.28648087423424956
0,7.459999999999885,0.0,0.0,0.03307985066895065,0.07669847795992171,-1.6126666833117091,0.0,0.0,0.05567732519101652,0.24823200316757624,0.27905607835007307
0,7.519999999999884,0.0,0.0,0.10106953674834324,-0.16578004576911695,-1.6124962712617699,0.0,0.0,0.07617890829505117,0.09124694045262507,0.2873033893543435
0,7.579999999999883,0.0,0.0,-0.23019222273401274,-0.3198950603722954,-1.6123253097789179,0.0,0.0,0.17637661388070391,0.08138826071513723,0.27539558847276197
0,7.6399999999998816,0.0,0.0,-0.08914812627986358,0.012983752587436032,-1.612584646207418,0.0,0.0,-0.18302396469701615,0.01956109392617076,0.28699029722487107
0,7.69999999999988,0.0,0.0,0.23019694565081994,-0.25816047328460184,-1.6120190107726697,0.0,0.0,-0.16113217030871188,0.01751493199983838,0.2720831332600185
0,7.759999999999879,0.0,0.0,-0.05799113246111907,0.15762616037177524,-1.6117205600773188,0.0,0.0,-0.3391204399161196,-0.15553655063993838,0.28413229054269484
0,7.819999999999878,0.0,0.0,-0.1939172760811983,0.22737957638489592,-1.6119555720299161,0.0,0.0,-0.3619649850800272,-0.12904011383193126,0.2765529338971395
0,7.879999999999876,0.0,0.0,0.22533383786698447,-0.03209180466942608,-1.6118849922500593,0.0,0.0,-0.23291518463054103,0.2024718320858241,0.2701061164361409
0,7.939999999999875,0.0,0.0,0.4156592771160328,-0.09096558706010402,-1.6118515920952063,0.0,0.0,-0.2614558952099386,-0.1124973225897167,0.27425765300662963
0,7.999999999999874,0.0,0.0,0.20150890585698122,-0.039399158264513845,-1.6120374353662588,0.0,0.0,0.004761361244306671,0.2454520292032929,0.24237286991790657
0,8.059999999999873,0.0,0.0,-0.09509423598290988,-0.15411597005365787,-1.6113718120337883,0.0,0.0,0.12642129976567154,-0.16199428567226515,0.2584278394477843
0,8.119999999999871,0.0,0.0,-0.22223141905371804,-0.33806919994635926,-1.6111334372664794,0.0,0.0,0.3729448193658982,-0.297564548121204,0.24114738095638608
0,8.17999999999987,0.0,0.0,-0.09525070310285311,-0.01286598565023956,-1.6115900984205789,0.0,0.0,0.15923348536387877,-0.2385708715648419,0.25324080630976087
0,8.239999999999869,0.0,0.0,0.1862051050417393,0.20208135758263898,-1.611641037043171,0.0,0.0,0.2574608434295993,0.17651426034072717,0.22328204291248044
0,8.299999999999867,0.0,0.0,0.4110652968892428,-0.13969119826448523,-1.6115174218127994,0.0,0.0,0.36303209860773406,0.3332751619980332,0.2285575036553909
0,8.359999999999866,0.0,0.0,0.14979433914645818,0.11297068972771926,-1.6114862850684635,0.0,0.0,0.3322227962582611,0.1932774005088013,0.2291455394276435
0,8.419999999999865,0.0,0.0,-0.10269709046479682,0.09985233536833205,-1.6115023510949649,0.0,0.0,0.4285159269197329,0.038556953725101054,0.22673373959944182
0,8.479999999999864,0.0,0.0,0.022827977939118227,0.26744636415129264,-1.6116059994554208,0.0,0.0,0.4926259318397989,0.3268135139448027,0.22119944195188998
0,8.539999999999862,0.0,0.0,-0.12028280084902271,0.1341269103558001,-1.6122612199172544,0.0,0.0,0.07431265950944385,-0.004708363185639539,0.2261755285002101
0,8.599999999999861,0.0,0.0,0.15779341342863792,-0.0871870336660358,-1.6120615856498584,0.0,0.0,0.28046469770133176,0.22191094745069911,0.20537623034256527
0,8.65999999999986,0.0,0.0,-0.06392857780277436,0.04053276155515921,-1.6115370688151796,0.0,0.0,0.36088354775270254,0.10004926946457593,0.21927185685603767
0,8.719999999999859,0.0,0.0,-0.1503612275324897,0.2650100586358946,-1.611821783249032,0.0,0.0,-0.09206096049277063,-0.0008483019093055207,0.22847408593523552
0,8.779999999999857,0.0,0.0,-0.17785891832374387,0.33428587706307994,-1.6130667679856705,0.0,0.0,-0.005822039475609234,-0.2290405709624812,0.21694680642846967
0,8.839999999999856,0.0,0.0,-0.26484605688373114,0.39955879613763085,-1.615165176690708,0.0,0.0,0.020658693390631904,-0.4301419636850451,0.22749226778421078
0,8.899999999999855,0.0,0.0,-0.06288256796670712,0.023282432230308556,-1.6168311191597704,0.0,0.0,-0.024694721619678693,-0.14443266802658294,0.2254098662768512
0,8.959999999999853,0.0,0.0,-0.05385281466109817,0.25987355476684215,-1.6169620202334853,0.0,0.0,0.15832307110505373,0.053070126269518514,0.22146648658512205
0,9.019999999999852,0.0,0.0,-0.011117041274457347,0.1879407168021074,-1.617569746557678,0.0,0.0,0.18878469632580866,0.22714090332745196,0.20897929947423521
0,9.07999999999985,0.0,0.0,-0.13710340383745967,0.3452141551476731,-1.6184260576419367,0.0,0.0,0.19172700696043674,-0.11260353099619122,0.20473971733531957
0,9.13999999999985,0.0,0.0,0.09551835662240162,0.05843066903807981,-1.6191637509287826,0.0,0.0,0.22360190940456237,0.032727843755891786,0.18396020709255634
0,9.199999999999848,0.0,0.0,-0.015801151454481008,0.3220516322864994,-1.6194167562274822,0.0,0.0,0.37448072594561055,-0.18074219807275768,0.18316888026201453
0,9.259999999999847,0.0,0.0,0.0678553952684246,0.012859297680457647,-1.6199605800443777,0.0,0.0,0.031652626834435614,0.0850605932624767,0.1863997954433262
0,9.319999999999846,0.0,0.0,0.2218808163032458,0.076826298345139,-1.6198622681848545,0.0,0.0,-0.07513505477655072,-0.04111366985893414,0.18686529259902415
0,9.379999999999844,0.0,0.0,-0.08203967057487199,0.18559787249645313,-1.620035982819996,0.0,0.0,-0.131762968526477,-0.2676471568326238,0.1865661647459656
0,9.439999999999843,0.0,0.0,-0.02648917245818877,0.10934268221932766,-1.6204585647525447,0.0,0.0,-0.004181673724435373,-0.31911630668088087,0.18161492952338656
0,9.499999999999842,0.0,0.0,-0.10054879625184439,0.3038197953257379,-1.6209509050376736,0.0,0.0,-0.08998198293341071,-0.2689947844881547,0.18847030124558975
0,9.55999999999984,0.0,0.0,-0.24423057666317152,0.39272500394054977,-1.62269108800674,0.0,0.0,0.09472827204783749,-0.08094254793059462,0.17281239721613276
0,9.61999999999984,0.0,0.0,-0.10098030820860801,0.23144147683632885,-1.6240932818633858,0.0,0.0,0.06961564026899852,0.13590480651414827,0.17717923275006772
0,9.679999999999838,0.0,0.0,-0.034116294179174,0.24346699315180242,-1.6246305589164254,0.0,0.0,0.06635734050412817,-0.22707337126534471,0.1798549674527305
0,9.739999999999837,0.0,0.0,-0.11109086653036941,0.44541431113629854,-1.6253616143663128,0.0,0.0,0.23789850997219597,-0.44848451631613917,0.1528887150256889
0,9.799999999999836,0.0,0.0,-0.12421476648152095,0.11336992210020166,-1.6276439033071954,0.0,0.0,0.29270477349269114,-0.3772621650754218,0.15584215801544338
0,9.859999999999834,0.0,0.0,-0.1352753311619648,0.31214830479148903,-1.6280861906664632,0.0,0.0,0.3363704601270953,-0.5130855590856832,0.16626481978639127
0,9.919999999999833,0.0,0.0,0.25639657528678805,-0.10623013333961087,-1.6283044968685263,0.0,0.0,0.32494120649266856,-0.25397705012519317,0.1486538953300395
0,9.979999999999832,0.0,0.0,0.23345881718592926,-0.06270063922398171,-1.6283365240240708,0.0,0.0,-0.11808931575083145,-0.026491054579541283,0.16646889309123156
0,10.03999999999983,0.0,0.0,0.220606634498284,0.11528823864731647,-1.62841919835304,0.0,0.0,-0.3827351284092123,-0.1130009858216173,0.1416234828206726
0,10.09999999999983,0.0,0.0,0.16107100990303522,-0.2033444071434701,-1.6277270161033626,0.0,0.0,-0.2727804639265997,0.18342093049358466,0.11907554412081187
0,10.159999999999828,0.0,0.0,-0.09714458800496419,0.1596501156147526,-1.627182804571514,0.0,0.0,-0.35250701787520144,-0.09889038266449096,0.12635176497834616
0,10.219999999999827,0.0,0.0,0.2761987753234072,0.045170319093305863,-1.6271803340395024,0.0,0.0,-0.08348486643336658,-0.38242116844737106,0.10345121538290883
0,10.279999999999825,0.0,0.0,0.04213851062535133,0.07189170188965413,-1.6270919153062033,0.0,0.0,0.09446190016552176,-0.10045500499403037,0.09285572501357915
0,10.339999999999824,0.0,0.0,-0.06207029378069098,0.038887080037631507,-1.6266261525337096,0.0,0.0,-0.06305971879500727,0.008730866254173584,0.11455693968961267
0,10.399999999999823,0.0,0.0,0.12930205622143764,-0.008680685973005099,-1.6262530579700558,0.0,0.0,-0.15797464780793868,0.06426532499628919,0.10096183908622221
0,10.459999999999821,0.0,0.0,0.3630364797928057,-0.13454643253005677,-1.6261316904695688,0.0,0.0,0.005877446731273505,0.10423209983712976,0.07816125555986858
0,10.51999999999982,0.0,0.0,0.05604627342753683,-0.30264953508777165,-1.6248865702503705,0.0,0.0,0.30676111494599956,0.28732112530832643,0.046158604060414075
0,10.579999999999819,0.0,0.0,0.31686744571705144,-0.08746461651865912,-1.6247403056794119,0.0,0.0,0.24225090156349952,-0.11821733912128289,0.04127616700923922
0,10.639999999999818,0.0,0.0,0.13154677959702987,-0.34929665787045483,-1.6237491752334794,0.0,0.0,0.08384519804666188,0.13547738860905043,0.02271706154180496
0,10.699999999999816,0.0,0.0,0.030834875813813348,-0.27024232575793544,-1.6226399471395871,0.0,0.0,-0.17223443806162533,0.24472853226823404,0.022495263208236027
0,10.759999999999815,0.0,0.0,0.11006388314558539,-0.19030068397012687,-1.6218405136150298,0.0,0.0,-0.3204064812050513,0.30229931822256517,0.019422547103948185
0,10.819999999999814,0.0,0.0,0.3458480669220565,-0.24268427035247891,-1.6214254275167352,0.0,0.0,0.0890591583935218,-0.12178378769568929,0.019549725975769584
0,10.879999999999812,0.0,0.0,0.4069010738625222,-0.2927722447265312,-1.621561173164175,0.0,0.0,0.3062941420185864,-0.3981749983406572,0.024605591877609523
0,10.939999999999811,0.0,0.0,0.01518476239476798,0.12291192186174779,-1.6214453037522787,0.0,0.0,0.42089528845072444,0.04380020159816372,-0.003637252447960127
0,10.99999999999981,0.0,0.0,0.31431989256954773,0.2820100356290336,-1.6213302587885803,0.0,0.0,0.18722388369332021,0.029604872843067575,0.0030869191527808392
0,11.059999999999809,0.0,0.0,0.39871847859639353,-0.14808761676603996,-1.6215158225318005,0.0,0.0,-0.1219151216580201,0.09405071617201306,-0.004845660294065608
0,11.119999999999807,0.0,0.0,0.4124603691895997,-0.39458174522215356,-1.6216984046144236,0.0,0.0,0.04895662931349573,-0.1796594679949945,-0.005276965893800921
0,11.179999999999806,0.0,0.0,0.40802269781102446,-0.2971474101787012,-1.6218107165298083,0.0,0.0,0.086436240338161,-0.0265359311827947,-0.008118360088337802
0,11.239999999999805,0.0,0.0,0.21614128468751534,-0.011990759770775433,-1.621872540745657,0.0,0.0,-0.15920000728922654,0.06891640731928894,-0.0009216312092825514
0,11.299999999999804,0.0,0.0,0.3119848073587841,0.13731393535564132,-1.622006112309174,0.0,0.0,-0.03603301824549726,0.1579128852287788,-0.025870678099732054
0,11.359999999999802,0.0,0.0,0.2998466069634329,0.1061176605755565,-1.6219717781366574,0.0,0.0,-0.06042854439164251,-0.24448873921081848,-0.02385134078821214
0,11.419999999999801,0.0,0.0,0.19580851427627058,-0.26651777660921483,-1.621488681031432,0.0,0.0,0.2544166430939531,-0.09678744711494877,-0.04953224237139092
0,11.4799999999998,0.0,0.0,0.3636454187078115,-0.14045991305833766,-1.6212634454172261,0.0,0.0,-0.005720400976128331,-0.07423984914715737,-0.022410482251739843
0,11.539999999999798,0.0,0.0,0.09236834712719941,-0.008573868568761116,-1.6210965794640428,0.0,0.0,0.006424963730211148,-0.1695955128247821,-0.03439827217691592
0,11.599999999999797,0.0,0.0,0.22264594931295673,0.12072571217723124,-1.6210150445836953,0.0,0.0,-0.0432066599587089,0.12560699856085827,-0.04744939061436233
0,11.659999999999796,0.0,0.0,0.2928178414302881,-0.23027331881144708,-1.6208651143644166,0.0,0.0,-0.24836861675251862,-0.09159174674047477,-0.03767280743380805
0,11.719999999999795,0.0,0.0,0.4091261566754203,0.022333268045498948,-1.6210113637469736,0.0,0.0,-0.19691200489057198,-0.32104255416144134,-0.06108650409565495
0,11.779999999999793,0.0,0.0,0.47756903160210934,0.04691578856431274,-1.6212945200577655,0.0,0.0,0.09365334102659384,-0.4988969954606917,-0.08001752726217871
0,11.839999999999792,0.0,0.0,0.2654510068811127,0.008440616629426386,-1.6211972627570213,0.0,0.0,-0.22407412919230565,-0.4747216644087479,-0.06615677774329784
0,11.89999999999979,0.0,0.0,0.1406152953098289,0.006155116792079117,-1.6210563349061125,0.0,0.0,-0.3862942078212371,-0.15601637030393264,-0.07526990665491406
0,11.95999999999979,0.0,0.0,-0.13691502076451748,0.3270841606460583,-1.6212976279067814,0.0,0.0,-0.05830617157059746,-0.22627982346181963,-0.07588391776676026
0,12.019999999999788,0.0,0.0,0.20094368078041136,0.4242220658321068,-1.621063933149127,0.0,0.0,-0.09373255876615597,-0.308296165024401,-0.07453145665491384
0,12.079999999999787,0.0,0.0,0.1690924901629293,-0.0635998580832364,-1.6220458893678882,0.0,0.0,0.15959195979239454,-0.09514210174808492,-0.10158022937253806
0,12.139999999999786,0.0,0.0,0.15845898420794263,0.2097728774754018,-1.6219525226162537,0.0,0.0,-0.14914490761412308,-0.0644502021110352,-0.07985386256598903
0,12.199999999999784,0.0,0.0,0.35464295495796433,0.38009185309130017,-1.621185065558844,0.0,0.0,-0.3595110311494612,0.17180347401131313,-0.1039735690853101
0,12.259999999999783,0.0,0.0,0.27608539260482506,-0.12203792380230541,-1.6215743759970926,0.0,0.0,-0.22294843992016192,0.06711993956715635,-0.10994623202146991
0,12.319999999999782,0.0,0.0,0.06525496362857902,-0.2953550194037017,-1.620103261752117,0.0,0.0,0.03153547633330649,0.14219141111773675,-0.11127032648636687
0,12.37999999999978,0.0,0.0,-0.013760092720570034,-0.4221694271762993,-1.618897734425495,0.0,0.0,-0.2769189541504922,-0.09745153731289817,-0.10473051067650814
0,12.43999999999978,0.0,0.0,-0.0742924368046178,-0.31237018295305796,-1.6185344013318839,0.0,0.0,0.062231381275652975,-0.30490463422828185,-0.13787793655010736
0,12.499999999999778,0.0,0.0,-0.02641934196740822,0.03764883584638764,-1.617646207969163,0.0,0.0,-0.17889358405544656,-0.3750229186839548,-0.11661138580601765
0,12.559999999999777,0.0,0.0,0.3131492575970326,-0.14560247231730591,-1.61743252479346,0.0,0.0,-0.40867805262995294,-0.3802593293504318,-0.12012261374839822
0,12.619999999999775,0.0,0.0,0.2475876218128656,-0.3161569090228645,-1.616804250113309,0.0,0.0,-0.1734380904728305,-0.04066305876790577,-0.1295928171187171
0,12.679999999999774,0.0,0.0,0.061953840244966724,-0.17659591793814178,-1.61576024531158,0.0,0.0,-0.32910642167277354,-0.2850316928326236,-0.11111062799076438
0,12.739999999999773,0.0,0.0,0.30980947734140746,0.01894948270534072,-1.6153143336261147,0.0,0.0,-0.050664175660162014,0.10837094026520105,-0.14973476608525532
0,12.799999999999772,0.0,0.0,0.11535611054866016,-0.07947122219617987,-1.6150817011741845,0.0,0.0,-0.2904670344067447,0.05451728639875965,-0.1314858432079336
0,12.85999999999977,0.0,0.0,0.1961933240172271,-0.3422482654612142,-1.6137297833863347,0.0,0.0,-0.11539278228799715,-0.08110915363262462,-0.15202853555808474
0,12.919999999999769,0.0,0.0,-0.014835572824213876,0.057449752318335406,-1.6133059329967365,0.0,0.0,0.22382652921691346,-0.04095269517240449,-0.17068004094172
0,12.979999999999768,0.0,0.0,-0.17209560048581996,0.17935607614349408,-1.613396910762766,0.0,0.0,0.43967753708533724,0.1538254009782135,-0.19084792814991783
0,13.039999999999766,0.0,0.0,0.12138308066010911,0.29538684572924556,-1.6132982155698825,0.0,0.0,0.2469276947416032,0.20706754274576603,-0.19719017442398676
0,13.099999999999765,0.0,0.0,0.18504400728229203,-0.07455942640476092,-1.6134723889841491,0.0,0.0,0.05953166367934555,-0.09529213879061943,-0.19761505561658677
0,13.159999999999764,0.0,0.0,0.47338947855375874,-0.3643095880997468,-1.6134716155040933,0.0,0.0,0.14416452927615267,0.06990103100141709,-0.21521964052123083
0,13.219999999999763,0.0,0.0,0.35215687064559115,-0.27121272531442087,-1.6138374637466482,0.0,0.0,0.1060178469791146,0.20398377870488066,-0.21159762576712426
0,13.279999999999761,0.0,0.0,0.05320683982388557,-0.41027785459339733,-1.6127217532140807,0.0,0.0,0.3703360391105774,-0.04254243971283359,-0.2197890543271039
0,13.33999999999976,0.0,0.0,-0.15271721188205253,-0.3369134597400574,-1.6122710956876682,0.0,0.0,0.2525445499344618,0.16569996241064255,-0.22776694433341335
0,13.399999999999759,0.0,0.0,-0.1541620783180715,-0.4169822678098356,-1.6121762117365885,0.0,0.0,-0.0032421390604363137,0.22816682274221842,-0.22896778057842732
0,13.459999999999757,0.0,0.0,-0.06770320821140015,-0.0822672575274962,-1.6123803837256692,0.0,0.0,-0.11068731770580532,0.13479893709501317,-0.23159350926950337
0,13.519999999999756,0.0,0.0,-0.29182198803952014,-0.1875796537548974,-1.6114198165446454,0.0,0.0,-0.006509057650264117,-0.07247918510741067,-0.23358846732908678
0,13.579999999999755,0.0,0.0,-0.036194953294504194,0.12490066433551328,-1.6113285341417585,0.0,0.0,-0.1284422082979318,-0.3444835015524192,-0.22408047140632512
0,13.639999999999754,0.0,0.0,0.15289309389544603,0.21105464907726418,-1.611567479213768,0.0,0.0,-0.1608807016900049,0.025198604920260256,-0.23976897319978693
0,13.699999999999752,0.0,0.0,0.054262241228386826,0.299526109353381,-1.612042948493671,0.0,0.0,0.20446419396995202,-0.0701599646223954,-0.23423387504965096
0,13.759999999999751,0.0,0.0,-0.07302041159609354,0.25901708548582497,-1.6126918132435681,0.0,0.0,-0.07974732182053096,0.2504776246984191,-0.22404698476635782
0,13.81999999999975,0.0,0.0,0.00029516830898725435,0.041526372988400284,-1.6131333805138248,0.0,0.0,-0.043322398411863715,0.1726513985201078,-0.22753552304125454
0,13.879999999999749,0.0,0.0,0.23153458275700364,0.1149259934414299,-1.6130749910113231,0.0,0.0,0.25243084539732474,0.28268028773662224,-0.24667355490609452
0,13.939999999999747,0.0,0.0,-0.0208960812249537,0.2816806014310124,-1.6132519813764286,0.0,0.0,0.3895390187283383,0.04359431479010689,-0.24947464226515523
0,13.999999999999746,0.0,0.0,0.2350162651601787,0.3440599395601933,-1.6138521945608841,0.0,0.0,0.16545315631388396,-0.055229891438478396,-0.2512562632784609
0,14.059999999999745,0.0,0.0,0.35200368379159414,0.4760206989483158,-1.6148495570384547,0.0,0.0,-0.09105803101022866,0.11008365300721654,-0.2579054648501112
0,14.119999999999743,0.0,0.0,0.426231457656833,-0.05524806476077511,-1.615704225311151,0.0,0.0,-0.14577973572127936,-0.20502880459295375,-0.254118537170057
0,14.179999999999742,0.0,0.0,0.4308848062288805,-0.12866482494030645,-1.6162007797398712,0.0,0.0,-0.25856042079773345,-0.2753825585314616,-0.25623876479966
0,14.23999999999974,0.0,0.0,0.10705070206822567,0.11027669976874004,-1.6165219150251882,0.0,0.0,-0.008000503859645423,-0.10468041862603375,-0.2642706201172815
0,14.29999999999974,0.0,0.0,0.047967918253030116,0.023586455675121448,-1.6163867449223603,0.0,0.0,-0.0006663684320601132,0.25295554243873464,-0.254368926906015
0,14.359999999999738,0.0,0.0,0.09906343250709078,0.2804062716626778,-1.6167121520582999,0.0,0.0,-0.2866411457838166,0.29564998079203514,-0.25744487355919116
0,14.419999999999737,0.0,0.0,0.05847885012573814,0.16314709420380208,-1.6171626190192123,0.0,0.0,-0.4554064512943784,0.4001085791603851,-0.2665242171058413
0,14.479999999999736,0.0,0.0,0.18471816039757333,0.13757426096250028,-1.6172552389473007,0.0,0.0,-0.045182554484337896,0.5196335451688827,-0.28398941349315726
0,14.539999999999734,0.0,0.0,0.21024287602097866,-0.005220543862249228,-1.6173067782466128,0.0,0.0,0.23221121691167804,-0.04220659554682711,-0.28434319758114884
0,14.599999999999733,0.0,0.0,0.29956197653050914,0.2470335093367285,-1.6172622624167579,0.0,0.0,0.36272586586646904,-0.12559314928955653,-0.2978354490751792
0,14.659999999999732,0.0,0.0,0.20468776238766626,0.06392003105870894,-1.617465739777191,0.0,0.0,0.09685335280971837,0.035237756982970325,-0.29404843015055004
0,14.71999999999973,0.0,0.0,0.2846121640750261,0.1264338717005623,-1.6174375601374091,0.0,0.0,0.13428744474353307,0.29102404178023655,-0.30785187550594884
0,14.77999999999973,0.0,0.0,0.12762526415539305,-0.10184221107352238,-1.6173307539659698,0.0,0.0,0.3489568421309319,0.24902097951422755,-0.3068827302396702
0,14.839999999999728,0.0,0.0,0.259007178709855,0.18044024396498962,-1.617177159689683,0.0,0.0,0.3221471991726979,0.2910716715439281,-0.3113482846425343
0,14.899999999999727,0.0,0.0,0.3229061427463272,0.08655801408611369,-1.6172205178187058,0.0,0.0,0.18905011819376952,-0.0597717251732862,-0.31131252577229185
0,14.959999999999726,0.0,0.0,0.4040660508020826,0.3474364569464953,-1.6170297129285947,0.0,0.0,0.1475281648408869,-0.2715442461844441,-0.3182716089875102
0,15.019999999999724,0.0,0.0,0.03857856971113289,0.05682516813688862,-1.6173792120773427,0.0,0.0,-0.12311355719090486,-0.16334579406439426,-0.3117138043557734
0,15.079999999999723,0.0,0.0,0.3508992752034783,0.08213759328488583,-1.6173539395333427,0.0,0.0,0.20099227772284423,-0.3024518291096963,-0.32078054973802395
0,15.139999999999722,0.0,0.0,0.01058036655313184,0.20661036595947674,-1.6173561407222607,0.0,0.0,0.3163567094897187,-0.18571776711439977,-0.3145844883047711
0,15.19999999999972,0.0,0.0,0.12930998064018784,-0.13287764168947097,-1.6171035695281815,0.0,0.0,0.43490386055039243,-0.2577021324773502,-0.3116131748334295
0,15.25999999999972,0.0,0.0,0.2280576525699381,0.1296777040652038,-1.616741959730256,0.0,0.0,0.1283857579715413,-0.20939759291199922,-0.3068556063977652
0,15.319999999999718,0.0,0.0,0.37787887284060107,-0.006110039393162889,-1.6165978705249882,0.0,0.0,0.3224927171689127,-0.27075669365176075,-0.3281430846984597
0,15.379999999999717,0.0,0.0,-0.048255475305959944,0.30135617260075764,-1.6167057463155383,0.0,0.0,0.1389804849896854,-0.43163294446294487,-0.3071666303945241
0,15.439999999999715,0.0,0.0,0.09507854151293277,0.3439878307178995,-1.6173346016785017,0.0,0.0,0.03133228988746917,-0.07992856305042945,-0.3291481417792602
0,15.499999999999714,0.0,0.0,0.15908516016093294,0.0843999657786749,-1.617738692853038,0.0,0.0,0.23659522093287189,-0.35550814971949674,-0.321011290070644
0,15.559999999999713,0.0,0.0,0.2543001639919229,-0.22076736556673984,-1.617729323620382,0.0,0.0,-0.02830713163067424,0.061232709674543584,-0.3212762579808339
0,15.619999999999711,0.0,0.0,0.379124702949823,-0.3664556595391345,-1.618248938858479,0.0,0.0,-0.08624986026947394,0.2318053644560979,-0.3262348945013344
0,15.67999999999971,0.0,0.0,0.19118129037927464,-0.16860377682865116,-1.6174360422340552,0.0,0.0,-0.0867934849929024,0.3712130850361977,-0.33730953631746036
0,15.739999999999709,0.0,0.0,0.10586264692375845,0.1749538610027678,-1.6169328686122328,0.0,0.0,0.25220096815845916,0.16948861660942438,-0.35116335130877446
0,15.799999999999708,0.0,0.0,0.0163153770750964,0.36762959035013554,-1.6176229340568762,0.0,0.0,0.16213520299196416,0.36228699872052583,-0.35905717260120573
0,15.859999999999706,0.0,0.0,0.033532714759099885,0.14000853645681344,-1.6179579770291839,0.0,0.0,0.36973070773517014,0.42282086574785027,-0.36552996999128073
0,15.919999999999705,0.0,0.0,-0.051657435918264535,-0.07100486139507675,-1.6173891883769536,0.0,0.0,0.21180158302112762,0.11618133174469455,-0.36154750325895463
0,15.979999999999704,0.0,0.0,-0.029584622359796618,0.28378319210350367,-1.6173783464139135,0.0,0.0,-0.0619592402530404,0.13267332081424343,-0.3671617141836752
0,16.039999999999708,0.0,0.0,-0.010007332495413234,-0.10822863409491489,-1.6172561670365835,0.0,0.0,0.0672603679907163,-0.0012043032574255638,-0.3681178383908547
0,16.099999999999717,0.0,0.0,0.00554586777777941,-0.16008815680589833,-1.6154833176421073,0.0,0.0,0.08627996111562763,-0.12571650465648104,-0.36545201240392267
0,16.159999999999727,0.0,0.0,0.313546216308312,-0.07612470041155789,-1.614870475238573,0.0,0.0,0.24241663886707515,-0.31655047204125486,-0.37003394517507443
0,16.219999999999736,0.0,0.0,0.038923473383830946,-0.1463964833908558,-1.6144967992054298,0.0,0.0,0.005153851545368661,-0.48559144313252606,-0.35285549193520344
0,16.279999999999745,0.0,0.0,0.06972910572820436,0.003871734191084112,-1.6139549826762871,0.0,0.0,0.06366291632839764,-0.5170544277625034,-0.37138587500115966
0,16.339999999999755,0.0,0.0,0.07961284435670989,-0.18667651895974652,-1.6130089616839554,0.0,0.0,0.021612457163331322,-0.15062553359846703,-0.3728407594957634
0,16.399999999999764,0.0,0.0,-0.08713910864630516,0.11097147166206758,-1.6122448159788603,0.0,0.0,0.18913695089547825,0.07041425713914534,-0.38201385013379874
0,16.459999999999773,0.0,0.0,0.005585909634414911,0.10501026655238767,-1.6122669529244977,0.0,0.0,0.1635799810606513,-0.22256598184458098,-0.3740100519102978
0,16.519999999999783,0.0,0.0,-0.10682182530732194,0.0817705709261688,-1.6121783896667143,0.0,0.0,0.06276815305732533,-0.28081072378117206,-0.38184757325867574
0,16.579999999999792,0.0,0.0,-0.09904925129388738,0.0010576669005180148,-1.6117187117892633,0.0,0.0,0.31206013843313607,0.1556504210794841,-0.4057074676806451
0,16.6399999999998,0.0,0.0,0.058693168251455305,0.19061724741179528,-1.6116567133035076,0.0,0.0,-0.05228397097860123,-0.09880030799888717,-0.3909656198715595
0,16.69999999999981,0.0,0.0,-0.1429136076493736,0.2905399057820983,-1.6122814002473929,0.0,0.0,-0.05669476660913141,0.18676174468043788,-0.41289147171500495
0,16.75999999999982,0.0,0.0,-0.09516341094254666,0.21127241185231277,-1.6133467397743462,0.0,0.0,0.11107536600872042,-0.019318301808334087,-0.40525584611300286
0,16.81999999999983,0.0,0.0,-0.06584748737008644,-0.054418035147009984,-1.6132059003737227,0.0,0.0,-0.01872296637066689,-0.27843230466509666,-0.39691886481234634
0,16.87999999999984,0.0,0.0,-0.20243426574065598,0.2007001492314449,-1.6130029043276977,0.0,0.0,0.012743913556048645,-0.18367992883593992,-0.4152020486013846
0,16.93999999999985,0.0,0.0,0.11430203472587902,0.09638954183393691,-1.6132939590128337,0.0,0.0,0.1783014072761863,0.11822045161227564,-0.4231352253511894
0,16.999999999999858,0.0,0.0,0.25008250492709433,-0.22176217665421397,-1.6131275608089788,0.0,0.0,-0.18901662452507145,0.2993014936425614,-0.41143916778214445
0,17.059999999999867,0.0,0.0,0.06017280599875433,-0.23885998537207612,-1.6116509005278405,0.0,0.0,-0.2219822256384938,0.27875332369620315,-0.420482804168354
0,17.119999999999877,0.0,0.0,-0.052801263735210685,-0.2916613282210074,-1.610139355539077,0.0,0.0,-0.009237126936290262,0.31245571170204633,-0.43116270200021417
0,17.179999999999886,0.0,0.0,-0.2596158655083223,-0.45080591481104354,-1.6087471126984652,0.0,0.0,0.011652461854819371,0.142345622271238,-0.4315748569739114
0,17.239999999999895,0.0,0.0,0.06594920803093471,-0.507858549778367,-1.6100650232918827,0.0,0.0,0.1414285082962458,0.2710514992440219,-0.4425386815735757
0,17.299999999999905,0.0,0.0,0.14970673226379838,-0.08750677245242901,-1.609649119868268,0.0,0.0,0.014095147994053866,-0.18507374079587036,-0.4356572079765948
0,17.359999999999914,0.0,0.0,-0.08601895771458469,-0.02928425468710067,-1.6087413405003341,0.0,0.0,0.034974589087066146,-0.2995105133587938,-0.44551909704185577
0,17.419999999999924,0.0,0.0,-0.00847788856161329,-0.08652906538038693,-1.6076631597586644,0.0,0.0,-0.24743689963667717,-0.24077682418280255,-0.43629126318292133
0,17.479999999999933,0.0,0.0,-0.001069323986516516,0.06496839745865665,-1.6069986241783416,0.0,0.0,-0.3760260906838655,-0.44757762723879485,-0.4367479196085902
0,17.539999999999942,0.0,0.0,0.15273892094646235,0.15875506632320197,-1.6069960769079084,0.0,0.0,-0.510154280656472,-0.27096718002124,-0.4440940844307782
0,17.59999999999995,0.0,0.0,-0.09527057699998592,0.09281025926019733,-1.6070529974203116,0.0,0.0,-0.3995446121186206,-0.39699536951892694,-0.4398243997029443
0,17.65999999999996,0.0,0.0,0.2133141647762677,-0.18340549067839876,-1.606522434096171,0.0,0.0,-0.28172427677320044,-0.35296310877779513,-0.44397045250554956
0,17.71999999999997,0.0,0.0,-0.01648056614348894,0.0068608282922201815,-1.605838703594318,0.0,0.0,-0.19808426925292122,0.007615513232667542,-0.4478060958015808
0,17.77999999999998,0.0,0.0,0.18364229021513892,0.01517592598360795,-1.605500447962982,0.0,0.0,0.1381960926049519,0.2539112742123904,-0.4602297216270836
0,17.83999999999999,0.0,0.0,0.25004250542307277,-0.2004777162594139,-1.605375977764479,0.0,0.0,0.12139199865704128,0.21615450574322148,-0.46137899272879845
0,17.9,0.0,0.0,0.13081273971330512,0.21495326944561885,-1.6051218228335438,0.0,0.0,0.12182987132922989,-0.14067558148533635,-0.4673683401387234
0,17.960000000000008,0.0,0.0,0.34999245563189585,0.4161992503281131,-1.6053746207247577,0.0,0.0,0.1305972151475074,-0.23058006814009002,-0.47773081346434265
0,18.020000000000017,0.0,0.0,0.33769735032913134,0.5034114800371575,-1.607420675465571,0.0,0.0,0.3094151610228841,0.16257025438413608,-0.4887163788631792
0,18.080000000000027,0.0,0.0,0.3331037895826699,0.5654674035444167,-1.6070076200939452,0.0,0.0,0.3993987677942786,0.2636483774445909,-0.4830652339814814
0,18.140000000000036,0.0,0.0,0.5117984197162325,0.2865607817137703,-1.607446388518239,0.0,0.0,0.32624103889921535,0.31244084074590267,-0.4837537578170789
0,18.200000000000045,0.0,0.0,0.23912522825030266,0.336474759918008,-1.6070800660319984,0.0,0.0,0.13266311247489365,-0.1399512631477041,-0.4828428770411454
0,18.260000000000055,0.0,0.0,0.34841482961955267,0.153052135677616,-1.6067069996404206,0.0,0.0,-0.13910721033581808,-0.04253196936474238,-0.4918949766413063
0,18.320000000000064,0.0,0.0,0.10991343717577923,0.05315175173714008,-1.6066986230544575,0.0,0.0,-0.2382103943433592,-0.024361847390573652,-0.4878445435073405
0,18.380000000000074,0.0,0.0,-0.09829291004568379,0.1684194302004088,-1.6067953022466053,0.0,0.0,-0.19765548055572857,-0.2914793262768226,-0.4807426523179015
0,18.440000000000083,0.0,0.0,0.2556656181649625,0.02799656991053545,-1.606791145264884,0.0,0.0,-0.19479619863427605,-0.011202923023959262,-0.4886642155480979
0,18.500000000000092,0.0,0.0,0.11303746586790175,0.10446671581547295,-1.6067222220750155,0.0,0.0,-0.07455333573820548,0.07086768425971335,-0.48592982397363205
0,18.5600000000001,0.0,0.0,0.36595738968790414,0.3258764557521897,-1.6064230118972955,0.0,0.0,-0.11491033831070961,0.35577563600069784,-0.4926961653334995
0,18.62000000000011,0.0,0.0,0.5484845150864054,0.1864966670116886,-1.6062422348816732,0.0,0.0,0.24772000911124692,0.08113362828471565,-0.4986162688702597
0,18.68000000000012,0.0,0.0,0.022221708692892972,0.4051180159405319,-1.605838740018728,0.0,0.0,-0.16714910774179537,0.08436695644850148,-0.4920217562159551
0,18.74000000000013,0.0,0.0,0.07249715182128816,0.040504468871527005,-1.6062859046033482,0.0,0.0,0.07822036876693177,-0.05786060264704533,-0.5039748875150346
0,18.80000000000014,0.0,0.0,-0.07902305747964,0.3133386658187461,-1.6066591792493141,0.0,0.0,0.08326936808491371,-0.11067289201467156,-0.49786691047917186
0,18.86000000000015,0.0,0.0,0.002698069047274935,0.23658629046402288,-1.6075284377658636,0.0,0.0,-0.06923199301824509,-0.28346257717597556,-0.49314617891132756
0,18.920000000000158,0.0,0.0,-0.1305447692092326,0.244001284246793,-1.6087954283418517,0.0,0.0,0.020401707252711704,-0.042176667612317593,-0.5092116052337984
0,18.980000000000167,0.0,0.0,-0.14914093636426037,0.26486258564399506,-1.610314820354494,0.0,0.0,-0.3030418586552049,0.26083399597904455,-0.4986096050008688
0,19.040000000000177,0.0,0.0,-0.18949336509256906,0.40372291345857536,-1.6120515330607543,0.0,0.0,-0.06277073184743226,-0.008426102141761038,-0.5057845066410954
0,19.100000000000186,0.0,0.0,-0.007219680802618953,0.11679717901288704,-1.6135399407546818,0.0,0.0,0.1736087909557356,0.22944306445670834,-0.5174768128736261
0,19.160000000000196,0.0,0.0,0.31800106853679744,0.21382962058894595,-1.6134527954887576,0.0,0.0,0.13406326585213368,-0.011569935693333238,-0.5146046739566966
0,19.220000000000205,0.0,0.0,0.17768400683526994,-0.09425954180428137,-1.6134452342600831,0.0,0.0,0.3588669407014239,0.16349830209987676,-0.5283066089984879
0,19.280000000000214,0.0,0.0,0.281222137938288,0.0007298296164291035,-1.6131073545319745,0.0,0.0,-0.030132535390555153,-0.17144968677948613,-0.5179595087395898
0,19.340000000000224,0.0,0.0,0.23456215523128354,-0.1610004838697257,-1.613278867090372,0.0,0.0,0.07875015241936661,-0.3952687540283562,-0.531849507863962
0,19.400000000000233,0.0,0.0,0.16768014711540438,0.2277376576494468,-1.6132770023873964,0.0,0.0,-0.04623353974266678,-0.006866371819948251,-0.533178715547573
0,19.460000000000242,0.0,0.0,0.24187067544436205,-0.09102773691211494,-1.6133434089587246,0.0,0.0,-0.20760382768765825,-0.14768554518667798,-0.5199842375393521
0,19.520000000000252,0.0,0.0,0.35743492816962236,0.19699923345413195,-1.6133958146803906,0.0,0.0,-0.4420895740782025,-0.07854947021077882,-0.5295737424753318
0,19.58000000000026,0.0,0.0,0.296348387052887,0.4188510604171952,-1.6134058462243486,0.0,0.0,-0.04798421261060729,-0.2856854032488294,-0.5398906062971724
0,19.64000000000027,0.0,0.0,0.19597595065691822,0.43508830722432457,-1.6139677358429867,0.0,0.0,-0.05056074246264308,-0.4146966418016525,-0.5314733937056401
0,19.70000000000028,0.0,0.0,-0.09243739367353038,0.20309367001382198,-1.6153727415223214,0.0,0.0,-0.24332268884052227,-0.37815909483171023,-0.5309382228750797
0,19.76000000000029,0.0,0.0,-0.00694606456094848,-0.06159978128352993,-1.6150921741313997,0.0,0.0,-0.1491549548067242,-0.1611658296747182,-0.5359866802444027
0,19.8200000000003,0.0,0.0,0.17386472893753388,0.04918988513706823,-1.614612296475397,0.0,0.0,-0.14241884844241337,-0.3638823500825846,-0.5283568162499808
0,19.880000000000308,0.0,0.0,0.104668437839622,0.31444905598268413,-1.6148753834311702,0.0,0.0,0.19077004173516826,0.0898623552643062,-0.5492693290183973
0,19.940000000000317,0.0,0.0,-0.017652316616708904,0.19045332450729538,-1.615543239233365,0.0,0.0,0.07719600260665056,0.09809441757084765,-0.5363741783492081
0,20.000000000000327,0.0,0.0,-0.20987317988460555,0.38780007569354846,-1.616872188224326,0.0,0.0,0.05576720879501975,0.05694705319981506,-0.5449193853777817
0,20.060000000000336,0.0,0.0,0.20189743778675082,-0.06415179328274254,-1.617404431623327,0.0,0.0,0.04811341930608105,0.0010370291768685425,-0.5478348641365696
0,20.120000000000346,0.0,0.0,-0.07539208062457582,0.09785082339285767,-1.6170237471335196,0.0,0.0,-0.04125920631122024,-0.23454786119294638,-0.5439646228295293
0,20.180000000000355,0.0,0.0,-0.1692455017984036,0.2506059064348354,-1.6176089215813798,0.0,0.0,-0.14319582284983912,-0.1738930422625182,-0.5537829171257116
0,20.240000000000364,0.0,0.0,-0.10463119552294989,-0.15513643471572,-1.617146425004458,0.0,0.0,0.17470736465330752,0.08651381866476895,-0.5666502906431132
0,20.300000000000374,0.0,0.0,0.10061474196553698,0.222082196930274,-1.6168999610101487,0.0,0.0,-0.03527128097705738,-0.15201498348170905,-0.550903629021864
0,20.360000000000383,0.0,0.0,0.2367812617638581,0.360042233642386,-1.61783669729212,0.0,0.0,0.04779449222374535,0.048832759950449715,-0.5715852930588499
0,20.420000000000393,0.0,0.0,0.4591826731309689,-0.07389219733153152,-1.6179162757926022,0.0,0.0,0.19333484956627425,0.05594183799206728,-0.5683098044833368
0,20.480000000000402,0.0,0.0,0.06545211131608988,0.2459996756575193,-1.6181571225726001,0.0,0.0,0.4044520430673864,0.32014176844492953,-0.572075755553086
0,20.54000000000041,0.0,0.0,0.25461230899295423,-0.042075243348978934,-1.6182226384294807,0.0,0.0,0.11673732066605663,0.11631780196997131,-0.5707141832033252
0,20.60000000000042,0.0,0.0,0.33347438247672917,-0.3352685692749539,-1.6184588480582847,0.0,0.0,0.07180465314788402,-0.002508618401231141,-0.5749528815256866
0,20.66000000000043,0.0,0.0,0.46449987534697024,0.07007867070375376,-1.618953021610084,0.0,0.0,0.21137059128681876,-0.15715537687639783,-0.5787108360414941
0,20.72000000000044,0.0,0.0,0.21268517094219122,-0.046671429529520886,-1.6188662460399021,0.0,0.0,0.12861415931047893,-0.1455648157190182,-0.5741200660012156
0,20.78000000000045,0.0,0.0,-0.017006784240789885,0.2651941597102566,-1.6188656733870728,0.0,0.0,0.05036324268647391,0.05904638107187403,-0.5782905010593075
0,20.840000000000458,0.0,0.0,0.16449404965020098,0.29006881362898274,-1.6186135458483242,0.0,0.0,0.03840796006618201,0.016057005944093004,-0.5773266933868848
0,20.900000000000468,0.0,0.0,0.32608025458861944,0.18015284121512332,-1.6186353868567838,0.0,0.0,-0.07858540764795768,0.0643904031286016,-0.5790678599959467
0,20.960000000000477,0.0,0.0,0.0005094265037883239,0.272697679537063,-1.619080792171792,0.0,0.0,-0.2907296191192135,-0.08884886474153489,-0.5739853910433508
0,21.020000000000486,0.0,0.0,0.09009812682694854,0.05042183416524701,-1.619174944987042,0.0,0.0,0.007326453445186995,0.03875446533459097,-0.5858219993714708
0,21.080000000000496,0.0,0.0,-0.05199108217462594,0.026292320197779905,-1.6186453928052547,0.0,0.0,0.21284955495592306,-0.17103227034418744,-0.5759253055651737
0,21.140000000000505,0.0,0.0,-0.12399650139522812,0.060369220784507946,-1.618094361618896,0.0,0.0,0.07058265821649765,-0.17096476459807997,-0.5763189523904195
0,21.200000000000514,0.0,0.0,0.15994761967352839,-0.18171039290722862,-1.61708520572448,0.0,0.0,0.04464194227176371,-0.0841323013874044,-0.5848433572685922
0,21.260000000000524,0.0,0.0,0.2542908229268451,0.16871356912901325,-1.6164746515063046,0.0,0.0,-0.10541304143387215,0.06664496108264678,-0.5851593726072651
0,21.320000000000533,0.0,0.0,0.07549105939432059,-0.103692201746837,-1.616084480857427,0.0,0.0,-0.2465977435311521,-0.1870740521718205,-0.5786082012239046
0,21.380000000000543,0.0,0.0,0.0342867280833788,-0.21694302366794865,-1.6146039552811833,0.0,0.0,-0.45769575846413196,-0.052904961470757614,-0.5871598006061486
0,21.440000000000552,0.0,0.0,0.09141529457352028,0.13836038574894552,-1.6137386356741854,0.0,0.0,-0.261465650321525,-0.1733183470117946,-0.5920100402975306
0,21.50000000000056,0.0,0.0,-0.050910124616636236,0.07798255837030967,-1.6136883590424382,0.0,0.0,-0.17562458825159374,-0.2669220207465906,-0.5886901882793788
0,21.56000000000057,0.0,0.0,0.055250596177651955,0.12163666866833901,-1.6136467590754937,0.0,0.0,-0.3970407362843019,-0.43806042097896786,-0.5856047334413761
0,21.62000000000058,0.0,0.0,0.36855457277408066,-0.0884838488418859,-1.613361363384496,0.0,0.0,-0.3121110622063476,-0.18692954303871917,-0.5946448286082072
0,21.68000000000059,0.0,0.0,0.31594788293967996,0.16260277581320925,-1.6136777283010943,0.0,0.0,-0.17673616766342554,0.17218794691689632,-0.5966043952662907
0,21.7400000000006,0.0,0.0,-0.003636568980292361,0.3911284047376792,-1.6137084723073738,0.0,0.0,-0.15464704456915082,0.23633182336554304,-0.5958706531052548
0,21.80000000000061,0.0,0.0,-0.1830780742098453,0.4091597589805818,-1.6156978396447113,0.0,0.0,-0.3246254590086034,0.39678357624480015,-0.5992190892176714
0,21.860000000000618,0.0,0.0,0.0913463442557025,0.014676771625038255,-1.6164738540707322,0.0,0.0,0.11453049006128305,0.18415862195746077,-0.6047667750955084
0,21.920000000000627,0.0,0.0,0.03678704202637584,0.3167834151879736,-1.6162936970397006,0.0,0.0,0.12185155547612017,0.08241422236064372,-0.604229138030853
0,21.980000000000636,0.0,0.0,0.17249285656769953,-0.059330450268444836,-1.6167035156288325,0.0,0.0,-0.10325664646613399,0.08166718783575164,-0.6033341234274007
0,22.040000000000646,0.0,0.0,0.019229087436707145,-0.1943798797061082,-1.6151877415581182,0.0,0.0,-0.1704344539183008,0.11709946988008949,-0.6082612165810615
0,22.100000000000655,0.0,0.0,0.218639131713011,-0.0938650700938474,-1.6143321202546876,0.0,0.0,0.06178899771992386,-0.00494819649318471,-0.612643276746149
0,22.160000000000664,0.0,0.0,0.0565662487983432,-0.03218176314926135,-1.61365259652223,0.0,0.0,-0.05550813738329957,-0.14691876326704786,-0.6044255745901419
0,22.220000000000674,0.0,0.0,0.3263443406406452,0.06123083741197227,-1.613315253736653,0.0,0.0,-0.32186199114127734,-0.3738706173853159,-0.6043283663883565
0,22.280000000000683,0.0,0.0,0.2984873088020006,-0.244185030362535,-1.613315196542169,0.0,0.0,-0.23479603186551118,-0.22420615475327987,-0.6103209784548772
0,22.340000000000693,0.0,0.0,0.4380028821355411,-0.1175667106143682,-1.6134383544664073,0.0,0.0,-0.2259568833014803,-0.22713353837701558,-0.6085785042254297
0,22.400000000000702,0.0,0.0,0.35716142887399127,-0.38747442486844147,-1.6140133252830113,0.0,0.0,-0.20327805286663395,-0.3674125686611184,-0.6080805868498805
0,22.46000000000071,0.0,0.0,0.33272200559476095,0.039909516532876166,-1.6139952522747198,0.0,0.0,-0.28725475000681416,-0.2096438155068937,-0.6168053136618171
0,22.52000000000072,0.0,0.0,0.11067723038325036,0.2502122950789768,-1.6140139079682503,0.0,0.0,-0.4221159630971085,-0.21896713613801025,-0.6182407668304685
0,22.58000000000073,0.0,0.0,-0.05720939534613197,-0.15387759320258973,-1.613312020908732,0.0,0.0,-0.5409615343389197,-0.37837914213196855,-0.6198595808421496
0,22.64000000000074,0.0,0.0,-0.13647057426610795,-0.2349388777412042,-1.611968791958513,0.0,0.0,-0.4760055539688472,-0.5289041141307335,-0.6275929056075752
0,22.70000000000075,0.0,0.0,-0.37979652804656416,-0.0869690914981203,-1.6114977288478904,0.0,0.0,0.011914812791668672,-0.20204928807533284,-0.6324457543701394
0,22.76000000000076,0.0,0.0,-0.1144073766196832,-0.3342794509947653,-1.6116421920392867,0.0,0.0,0.3214414408309022,-0.38354194754259646,-0.6147889639831532
0,22.820000000000768,0.0,0.0,-0.19063563332257313,-0.09764072358751945,-1.6112832421170291,0.0,0.0,0.3728484752672392,-0.21711749364882948,-0.6217106536388535
0,22.880000000000777,0.0,0.0,0.23149763467557918,0.05866975475019906,-1.6108309754444758,0.0,0.0,-0.07005386400293667,0.024416251088850635,-0.6151341025267055
0,22.940000000000786,0.0,0.0,0.40102244177101803,-0.003246323150865792,-1.6103897674099505,0.0,0.0,0.253850569983102,0.3063611160131501,-0.6345412654086833
0,23.000000000000796,0.0,0.0,0.33715301188580615,-0.12579869260474283,-1.6101259667563632,0.0,0.0,0.15748184379316518,0.39790330528426054,-0.6309290469824695
0,23.060000000000805,0.0,0.0,0.2154409183889028,-0.3856736497724546,-1.609085790152921,0.0,0.0,0.17452787982786075,0.1664093140722353,-0.6315636943816243
0,23.120000000000815,0.0,0.0,0.060308966948194154,-0.15547127311405273,-1.6081790749057059,0.0,0.0,0.016484343207740084,0.11162497131982828,-0.6322600229566687
0,23.180000000000824,0.0,0.0,0.27325591819657974,-0.09283707198710127,-1.6083587811733309,0.0,0.0,-0.22997621838423235,0.04467382883481296,-0.6315520700214594
0,23.240000000000833,0.0,0.0,0.21044868353597776,-0.13750641517582984,-1.6080051334004999,0.0,0.0,-0.3691490121410282,0.0470023104774155,-0.6332215337802786
0,23.300000000000843,0.0,0.0,0.41309332481312355,0.04316431523107607,-1.6081448323619445,0.0,0.0,0.04946144907947757,-0.07387818300051602,-0.6388440663748006
0,23.360000000000852,0.0,0.0,0.167388626531883,0.16704186829617237,-1.6081580676353868,0.0,0.0,-0.14626124164368984,-0.04965639329542971,-0.6259312518190999
0,23.42000000000086,0.0,0.0,0.05718403228879369,0.40100032241707323,-1.608215125478739,0.0,0.0,-0.07680748496441059,-0.017247596475910495,-0.6354086837875584
0,23.48000000000087,0.0,0.0,-0.06002202784852576,0.5345697741799313,-1.608869109554751,0.0,0.0,0.060452304385865394,-0.3046734936108771,-0.6322505918194966
0,23.54000000000088,0.0,0.0,-0.18014312585293962,0.29024292951895564,-1.6122308041401536,0.0,0.0,0.1689261457561913,-0.03383582077603138,-0.6402874779907249
0,23.60000000000089,0.0,0.0,-0.1403910378456554,0.019395068927352425,-1.613257094399545,0.0,0.0,0.1842051156598537,0.04860794336391025,-0.6327317720883616
0,23.6600000000009,0.0,0.0,0.10413199673846421,0.3222059044761298,-1.6130788658585182,0.0,0.0,0.2533219035640432,-0.087718826753519,-0.6344427238667897
0,23.72000000000091,0.0,0.0,0.10613818982366688,0.26950505603533326,-1.6141863022404552,0.0,0.0,0.16253170388628582,0.15786922624583644,-0.6392516727454667
0,23.780000000000918,0.0,0.0,0.16953095713059485,0.41883104514798314,-1.614172507998109,0.0,0.0,0.15997558462807226,0.3034212473816145,-0.6399904064906417
0,23.840000000000927,0.0,0.0,0.27396771488434823,0.1423735825822135,-1.614899769381447,0.0,0.0,0.3145861144815314,-0.04577368571816585,-0.639684899977901
0,23.900000000000936,0.0,0.0,0.05785287437961756,0.07503419336691922,-1.6148518773797396,0.0,0.0,0.1029178716205166,0.11107063348924165,-0.6402841860665693
0,23.960000000000946,0.0,0.0,-0.11100694319114561,0.11094745389805236,-1.614717647007525,0.0,0.0,0.3105785591009305,0.09176293509214425,-0.6431244871833071
0,24.020000000000955,0.0,0.0,0.12077828662879125,-0.08844369723869758,-1.614371725834835,0.0,0.0,0.18039337551305176,0.07118746448057509,-0.6383240836714863
0,24.080000000000965,0.0,0.0,0.38442677584906554,-0.37168326698144605,-1.6138067506678693,0.0,0.0,0.03616830756257827,0.343767388488652,-0.6426891719794535
0,24.140000000000974,0.0,0.0,0.29688336660378184,-0.19625205963398534,-1.6139032737091799,0.0,0.0,-0.174214635755221,0.11567958507235607,-0.6399058029228653
0,24.200000000000983,0.0,0.0,0.1348296380012266,0.061063498128510155,-1.6137596314642129,0.0,0.0,-0.3734637533544953,0.1924378765240339,-0.6441374295932573
0,24.260000000000993,0.0,0.0,0.11831773478912064,0.288987790319703,-1.6139899516471277,0.0,0.0,-0.03880883752052185,0.07865728908779136,-0.6473054197697076
0,24.320000000001002,0.0,0.0,0.07966246338443544,0.3094973474334522,-1.614217154985841,0.0,0.0,0.026593128055262386,-0.0899978023825157,-0.6407789835265887
0,24.38000000000101,0.0,0.0,0.18638630335558362,0.41404155481992155,-1.6150985090425627,0.0,0.0,0.12280918520497837,0.26000555538414893,-0.6488836023565119
0,24.44000000000102,0.0,0.0,0.24290565354463317,0.2680859709116794,-1.6155729578797844,0.0,0.0,0.022316473063481765,0.39049321736360665,-0.6440810349661023
0,24.50000000000103,0.0,0.0,0.03409757189941341,0.31921224100706264,-1.6155752111040178,0.0,0.0,-0.08588283360086688,0.2534958728982306,-0.6444042849372454
0,24.56000000000104,0.0,0.0,0.17420905177587107,0.49343364092036357,-1.6149043837730344,0.0,0.0,0.20386001899382175,-0.14265092848193564,-0.6480189126234175
0,24.62000000000105,0.0,0.0,0.1803705635709772,0.15281761404034147,-1.6167398696888713,0.0,0.0,0.1405929531544125,-0.06792506791570342,-0.6468180723917974
0,24.68000000000106,0.0,0.0,0.3759381798612508,0.21667480729103514,-1.6165341952742207,0.0,0.0,0.11898473018520063,0.02833179406774871,-0.6482016962641483
0,24.740000000001068,0.0,0.0,0.11710594558332876,0.036252601278697685,-1.6164216658780326,0.0,0.0,0.15118837447931768,0.29630067806404753,-0.6488388176921815
0,24.800000000001077,0.0,0.0,0.3447658384311553,0.14671378961892884,-1.616441325558958,0.0,0.0,0.22690243966575213,0.30153931920612853,-0.6474421095225313
0,24.860000000001087,0.0,0.0,0.07571468812458237,-0.10405210850767128,-1.6160022304346064,0.0,0.0,0.43623444391615274,-0.08601138373762748,-0.6464054551892147
0,24.920000000001096,0.0,0.0,0.2705889982845074,-0.05298157769717743,-1.615912164329338,0.0,0.0,0.32953088192713326,-0.10381540400542735,-0.6479894488920117
0,24.980000000001105,0.0,0.0,0.2365411492038276,0.21332075290054975,-1.6159837671477582,0.0,0.0,0.24576003193644616,-0.0659585524060737,-0.6508727394095678
0,25.040000000001115,0.0,0.0,0.1262973227770542,0.39236258619828795,-1.6162420264076647,0.0,0.0,0.4353236024881105,-0.2798680468422112,-0.6524596470128539
0,25.100000000001124,0.0,0.0,-0.03003956518633965,0.19838321023110744,-1.6177295137574352,0.0,0.0,0.2498918203982836,-0.11901545930086375,-0.6489423550685709
0,25.160000000001133,0.0,0.0,0.17545572908327828,-0.002523052191993263,-1.6177827215806933,0.0,0.0,-0.08534677891591935,0.1318641803260893,-0.6484039568616959
0,25.220000000001143,0.0,0.0,0.4194470510477868,0.06868451474914086,-1.6175801206568352,0.0,0.0,0.2084668086126058,0.2652874281440359,-0.6546527095610891
0,25.280000000001152,0.0,0.0,0.5164870943385109,0.086650169821331,-1.617586239628321,0.0,0.0,0.3019216196749741,0.2705639426148842,-0.6506022328152044
0,25.34000000000116,0.0,0.0,0.3033166346758174,0.11993959014070528,-1.617597114232959,0.0,0.0,0.4321214776318331,0.28162302901531994,-0.6513794486343658
0,25.40000000000117,0.0,0.0,0.3684682113854087,0.37886391764963356,-1.6172328106567138,0.0,0.0,0.3627045977671228,0.27924155635419357,-0.6512085324817037
0,25.46000000000118,0.0,0.0,-0.002938370861215768,0.40440801653916797,-1.6173763041148221,0.0,0.0,-0.023713809112191744,0.025185750123828343,-0.6515167350637975
0,25.52000000000119,0.0,0.0,0.007582813818698991,-0.021126859799210237,-1.6178393536336035,0.0,0.0,0.18238399299953953,0.0012527935288344197,-0.6629776482931355
0,25.5800000000012,0.0,0.0,0.13588470995316915,0.13227242827967825,-1.617698097290672,0.0,0.0,0.15563543155471019,0.17741537196038257,-0.6557013360340637
0,25.64000000000121,0.0,0.0,0.14604307142915005,-0.017435271847094067,-1.617419467943926,0.0,0.0,0.3609891370450988,0.09909811465245916,-0.6540231737013459
0,25.700000000001218,0.0,0.0,0.12017018382533474,-0.25004622261877324,-1.616198785487372,0.0,0.0,0.047613428152067816,0.05927158527157806,-0.6482523840405898
0,25.760000000001227,0.0,0.0,-0.10673280090049893,-0.0027508429522127703,-1.6147723430082037,0.0,0.0,-0.12422971487711093,-0.21216214581431306,-0.6497704129799706
0,25.820000000001237,0.0,0.0,-0.00298171871767524,-0.0719439358156343,-1.6136133006422406,0.0,0.0,0.18085650208420595,-0.27741800011905726,-0.6617367798747671
0,25.880000000001246,0.0,0.0,0.2577096632712238,-0.12553186553508203,-1.6123503641992951,0.0,0.0,0.22055836630150302,-0.33866158899028526,-0.6496281486350971
0,25.940000000001255,0.0,0.0,0.464013713450064,-0.23983134216191218,-1.6118066768873343,0.0,0.0,-0.1425591903925545,-0.3372216747422915,-0.641878251894849
0,26.000000000001265,0.0,0.0,0.45692962770400725,-0.07881665941736639,-1.6119884403841045,0.0,0.0,0.19974212949537593,-0.48503106230060145,-0.6555857513730107
0,26.060000000001274,0.0,0.0,0.12776027353762903,-0.19939935338932646,-1.611995942967255,0.0,0.0,0.11040286557708286,0.04053411712521361,-0.6504692143675544
0,26.120000000001284,0.0,0.0,-0.030766114600939726,-0.29053703182235174,-1.6098803166537985,0.0,0.0,-0.2542506140035857,-0.1423492856213719,-0.6363522316110176
0,26.180000000001293,0.0,0.0,-0.2478966994446883,-0.00856485285770793,-1.6090615883192245,0.0,0.0,-0.019288665269064295,-0.16465272816987317,-0.6559499961037498
0,26.240000000001302,0.0,0.0,-0.3287401598152655,0.3110351132881858,-1.6093424860543857,0.0,0.0,-0.23204303470720097,-0.1953731523400594,-0.6443123091736306
0,26.30000000000131,0.0,0.0,0.055561683617570544,-0.1263029181530463,-1.6093001609288677,0.0,0.0,-0.3418256521272614,0.04111862386349714,-0.6531811853193841
0,26.36000000000132,0.0,0.0,0.15025109546149357,0.21239317669301405,-1.6088294756303791,0.0,0.0,-0.3001804265579383,-0.1327211730892163,-0.6507338052347433
0,26.42000000000133,0.0,0.0,0.3127354349769139,0.4376894518159127,-1.6097609096423209,0.0,0.0,-0.3989875435990991,-0.3891177461803531,-0.6497896462794196
0,26.48000000000134,0.0,0.0,0.06103560677506773,0.11384319127454037,-1.6107073779402397,0.0,0.0,-0.4435367159333524,-0.04273638270205099,-0.6520668078327012
0,26.54000000000135,0.0,0.0,0.29640135793892275,-0.05948071445315495,-1.6108753142665642,0.0,0.0,-0.0705499460404097,-0.10244356579510898,-0.6520860518690075
0,26.60000000000136,0.0,0.0,0.049790874539443024,0.2748340138553565,-1.610746313360233,0.0,0.0,-0.2096230211013067,0.24975996808619574,-0.6505117876046448
0,0.02,0.0,0.0,4.878735329334963e-06,1.3623479228111238e-07,-7.571459873568713e-23,0.0,0.0,-7.854918663612705e-05,2.518711576205686e-05,-0.002230149105094536
0,0.08,0.0,0.0,-0.306191562710881,0.31746916444245765,0.0017507879817039267,0.0,0.0,-0.11260735913252715,-0.006501639644926016,-0.0052561224400645735
0,0.13999999999999999,0.0,0.0,-0.13943188687237962,0.06757079480054795,-0.03997488835256268,0.0,0.0,-0.20660422175442852,0.23406994239442316,-0.0077296580015674445
0,0.20000000000000004,0.0,0.0,0.12370466412265756,-0.22054198076924691,-0.013577057944719681,0.0,0.0,-0.15606367345467023,0.28118194426072185,-0.11336319556771879
0,0.26000000000000006,0.0,0.0,0.2175087911690817,-0.32135824474748387,0.2204066743438182,0.0,0.0,-0.27555387646372176,0.20408105593714845,-0.06329356505506784
0,0.3200000000000001,0.0,0.0,0.21892572770053548,-0.2688210991990125,-0.08650371262045056,0.0,0.0,-0.3591888089634434,0.2490515629048779,-0.06705886930536535
0,0.38000000000000017,0.0,0.0,0.19134266396298594,-0.47478063584378066,-0.10294486821241611,0.0,0.0,-0.19541758701931555,0.23010122975955855,-0.05405226442007875
0,0.4400000000000002,0.0,0.0,0.4112583903444539,-0.15688744669107996,-0.0699588313354154,0.0,0.0,-0.10339423996623669,-0.021650523009531138,0.040411608539722615
0,0.5000000000000002,0.0,0.0,0.30185011343422424,-0.2844581564841686,-0.12852619972869098,0.0,0.0,-0.05143613315573201,-0.1602473462506566,0.12617469634318423
0,0.5600000000000003,0.0,0.0,0.31729473251532364,-0.20555083454646841,-0.11576192402984374,0.0,0.0,0.2485533003472224,-0.5974888013002049,0.26340966227959356
0,0.6200000000000003,0.0,0.0,0.05731726678737497,0.2826442006272952,-0.42563427664043674,0.0,0.0,0.16979817931954744,-0.6045549144017686,0.289326157798823
0,0.6800000000000004,0.0,0.0,0.2261541894095439,0.10249254275802733,-0.5947534439988703,0.0,0.0,0.08471431404920687,-0.652091342209644,0.29164022772530607
0,0.7400000000000004,0.0,0.0,0.27877594185803184,0.09197471252302669,-0.5672992685070307,0.0,0.0,0.34946630783955823,-0.9307163064123435,0.3317688777367936
0,0.8000000000000005,0.0,0.0,0.459978401231303,-0.07618632859763802,-0.5307652190352573,0.0,0.0,-0.015217709933031537,-0.5954164866709594,0.3240863301628823
0,0.8600000000000005,0.0,0.0,0.732053720322526,-0.37249757956751284,-0.49273205437545803,0.0,0.0,0.2547707715336313,-0.9342026595763335,0.4074613146571205
0,0.9200000000000006,0.0,0.0,0.756471869720456,-0.2954769759022333,-0.4508170385130766,0.0,0.0,0.035039112478005924,-0.7620840253292486,0.4470692479458838
0,0.9800000000000006,0.0,0.0,0.8462316351167315,-0.3140849290229553,-0.61809369728317,0.0,0.0,0.04892137969540731,-0.8608220344347813,0.5087337889576427
0,1.0400000000000007,0.0,0.0,0.8795100490085701,-0.26672633301171556,-0.6383373944503309,0.0,0.0,0.12575045695722425,-1.0537529656086517,0.83118617542081
0,1.1000000000000008,0.0,0.0,0.6116268742834908,0.1702420699326226,-0.6563572018713303,0.0,0.0,-0.11763844767350908,-0.8303475359733369,1.0142007564581814
0,1.1600000000000008,0.0,0.0,0.6373810810639577,0.20510337653552768,-0.65106639852079,0.0,0.0,-0.28830385352697746,-0.6053630749301266,0.9834781773409474
0,1.2200000000000009,0.0,0.0,0.5605338310194099,0.2307153847754473,-0.6549241871276184,0.0,0.0,-0.17915062784204605,-0.6704450753919531,0.7774825401752199
0,1.280000000000001,0.0,0.0,0.6181752659114043,-0.12907435285969926,-0.6741687321236537,0.0,0.0,-0.20946829193792416,-0.42149714107395864,0.5736851719852558
0,1.340000000000001,0.0,0.0,0.42353745124277775,-0.27527253352278985,-0.6734633798996205,0.0,0.0,-0.09193611298428188,-0.44970513439580967,0.5564886543904257
0,1.400000000000001,0.0,0.0,0.41095278719290895,-0.16069356541633043,-0.6734633798996205,0.0,0.0,-0.19395032358892383,-0.14798536699003825,0.5744122139453003
0,1.460000000000001,0.0,0.0,0.2390359881212151,-0.14188217457634617,-0.6734633798996205,0.0,0.0,0.13572580713043358,-0.03117289160780117,0.5925410874378639
0,1.5200000000000011,0.0,0.0,-0.18321022672138912,0.24298916194109182,-0.6734633798996205,0.0,0.0,0.3383543549588697,0.018404496985805735,0.5673977300391707
0,1.5800000000000012,0.0,0.0,-0.2647669767384381,0.2509044732508154,-0.6733842115173138,0.0,0.0,0.04605616068437948,-0.24924232359431578,0.654794578226815
0,1.6400000000000012,0.0,0.0,0.3542084815947676,0.024710445115046997,-0.7308728536010594,0.0,0.0,-0.29648561635534054,-0.22037892779021884,0.3484416572160687
0,1.7000000000000013,0.0,0.0,-0.06408962283745165,0.394847779719993,-0.6100953930338647,0.0,0.0,-0.0013618240516977687,-0.44855686347329926,-0.3253228239026513
0,1.7600000000000013,0.0,0.0,-0.401834534340752,0.4758706677722036,-0.5749859883739886,0.0,0.0,0.3493937305871839,-0.5091635733049402,0.17459154185525674
0,1.8200000000000014,0.0,0.0,-0.15721007770730658,0.11130121650463308,-0.5000285657046238,0.0,0.0,0.05687583571833306,-0.44668428416133105,0.1382795523983833
0,1.8800000000000014,0.0,0.0,0.08359904987295497,-0.22340989708795425,-0.4316276749231227,0.0,0.0,-0.05558998139389974,-0.5276610978659462,0.16834972738923995
0,1.9400000000000015,0.0,0.0,-0.08513351024743102,0.045472348349311235,-0.4317050860513119,0.0,0.0,0.09736655655243746,-0.23889220336250314,0.18069624154190067
0,2.0000000000000013,0.0,0.0,-0.05434454879400883,0.1579767944796504,-0.4227846924168858,0.0,0.0,0.23644624543196743,-0.3287820325177307,0.21572035886447954
0,2.06,0.0,0.0,0.023554050776796544,-0.1245356630178237,-0.4009154776785237,0.0,0.0,-0.05216373445185793,-0.09578052390216678,0.16445005721562908
0,2.1199999999999988,0.0,0.0,-0.03531642467264379,-0.07340274881945125,-0.3444961902396379,0.0,0.0,0.011758078159526857,-0.13682371039541757,0.16059336507577948
0,2.1799999999999975,0.0,0.0,0.34568671794679273,-0.31713257586056537,-0.07786616711531225,0.0,0.0,-0.20141169190059605,-0.28931428296666434,0.14202341664388687
0,2.239999999999996,0.0,0.0,0.5599565226668061,-0.45941193687600174,0.03863166197527868,0.0,0.0,-0.38588456233445273,-0.13720263884723286,0.1592152498509849
0,2.299999999999995,0.0,0.0,0.6472827721159363,-0.47457829300269166,0.33613776010197777,0.0,0.0,-0.4109483917188319,0.22928263261650586,-0.13975668759073762
0,2.3599999999999937,0.0,0.0,0.6348284475726536,-0.5163421424286068,0.5380487758761192,0.0,0.0,-0.3577877526353919,0.2388786546814986,-0.5465744006399276
0,2.4199999999999924,0.0,0.0,0.5348180899590796,-0.6202961179021127,0.644406448329288,0.0,0.0,-0.1571520220331142,0.20050896995941483,-0.7857027675030628
0,2.479999999999991,0.0,0.0,0.3702931438311802,-0.5947675834920144,0.6601401991276771,0.0,0.0,-0.34919582109929925,0.10997435960982396,-0.8791126637653275
0,2.53999999999999,0.0,0.0,0.34862398532275796,-0.4781718343136389,0.676599135512167,0.0,0.0,-0.09525428290380296,0.11536089240920513,-0.9358385623977551
0,2.5999999999999885,0.0,0.0,0.32622063269425666,-0.24233545719205477,0.7382882740495813,0.0,0.0,-0.03165959543953341,0.05660239914234397,-0.9690780629749994
0,2.6599999999999873,0.0,0.0,0.32186618657727073,-0.004106117053041019,0.7438088583685201,0.0,0.0,-0.12616785176117523,0.09276774473596273,-0.9819077373514755
0,2.719999999999986,0.0,0.0,0.2852307756290037,0.13515786621011355,0.7701791669870953,0.0,0.0,-0.10538051167063306,-0.07719870930669698,-0.982434538285747
0,2.7799999999999847,0.0,0.0,0.43136940534424917,-0.12868003585528226,0.7870420694026896,0.0,0.0,-0.1568449185717109,-0.02130898467660261,-1.0067089381548242
0,2.8399999999999834,0.0,0.0,0.49057538853015653,-0.019547601475614646,0.7995996168845627,0.0,0.0,-0.328408972204936,0.2477817280627583,-1.0295617943662192
0,2.899999999999982,0.0,0.0,0.6822670108823524,-0.4113982883302486,0.7995542801380103,0.0,0.0,-0.326504388961864,0.031315861000281275,-1.036981582756015
0,2.959999999999981,0.0,0.0,0.599904338923973,0.04434582618896222,0.8007415898862337,0.0,0.0,-0.49782284525165965,0.15432728034241774,-1.051495483976212
0,3.0199999999999796,0.0,0.0,0.5859587457048245,0.15431020235599188,0.8608353801550401,0.0,0.0,-0.5105106940664601,-0.052325277951578375,-1.0280877445688537
0,3.0799999999999783,0.0,0.0,0.666729988769778,-0.09212200433144646,0.8639299661071628,0.0,0.0,-0.5100329979554228,0.11915590775747184,-1.067018715714456
0,3.139999999999977,0.0,0.0,0.5703923586065264,-0.0825449707683599,0.85454266131281,0.0,0.0,-0.4305407590294445,-0.18353217310389475,-0.8647463397978785
0,3.1999999999999758,0.0,0.0,0.41878617734081314,0.0895888823938569,0.8682798121692129,0.0,0.0,-0.34649287093773645,0.19639863618231224,-0.7594526068943079
0,3.2599999999999745,0.0,0.0,0.046885538519973326,0.014997731985534609,0.8691426085702775,0.0,0.0,-0.2728694870748545,0.37041042878116603,-0.659126428523354
0,3.319999999999973,0.0,0.0,0.042714718332974196,0.17508970799115475,0.872974272049308,0.0,0.0,-0.050213583562145864,-0.10543743522428667,-0.5553317099549864
0,3.379999999999972,0.0,0.0,-0.04712957780226746,-0.16578094452722977,0.8741667396807296,0.0,0.0,0.25090165772090733,-0.3932535189209935,-0.4892941354238277
0,3.4399999999999706,0.0,0.0,-0.23991493863245472,-0.26134779333962,0.8741667396807296,0.0,0.0,0.3806339188705655,-0.541284430243086,-0.43910326958154333
0,3.4999999999999694,0.0,0.0,-0.13741890703317233,-0.05327057062432862,0.8731017495384817,0.0,0.0,0.3515596453413327,-0.5456917700497542,-0.42599371851024975
0,3.559999999999968,0.0,0.0,-0.2833920397858591,-0.31395736740037655,0.8731017495384817,0.0,0.0,0.2333506906818305,-0.4617029975735205,-0.4225212364579215
0,3.619999999999967,0.0,0.0,-0.4625241935232047,0.05321801201323612,0.8731017495384817,0.0,0.0,0.1383220304004121,-0.49389147282682117,-0.42019639593616
0,3.6799999999999655,0.0,0.0,-0.4100509235447538,0.037991455115912245,0.8731070089656267,0.0,0.0,0.34063147677227973,-0.34873674694225737,-0.42005140973138905
0,3.7399999999999642,0.0,0.0,-0.14982927242099137,-0.03513687335589657,0.8698875306625562,0.0,0.0,0.21626029137169853,-0.3881916204811476,-0.43644217087960224
0,3.799999999999963,0.0,0.0,-0.10478749850261634,-0.04409134551367706,0.862154170510662,0.0,0.0,0.1546823055193989,-0.39725703196274054,-0.44113793529792217
0,3.8599999999999617,0.0,0.0,0.0604617273940575,0.06740992912702544,0.8499853978966733,0.0,0.0,-0.0800018331414021,-0.1822874222445226,-0.44186553349452495
0,3.9199999999999604,0.0,0.0,-0.2468745846888422,-0.2358562667941937,0.8499899525132958,0.0,0.0,-0.06596159727757397,0.061281529597396675,-0.43887893908864667
0,3.979999999999959,0.0,0.0,0.030779274860750324,0.10351265690130416,0.8479275588991074,0.0,0.0,0.04478864754854658,-0.27506975347533535,-0.44177486752130357
0,4.039999999999958,0.0,0.0,0.02652132354941493,0.09350265220160695,0.8309532853707409,0.0,0.0,0.022965360013164335,0.14605390687326092,-0.43831460522844184
0,4.099999999999957,0.0,0.0,0.023109985958029,0.10621434190069863,0.8105547379591546,0.0,0.0,0.08410994655285098,0.1354067540584738,-0.4433610206932691
0,4.159999999999956,0.0,0.0,0.0006856947527358651,-0.21268921240266564,0.810408558742964,0.0,0.0,0.2416140883725239,0.14849205359816753,-0.44291912034030245
0,4.2199999999999545,0.0,0.0,-0.20358669383006106,0.18299696364488105,0.8105155615653133,0.0,0.0,-0.010833869269360252,-0.2198224888395135,-0.44363535031132856
0,4.279999999999953,0.0,0.0,-0.23938621513564393,0.0002994416800762116,0.8106075681028944,0.0,0.0,-0.0949921558114388,-0.36137300696619395,-0.4390913030454056
0,4.339999999999952,0.0,0.0,0.018822451847081947,0.2058440925686392,0.8068110375626322,0.0,0.0,-0.009485425598742861,0.07705343247987333,-0.43809049396129063
0,4.399999999999951,0.0,0.0,-0.04721241857430042,0.10051848677227304,0.8071311221838207,0.0,0.0,0.2906111975283433,-0.09516548217018235,-0.4448176646406784
0,4.459999999999949,0.0,0.0,0.011039929662534684,0.3788737558145584,0.7915024473160638,0.0,0.0,0.06581060393838996,0.1330655623459725,-0.44803990748650274
0,4.519999999999948,0.0,0.0,0.013499119231439323,0.42122699660718554,0.7839392017056958,0.0,0.0,-0.15207942338280883,-0.06699196675092324,-0.44741935771324065
0,4.579999999999947,0.0,0.0,-0.007298642136031423,0.20428549211074853,0.7832368948422467,0.0,0.0,0.11625368988585459,-0.2975277944348944,-0.44264850690709967
0,4.6399999999999455,0.0,0.0,-0.30439294991880356,0.4045135599820691,0.7832727862627563,0.0,0.0,0.380274655611513,-0.0044876820263707665,-0.4409086917861504
0,4.699999999999944,0.0,0.0,-0.02483035842905193,0.14880692537677315,0.783283875249389,0.0,0.0,0.3354739607566776,0.07837133880922545,-0.4470450392519839
0,4.759999999999943,0.0,0.0,-0.29216441919339387,0.02374476922353016,0.7833234535211244,0.0,0.0,-0.10701238121571796,0.29938578545483074,-0.4477360777830291
0,4.819999999999942,0.0,0.0,-0.4429901914025734,0.1536151233221992,0.7833300586472985,0.0,0.0,0.24732112803223538,0.32967546440936063,-0.4451382396692147
0,4.87999999999994,0.0,0.0,0.020558765935643125,0.1604457357247589,0.783339954365983,0.0,0.0,0.25449930278444377,0.18054042992445682,-0.4469281075323522
0,4.939999999999939,0.0,0.0,-0.17273000283409395,-0.18576351723916246,0.7833829870850162,0.0,0.0,0.2902043044153304,0.036664241182451235,-0.44662987324748515
0,4.999999999999938,0.0,0.0,-0.32175730850202006,0.0326129431328913,0.7833712117665956,0.0,0.0,0.03313137276679023,-0.21923599878946043,-0.44838955709174205
0,5.0599999999999365,0.0,0.0,-0.2409545987581262,0.3274292490603293,0.7833921368057225,0.0,0.0,0.2687509162945797,0.11632853573787122,-0.43756018372750555
0,5.119999999999935,0.0,0.0,-0.1629752854192339,0.41918889197401865,0.7833814604794505,0.0,0.0,0.06811656165299602,0.013630704696600226,-0.4475581953113566
0,5.179999999999934,0.0,0.0,-0.30510813211383947,0.5289304058357596,0.7833474102512816,0.0,0.0,0.04545035996203278,-0.30851298337466465,-0.4476686772289729
0,5.239999999999933,0.0,0.0,-0.09098378014415923,0.1410662196303362,0.7833417823143128,0.0,0.0,-0.3030021605332913,-0.3341757172717321,-0.4486978434239581
0,5.299999999999931,0.0,0.0,-0.3753325749721217,0.3147886800685553,0.7833666394335339,0.0,0.0,-0.26902322850421034,-0.3916577727040223,-0.4464402025427687
0,5.35999999999993,0.0,0.0,-0.4279480913421928,-0.09450429434357288,0.7833719077294546,0.0,0.0,-0.44711268161745427,-0.1577407624234074,-0.44718308447910365
0,5.419999999999929,0.0,0.0,0.007107704188942828,-0.3079333829517578,0.7777020900610663,0.0,0.0,-0.08298613939189002,-0.18477282253887123,-0.44618916665041664
0,0.02,0.0,0.0,0.000627112810971369,-0.00013224194054712197,8.961608581950497e-20,0.0,0.0,-7.211457443052816e-06,-2.227316287888491e-06,1.1387879495026516e-06
0,0.08,0.0,0.0,0.3002443167831239,-0.03384469042752506,-1.6692195947224744e-18,0.0,0.0,-0.3087808245763143,0.054544161596480206,-0.010041247175963374
0,0.13999999999999999,0.0,0.0,0.427320630133533,0.07989739437780605,8.484289553904636e-05,0.0,0.0,0.10866437208843181,-0.04484015641697887,-0.00029520870126458886
0,0.20000000000000004,0.0,0.0,0.32344465149265994,0.3468709234656885,0.002909027833952579,0.0,0.0,-0.00522516300571987,-0.10960406354405508,-0.13166510687324673
0,0.26000000000000006,0.0,0.0,0.08698743385392589,0.22848902293385404,-0.013984100393495897,0.0,0.0,-0.013262836658513518,-0.20985912351308914,-0.0013355458933243733
0,0.3200000000000001,0.0,0.0,0.18970960280996277,0.09509902803491313,-0.15686644079148485,0.0,0.0,-0.12749649886650774,-0.19210212422810938,0.011425095998952473
0,0.38000000000000017,0.0,0.0,0.10481595997974788,0.3014447663487489,-0.14908031752388132,0.0,0.0,0.12845393499576244,-0.6134160776264831,0.15966774593716931
0,0.4400000000000002,0.0,0.0,0.4987889448095815,-0.1228878205485954,-0.22497485333339107,0.0,0.0,0.0702620665313056,-0.636956513978309,0.22183689198521797
0,0.5000000000000002,0.0,0.0,0.5411194191825338,-0.01099609124700863,-0.22537436540786734,0.0,0.0,-0.0370570917565429,-0.6121844923196077,0.23324525435228238
0,0.5600000000000003,0.0,0.0,0.3553886928443895,0.3149217312219614,-0.27340842661038184,0.0,0.0,-0.23423156849212248,-0.4900053524050488,0.24780205288882473
0,0.6200000000000003,0.0,0.0,0.6282780750133838,0.0876795922011897,-0.3430444564547031,0.0,0.0,-0.2553449133914833,-0.6000712718968882,0.7943038675992042
0,0.6800000000000004,0.0,0.0,0.7088888508758034,0.17646960342256313,-0.7884613959116346,0.0,0.0,0.005356917260443867,-1.106292870547685,1.3229157279237824
0,0.7400000000000004,0.0,0.0,0.8611307715332192,0.08314297159338911,-0.9641254624185642,0.0,0.0,-0.2757300972440855,-0.9223253226906818,1.3442083014882065
0,0.8000000000000005,0.0,0.0,0.830611881510115,0.07906941966935419,-0.7899273187046405,0.0,0.0,-0.5406984565872159,-0.5017782879926463,1.2399745442432346
0,0.8600000000000005,0.0,0.0,0.6304310956464408,0.19359823221486694,-0.7731291141783858,0.0,0.0,-0.5904351259770421,-0.3649925193233636,1.2573640418471017
0,0.9200000000000006,0.0,0.0,0.4401881395430046,0.14202426254607825,-0.7922684237649613,0.0,0.0,-0.5572330168629608,0.023134005289202314,0.6286180949961099
0,0.9800000000000006,0.0,0.0,0.3456242285723266,-0.10722797953229753,-0.7924514665921519,0.0,0.0,-0.1917749770050438,0.22116051178280044,0.19367699548163514
0,1.0400000000000007,0.0,0.0,-0.10177212246367295,0.15982507316589556,-0.7924514665921519,0.0,0.0,-0.08599323432188857,-0.023307549003694743,0.26379011931732677
0,1.1000000000000008,0.0,0.0,-0.18297861264503318,0.0027635437030198474,-0.7924514665921519,0.0,0.0,0.01849265328736334,-0.2657431405201587,0.3005644955910451
0,1.1600000000000008,0.0,0.0,-0.08983112292248213,0.0647565618915209,-0.7924514665921519,0.0,0.0,-0.10055056039863489,-0.07365752196655803,0.2770931328824763
0,1.2200000000000009,0.0,0.0,0.05052343215356361,-0.013630020659781085,-0.7924514665921519,0.0,0.0,-0.35808702923802177,0.23358382401310857,0.2757567412222765
0,1.280000000000001,0.0,0.0,-0.11028172537641952,-0.1292056064101962,-0.7924514665921519,0.0,0.0,-0.3544464393023623,0.351764404947254,0.2791726714591387
0,1.340000000000001,0.0,0.0,-0.3097289413936942,-0.0343124638041288,-0.7924514665921519,0.0,0.0,-0.46465688955263473,0.264757353342649,0.2733391273845397
0,1.400000000000001,0.0,0.0,-0.5048769544045663,-0.21833481330401533,-0.7924514665921519,0.0,0.0,-0.14834551252868583,0.14843496361267444,0.2845496266491939
0,1.460000000000001,0.0,0.0,-0.18500317742565103,-0.24443670264684972,-0.7924514665921519,0.0,0.0,-0.274030836129748,0.19371881270988925,0.2732531285870391
0,1.5200000000000011,0.0,0.0,0.19033251666275283,-0.20792571357359882,-0.7924514665921519,0.0,0.0,-0.21099072180683712,0.026652374818762665,0.27452908830877076
0,1.5800000000000012,0.0,0.0,-0.11118374728897099,-0.2993853012938997,-0.7924514665921519,0.0,0.0,-0.03266524661435766,0.2393207745203756,0.2941348783956612
0,1.6400000000000012,0.0,0.0,0.16966246646262445,-0.4637438702122734,-0.7924514665921519,0.0,0.0,-0.3349613312526141,0.06339833881180941,0.2723032857376524
0,1.7000000000000013,0.0,0.0,0.14314172724019725,-0.49026766031714114,-0.7924514665921519,0.0,0.0,-0.25783186416492315,0.17883590220314477,0.29866577590552434
0,1.7600000000000013,0.0,0.0,0.1593621014491012,-0.3918343609711429,-0.7924514665921519,0.0,0.0,0.11603266091197634,0.2684770748946961,0.30798421434834267
0,1.8200000000000014,0.0,0.0,0.18896060304548074,-0.5175267312135875,-0.7924514665921519,0.0,0.0,-0.09270946251693021,0.428220777166258,0.2937991312191741
0,1.8800000000000014,0.0,0.0,0.09572144615036252,-0.035850834717953,-0.7924514665921519,0.0,0.0,0.0913156768899741,0.01592789798848602,0.2932679675708047
0,1.9400000000000015,0.0,0.0,0.23391008522283074,-0.30491131755175727,-0.7924514665921519,0.0,0.0,-0.12979449275590485,-0.07785200635620172,0.2866367552164222
0,2.0000000000000013,0.0,0.0,-0.141398551795533,0.07715916198594719,-0.7924514665921519,0.0,0.0,-0.022434485503191146,-0.16942339634943976,0.3049403953206896
0,2.06,0.0,0.0,-0.24031838912838152,-0.06641164436226771,-0.7924514665921519,0.0,0.0,-0.044812072263838605,-0.26009218264523365,0.2952680781346863
0,2.1199999999999988,0.0,0.0,-0.1267401433245986,-0.12378179800080501,-0.7924514665921519,0.0,0.0,-0.26240686724708884,-0.19151699136387385,0.29117894391198823
0,2.1799999999999975,0.0,0.0,-0.09618015967752148,0.2299950915205491,-0.7924514665921519,0.0,0.0,-0.2801018789710068,0.0432244691179419,0.3120376727157373
0,2.239999999999996,0.0,0.0,0.1380900375941534,0.15654487000635312,-0.7924514665921519,0.0,0.0,-0.31301276746857787,0.28650957137005356,0.3110361170651514
0,2.299999999999995,0.0,0.0,-0.2075511712140943,0.1633645550170621,-0.7924514665921519,0.0,0.0,-0.026036079227190527,-0.009824817269306917,0.3083296471755553
0,2.3599999999999937,0.0,0.0,-0.37023855257859994,0.3723066717011027,-0.7924514665921519,0.0,0.0,0.028715643434096924,0.20873326134159093,0.317321621668663
0,2.4199999999999924,0.0,0.0,-0.40375042333139344,0.40870283103952687,-0.7924514665921519,0.0,0.0,-0.13000014370243915,0.16107172400199027,0.30408637456706017
0,2.479999999999991,0.0,0.0,-0.25956504190287705,0.12793147242078673,-0.7924514665921519,0.0,0.0,0.1693322955177841,0.22822242807313178,0.32399430833842724
0,2.53999999999999,0.0,0.0,-0.2276927559598407,0.18049706420686873,-0.7924514665921519,0.0,0.0,-0.049860842559589336,-0.12037691195479108,0.2999976912693349
0,2.5999999999999885,0.0,0.0,-0.1532344856916453,-0.23173836874609194,-0.7924514665921519,0.0,0.0,0.08496695101471466,-0.39418693874406885,0.3254379573658007
0,2.6599999999999873,0.0,0.0,0.05079286524137618,-0.44065399450417975,-0.7924514665921519,0.0,0.0,0.09217466342868602,-0.22373616072221406,0.33733675276425445
0,2.719999999999986,0.0,0.0,-0.2232913084711584,-0.15870885689866743,-0.7924514665921519,0.0,0.0,0.006747634824783178,0.1720373916127041,0.3421897290955611
0,2.7799999999999847,0.0,0.0,-0.07248574767614793,-0.23920897491721074,-0.7924514665921519,0.0,0.0,-0.009958420893716124,-0.11124025863084366,0.3266192577342659
0,2.8399999999999834,0.0,0.0,-0.28046555208919766,-0.0056755010268185364,-0.7924514665921519,0.0,0.0,0.04123798534984824,-0.19341005824087615,0.34037950972034875
0,2.899999999999982,0.0,0.0,-0.39824453874001364,0.151203913822545,-0.7924514665921519,0.0,0.0,0.28407558693688656,-0.0744783710926975,0.3623306983014334
0,2.959999999999981,0.0,0.0,0.06939633192956535,0.08956347958175227,-0.7924514665921519,0.0,0.0,0.07786518810717477,0.04681208036658962,0.3358396821501264
0,3.0199999999999796,0.0,0.0,-0.05819161083447013,0.245344679188992,-0.7924514665921519,0.0,0.0,-0.04057072978905209,-0.20049230816489394,0.32554129635650425
0,3.0799999999999783,0.0,0.0,0.21444987194616297,0.02282683093905841,-0.7924514665921519,0.0,0.0,0.16948766578861313,0.06472977366944796,0.26006075074578666
0,3.139999999999977,0.0,0.0,0.15921831078615611,-0.0018394251580799697,-0.7924514665921519,0.0,0.0,0.0516702496565422,0.06548152072619598,0.28162164459556577
0,3.1999999999999758,0.0,0.0,0.09601656373232953,0.07927302340241438,-0.7924514665921519,0.0,0.0,-0.2253386546870081,-0.15192622158122585,0.2382640866918672
0,3.2599999999999745,0.0,0.0,0.32894913201656384,0.06514272689338592,-0.7896417541557524,0.0,0.0,-0.2537146507736449,0.29615790249583634,-0.011921335320092551
0,3.319999999999973,0.0,0.0,0.42977105714186925,0.11639888771719889,-0.7133944100388981,0.0,0.0,-0.21269228345960223,0.065876468526359,-0.10002070903871021
0,3.379999999999972,0.0,0.0,0.5698285267194121,-0.5878808662818803,-0.2387117593673322,0.0,0.0,-0.45647603862900765,0.104311639726855,-0.11570850915737901
0,3.4399999999999706,0.0,0.0,0.5905868136383713,-0.23675813684564928,-0.2300608226865599,0.0,0.0,-0.3586220851436345,0.12272989024467167,-0.1216858759508544
0,3.4999999999999694,0.0,0.0,0.28662868723395835,-0.16254254293781123,-0.16158924227351817,0.0,0.0,-0.20579274469020495,0.024976390447818138,-0.1291287109799563
0,3.559999999999968,0.0,0.0,0.12022845791184868,-0.31892284443910324,-0.16436295948023996,0.0,0.0,0.1188426631146777,-0.1168044339617686,-0.1350514202629394
0,3.619999999999967,0.0,0.0,0.10237658086398063,-0.32658017011531065,-0.15757009999428634,0.0,0.0,-0.21281465367604846,-0.24939279141315265,-0.15916497982588415
0,3.6799999999999655,0.0,0.0,0.2646078837427145,-0.06622586187409799,-0.15776234374488074,0.0,0.0,-0.4087275681473913,0.11038386388183039,-0.13549640791159764
0,3.7399999999999642,0.0,0.0,0.2941962071199489,0.07783862306475528,-0.15829423558428074,0.0,0.0,-0.14208048395202932,0.08056831591755734,-0.13220278746469308
0,3.799999999999963,0.0,0.0,0.1531380691698286,0.23866672371724587,-0.15909039491386187,0.0,0.0,-0.38422904791779633,0.03156954837241653,-0.14643683814037714
0,3.8599999999999617,0.0,0.0,0.26621253488772634,0.2789590861763541,-0.16021309683064233,0.0,0.0,-0.5322113786891478,0.21420102964096438,-0.13759932529673197
0,3.9199999999999604,0.0,0.0,0.4389132660814596,0.45684153486733836,-0.1636735930865051,0.0,0.0,-0.5874296666657921,0.4308338934161703,-0.135426197839895
0,3.979999999999959,0.0,0.0,0.35997983968709696,0.46219197208841445,-0.16736122576116574,0.0,0.0,-0.4855646189550579,-0.01333746941652883,-0.1394987184311415
0,4.039999999999958,0.0,0.0,0.39287127992253473,0.27991497537490606,-0.16931928260955229,0.0,0.0,-0.1923589964946485,-0.05647207578174709,-0.12181847253164348
0,4.099999999999957,0.0,0.0,-0.045314669826384664,-0.021809968690289644,-0.1668279795914431,0.0,0.0,-0.21445709854779332,-0.10006409261346909,-0.13679383741948675
0,4.159999999999956,0.0,0.0,0.0031370949178827247,-0.15161847322699104,-0.16824046958739558,0.0,0.0,-0.09034359917839135,-0.3589422456182252,-0.13623388525550106
0,4.2199999999999545,0.0,0.0,0.31447806742722256,-0.3021617708409359,-0.1682595423147886,0.0,0.0,-0.32447336578739755,-0.06304858783431042,-0.1341828357227704
0,4.279999999999953,0.0,0.0,0.06306481668460778,-0.3376062924093284,-0.168290100218687,0.0,0.0,0.10391730372657741,0.12067912811115894,-0.11042129000367942
0,4.339999999999952,0.0,0.0,0.062156806288183916,-0.4995411537403201,-0.16826549175790173,0.0,0.0,0.03275760652789839,-0.16036630817067646,-0.13366369611737444
0,4.399999999999951,0.0,0.0,0.2411341649161151,-0.12418602200981302,-0.16837177929861283,0.0,0.0,-0.1471081109667306,0.08560923400993188,-0.12032008677177254
0,4.459999999999949,0.0,0.0,-0.13612160361599934,0.01181755068123038,-0.17668059545835188,0.0,0.0,-0.2519325542591502,-0.14892753696445754,-0.13271216739460284
0,4.519999999999948,0.0,0.0,0.21576181078219192,0.20835429783100592,-0.17667561313482932,0.0,0.0,-0.035418940430280724,0.03318871311854082,-0.10445337846343916
0,4.579999999999947,0.0,0.0,-0.11282257190768083,0.15823366516751408,-0.17736909893815314,0.0,0.0,0.18726476246363552,0.2164072124996617,-0.10486056975869151
0,4.6399999999999455,0.0,0.0,-0.14085614975181368,-0.10566610153175392,-0.17509428635563806,0.0,0.0,-0.031068221209967113,0.39586567436229886,-0.11554238704992831
0,4.699999999999944,0.0,0.0,0.2422431745970504,-0.10634582625918802,-0.1750797860215009,0.0,0.0,-0.2923474812520494,0.21226734866582733,-0.12051626712384443
0,4.759999999999943,0.0,0.0,0.4571812125679213,-0.10387606455310862,-0.17515975046746013,0.0,0.0,0.13977012485198798,-0.1260677082585358,-0.1083081075779227
0,4.819999999999942,0.0,0.0,0.2090314367577716,-0.34792498483736706,-0.17503130572178593,0.0,0.0,-0.15407776401711887,-0.2940599444132209,-0.13447416279664362
0,4.87999999999994,0.0,0.0,-0.007092332791216929,-0.008477492444716565,-0.17505962200962008,0.0,0.0,0.15685882856169225,-0.3799055830217437,-0.10047201389689109
0,4.939999999999939,0.0,0.0,-0.05876084253034235,-0.2472133503353111,-0.1752064362539593,0.0,0.0,0.0833239855054559,0.057376289938013955,-0.10471794316999418
0,4.999999999999938,0.0,0.0,-0.013380484676576612,-0.2878555110894478,-0.1751746423066828,0.0,0.0,0.3265548518868253,-0.030702814922835945,-0.11056598060526845
0,5.0599999999999365,0.0,0.0,-0.07496518897730145,-0.22874283652750166,-0.17516803068896963,0.0,0.0,0.042717504606496336,0.23526650300743912,-0.11831953464224088
0,5.119999999999935,0.0,0.0,-0.14212376026276502,0.023096906524344193,-0.1751858376569808,0.0,0.0,0.04605696171019567,0.4074075956970738,-0.11402266340900441
0,5.179999999999934,0.0,0.0,-0.21293458724728462,0.22721329982228014,-0.14766534111729254,0.0,0.0,0.009643420609701928,0.34421879261092053,-0.11871487469067861
0,5.239999999999933,0.0,0.0,-0.057916612158733,0.264755292027585,-0.14985026793842912,0.0,0.0,-0.026715407615911763,0.4136543930730549,-0.11910888547396827
0,5.299999999999931,0.0,0.0,0.04642420807094017,0.1751015117437301,-0.14997482859057326,0.0,0.0,0.018761381305006413,0.3362027918969397,-0.12298674343963076
0,5.35999999999993,0.0,0.0,-0.09130285415215064,0.005447096577491879,-0.1500363217381167,0.0,0.0,0.131897980744036,0.02830852196617529,-0.1275787165003591
0,5.419999999999929,0.0,0.0,-0.36570205740319556,0.15714317444046905,-0.14998813125283383,0.0,0.0,0.2575432409598035,0.2262827384137722,-0.11714395104597411
0,5.479999999999928,0.0,0.0,0.03492047138236039,0.05885892571510258,-0.1501348337612436,0.0,0.0,-0.12433604795765704,0.07783056085324473,-0.13614708208107132
0,5.539999999999926,0.0,0.0,0.0033295499596407846,-0.19615518209395555,-0.15066052806211286,0.0,0.0,0.15347226444537118,0.044773520831332604,-0.11384967183918664
0,5.599999999999925,0.0,0.0,0.2099266193407881,-0.2362027195430444,-0.15061901798949298,0.0,0.0,0.2927442227975275,0.13696311820269655,-0.1181817694921483
0,5.659999999999924,0.0,0.0,0.2923059247533194,-0.14873247834940145,-0.15052542921437598,0.0,0.0,0.26361632425688303,0.19201992956590816,-0.12526700482201603
0,5.7199999999999225,0.0,0.0,-0.0584862219830193,-0.012701222452409969,-0.15020774335030385,0.0,0.0,0.11712371299389172,-0.037590385085702366,-0.13401575278244268
