Aizawa-Shun/Mikkelsen/data/joint_angles.csv
episode,time,joint_1,joint_2,joint_3,joint_4,joint_5,joint_6,joint_7,joint_8,joint_9,joint_10
0,0.02,-5.743216370855356e-05,-0.00017976605727285455,0.00013301929767292766,0.00012770989965552515,-0.002451844863853887,-9.498423844962896e-05,-7.170853550138191e-05,-0.000242248229648813,-0.000229457225132783,0.007367892560305263
0,0.5300000000000002,-2.8935498738385257,3.036526171170561,-0.5964729379624728,-2.110047926352374,-0.015485355380897124,-1.8624823219661635,-1.8734805672883523,-1.543941804749182,-2.7750848129352343,0.08082648430549162
0,1.0400000000000007,-0.6917701561921873,-2.6913243592823646,1.205938529106976,1.952426111704261,0.003619810458475878,2.6514291672622234,0.18998127275684815,1.9897546727875306,0.46902619247973615,0.07158110148120413
0,1.5500000000000012,-2.01611238464628,-2.5726621970573387,1.7403563600738057,0.9739870996935465,0.02088392433134482,-1.9276129139735185,1.0661643153290783,-0.3741487619282975,-2.992311564949802,0.23645243415721529
1,0.09999999999999999,5.1476949807691976e-05,-0.00012467792516872945,0.00459022747330359,-0.00290152466664046,0.0059553625653251,-7.077813613347939e-05,0.00015205218664218528,0.00025201565051299456,-0.0036614370842938454,0.030958418439627666
1,0.6100000000000003,0.8547214986513394,-2.050418450914223,-1.943547623583334,-0.14069133990750537,-0.00452966638423276,0.3484867157182136,-2.9662517377402113,0.22751160185861186,2.2773265185302214,0.028918491506687283
1,1.1200000000000008,-1.8574796978371322,1.5997846833318374,0.8423683748659334,1.593758788300244,-0.1684820809794938,0.15102737277213207,2.705936470553067,-2.723275900407565,-1.7561993069830641,0.03369105648696818
1,1.6300000000000012,1.5920319002193224,0.45731057001969394,1.0669575808065161,-3.1038716852273347,-0.16115254287101216,-1.8108715158818158,-2.897182825971947,-1.5038240258541693,-1.4978710983833305,0.011553883520862961
2,0.47000000000000025,0.0004910462630606338,0.000829142789274568,0.035394069796644355,-0.029166199069855365,0.06458433728276072,0.00015947013424629004,0.0009583295361082607,0.00041122980291625376,-0.007620745025553043,0.11095911079301912
2,0.9800000000000006,-2.8424641464160283,3.025818296752856,-3.129670808109309,1.3307944088438508,-0.03240360638643361,-1.9300513171395657,-1.3384928831884275,-0.7652364396481072,-1.3296647526470475,0.13304206450940514
3,0.08,2.8872653829895892e-05,-0.00014472760717325372,0.0033633550470454888,-0.0020729482591847355,0.003410411685541798,-6.716662063629763e-05,8.521305274021663e-05,0.0001455767398571997,-0.002943896203879311,0.0262145212331694
3,0.5900000000000003,0.6834847629747377,0.06874751842751751,0.6754675123353407,-2.85798926550212,-0.027675206140452917,-1.8602461390756035,0.16182718967003581,-2.7672768513120793,-2.0286505215035326,0.09181808366125495
3,1.1000000000000008,-1.4197511519813515,0.4183000642880054,-2.615718926430737,-0.8145276051975839,-0.01434528571551041,-2.457212132020535,-0.03995727823991772,2.209279620252916,0.8065339690357592,0.1039729052673604
3,1.6100000000000012,2.4187056070796915,1.1257705284075574,-0.6647084870297615,1.114572034619748,-0.03485428198099812,2.342704047141047,0.6769278039916268,-0.4980986390384611,-1.1625115218429825,0.10155606850256765
3,2.1199999999999988,-2.764474236278224,0.9061684315003737,-1.6612864805610106,2.2871539890039196,-0.002855806469592886,0.17012300185168347,-1.2807870534122696,-1.943164298059091,-1.8760828396678095,0.10102803472890608
3,2.629999999999988,-1.6480870840186777,-0.6727260300743358,0.8168654028171063,-1.9924522330893388,-0.025095591476334,1.4239153958020863,2.0029845172539686,1.8567794385473693,-1.0529366212650941,0.09988663108915942
3,3.139999999999977,-1.849438035552457,1.4605120385451695,-0.2406662584582862,2.132212363642612,0.0009890276908303248,-2.295046670127687,-2.1002359350381283,-0.27666363334433747,0.5157880294444633,0.10009345467818274
4,0.2800000000000001,0.00034464910462627367,0.00030014808009617256,0.017406039426898542,-0.0131726683170506,0.029018112960970902,5.1071242728831595e-05,0.000499216108377694,0.0005474894930152023,-0.006117919410751871,0.06998753689361087
4,0.7900000000000005,-0.20891637840262844,-0.43747312432660196,-0.8643866471306206,2.6199267400011506,0.03562626841227457,-0.04983081188599119,-0.5178540947919757,-1.869975407764837,-0.8225478373068799,0.10253339720569996
5,0.10999999999999999,6.489256805571704e-05,-0.00011348690038740041,0.005267500666896347,-0.003354386591325616,0.007085348316531834,-7.65077593629385e-05,0.00018988438936679692,0.0002892176880630868,-0.003969540307365344,0.032824761645967204
5,0.6200000000000003,0.22427992359867752,-1.3537060708023734,-2.083732266052521,0.1592059901234115,-0.005258694678108992,-0.695889681899959,0.02001179083146374,-1.232952611225032,1.7514033517229428,0.08073075452854707
5,1.1300000000000008,-2.1158752818735995,1.244822651948912,-0.16919411250168528,2.1178143459764693,-0.0023312564624485593,2.231455570741486,1.1427350035877717,0.17483864347031658,2.084457501836127,0.08009221923389528
5,1.6400000000000012,-0.5073592106813288,-3.0180929356791806,-0.6542652486100379,-2.317225202630191,-0.001974174956050314,2.578220501547596,0.7716212270515524,-0.20944750497558362,2.086895731297613,0.07732001936933895
6,0.3000000000000001,0.0003678410568831583,0.00036213399154983757,0.019060626289247925,-0.014662450353278851,0.03249384857498485,7.136523823456363e-05,0.0005450389658906559,0.0006010184696003972,-0.006384924581785034,0.07456106754811963
6,0.8100000000000005,-2.6213631820144725,1.095193063675723,-0.7077893241788545,0.13608026388277625,0.05054240897588062,-2.379646941836921,-1.4033905216494351,2.8265032415849287,-1.7770438562280828,0.13133621881034746
7,0.09999999999999999,5.1476949807691976e-05,-0.00012467792516872945,0.00459022747330359,-0.00290152466664046,0.0059553625653251,-7.077813613347939e-05,0.00015205218664218528,0.00025201565051299456,-0.0036614370842938454,0.030958418439627666
7,0.6100000000000003,-1.1944557938851967,3.0088164638420416,2.984318387224745,0.9388311424444873,-0.0011734869393164402,1.5611481594993122,-0.20939320495810249,0.13929929397402394,-2.0298352086207143,0.2090505959871555
8,0.12999999999999998,8.462129944455157e-05,-9.584162684626026e-05,0.006791107331651275,-0.004345434406823736,0.008731076487834017,-6.532304640757212e-05,0.00028526991603648174,0.00028759367821029424,-0.004271810414146239,0.036350712590647
8,0.6400000000000003,-2.4867834263484347,-0.13942550054564382,-1.7424685281746088,0.2970979696521215,-0.009337207569004363,-0.8859216590371036,1.9800830990773903,-0.9350390408430594,-1.632389870332856,0.09200782647132903
9,0.34000000000000014,0.0004271758161623093,0.0004734814440029575,0.022545940820031148,-0.01777204761061593,0.03958461209684175,0.0001087909184074939,0.0006478189521266596,0.0006482874856179853,-0.006806765804046977,0.08355301206269913
9,0.8500000000000005,1.0484840309981922,-2.6275325185958867,-2.873854208922489,3.1082974021147245,0.042174868793495836,-1.8048609669781046,2.956964209406366,2.885987974330269,-2.949183838832261,0.13827347713548122
10,0.17,0.00015094339099574306,-8.274592517117746e-05,0.009891253325864628,-0.00616799360149133,0.011063005033487245,-9.706293155566659e-05,0.00013045314894702208,-0.000145647149772794,-0.003949260589015243,0.04369297058248015
10,0.6800000000000004,-0.36807293274695113,-0.25778764860218256,-0.9223033081384556,-1.2836519585490722,-0.008931669609942374,0.9243734474237582,-0.27827705493105787,-0.16806654163924642,-0.09862239612850315,0.0966440406504157
0,0.02,-0.001652179177711378,-0.0005873231605982395,0.000201365807027333,0.018147610285971415,0.0,-0.035051930018528285,-0.005275594115642406,-0.00977949166489413,0.02723471326435582,0.0
0,0.02,-0.001652179177711378,-0.0005873231605982395,0.000201365807027333,0.018147610285971415,0.0,-0.035051930018528285,-0.005275594115642406,-0.00977949166489413,0.02723471326435582,0.0
0,0.02,-0.001652179177711378,-0.0005873231605982395,0.000201365807027333,0.018147610285971415,0.0,-0.035051930018528285,-0.005275594115642406,-0.00977949166489413,0.02723471326435582,0.0
0,0.5300000000000002,-0.14303156149552904,-2.8349379547862545,0.7106089881526816,1.4856799245983905,0.0,7.149245591933872,-1.6654440784451947,0.5418144241538949,0.5700257592532237,0.0
0,1.0400000000000007,-0.28335969058752847,-6.701847581798019,0.9777900489600387,0.706262192065532,0.0,0.31376390176135505,0.35870818262918946,-0.5941781850811042,0.5257320358031623,0.0
0,1.5500000000000012,0.17297792615846247,-5.859917839778251,-2.6612533717629554,-8.114227414890687,0.0,-0.23397472094641433,2.341799192859839,-0.18634967726719773,-1.8387261226625966,0.0
0,2.06,0.6409578438121842,3.899865084845251,-2.10350372465949,-8.871837074870182,0.0,0.7882028387061994,5.233385694524931,0.17861634528733922,0.18202296231719817,0.0
0,2.569999999999989,0.8761317126324109,5.974225698211644,-3.113582211472823,-13.629161856154917,0.0,-1.4875231677075638,1.7484584555069318,-2.365393713041497,-1.993045764203332,0.0
0,3.0799999999999783,1.0054331227118953,11.695002505473017,-2.8353068166524986,-14.084057095918231,0.0,8.998899716744674,-0.6278797751978497,0.09091619721922757,0.9822166352476067,0.0
0,3.5899999999999674,1.0836340564888938,12.982469998311007,-2.22443148039182,-15.263653865868081,0.0,13.589503248943766,-0.6081500520381434,-0.478624219661772,0.967686438639204,0.0
0,4.099999999999957,1.0120402816099126,8.431519370086173,-4.156188154595407,-14.65828284208549,0.0,14.458976805081727,-1.9790890520833326,0.3155355104831932,1.3509002028648402,0.0
0,4.609999999999946,1.1561384141018367,12.735212180893296,-3.3288739960498424,-8.391858891374346,0.0,13.700850659443327,-1.5835409963313059,0.3199126758945737,1.428920098279459,0.0
0,5.119999999999935,1.212455996783864,12.567377232503514,-3.1016876450861757,-8.661344454616037,0.0,14.48915372823292,-3.3672491709032912,0.6316010403112164,-0.3155605069833654,0.0
0,5.629999999999924,1.2502311093803726,12.350195327328885,-2.5059690134425145,-8.812967521726923,0.0,13.90544724572521,-3.1648951293188716,2.2163787741092627,-0.21116966287456346,0.0
0,6.1399999999999135,1.2282198463589653,12.534545691789436,-3.1358335593519526,-8.882497329440255,0.0,6.297016384334621,-4.011175960428206,-0.6340045630650729,-0.3425958596930345,0.0
0,6.649999999999903,1.2125050996647682,12.421351119055888,-2.5591634305829567,-8.77321056438764,0.0,3.4969442988343653,-3.5363055637212386,0.6394640388612499,-1.1847165703951792,0.0
0,7.159999999999892,1.1716762044311753,12.773814948257543,-3.064992455984824,-9.402882292180722,0.0,0.16787939489747508,-4.496834568737926,-0.6741444409816518,-0.40991106941357985,0.0
0,7.669999999999881,1.1342938076452251,10.298331321056537,-2.81493272896257,-8.918970963468071,0.0,-0.0017981461128578902,-4.333899002274163,0.09864845866510305,-0.6226668816804096,0.0
0,8.17999999999987,1.0087530686104327,11.104608863847611,-3.1163084231195266,-7.517949201151471,0.0,2.088658491742096,-4.255533123720206,1.4802956609820086,-2.153232499816135,0.0
0,8.68999999999986,0.9412300393204557,9.29126648737704,-3.209359139344793,-6.007873730986561,0.0,-16.35923894492382,-4.454027440753661,-0.698990295829788,-1.2662741408892657,0.0
0,9.199999999999848,0.99113793316705,9.83542634011579,-2.9645417496652664,-7.001600967310554,0.0,-18.822221829292648,-0.7591831461557557,1.544246991994049,1.7628074609460458,0.0
0,9.709999999999837,1.1351478055231308,12.443527717382727,-2.3630646787193927,-5.972075935743184,0.0,-11.360762668855303,-3.9009832621825833,0.14639726412425477,-2.002015211439145,0.0
0,10.219999999999827,1.5046914884665283,9.544374866425342,-0.3363324602299185,-2.57495793444874,0.0,-12.684679403615599,-3.468365039267985,-0.43725335846208196,-2.1036870421392955,0.0
0,10.729999999999816,1.7509225885044986,10.42756392177308,0.9360461202924708,0.26889888754868185,0.0,1.037011032461699,-3.424853528092634,-0.7743980680815152,-2.488786322500157,0.0
0,11.239999999999805,0.5718362600906447,4.690068526576492,-0.5658319640091596,1.6816453025885518,0.0,2.8332698525463833,-3.6222052685038624,-0.9600609877380191,-1.566043308548339,0.0
0,11.749999999999794,0.42693779516353114,2.6563764346879233,-0.15931749446555582,9.574257061651599,0.0,2.0751879170393797,-4.2393440394753945,-0.1850874982464993,-1.7694279874881078,0.0
0,12.259999999999783,0.6367315163478816,11.210632033582336,1.2643722924721625,6.876377358023701,0.0,-4.8552548821937584,-5.600937485550466,1.2477576016745053,-3.098266204716475,0.0
0,12.769999999999772,0.6166171399556826,-1.1225611956192032,-0.7252682073594388,-2.37397386317809,0.0,-5.7523717619153425,-2.935585243865875,2.153513580530168,-0.2850635325718351,0.0
0,13.279999999999761,0.49307956910879336,-12.577237653912587,-1.3315697962228552,0.5991881240390593,0.0,-4.175114769888245,-3.797681083966361,2.987018330163045,-0.9279490152115659,0.0
0,13.78999999999975,0.5888964754350171,-11.475569575281021,-0.2298488982893864,-0.5483223215947555,0.0,-2.728820806026914,-4.33324250440161,2.6010891024033738,-0.7777374475471188,0.0
0,14.29999999999974,0.6494762731641227,-9.480943954702742,-1.4155138297775296,-1.629408328976691,0.0,3.00586308652575,-3.8114711839698443,-0.9805964633771249,-0.2990366404026817,0.0
0,14.809999999999729,0.5820847123490377,-5.249104700993344,-1.7075358838024728,2.49399803805991,0.0,17.232473476808234,-4.664836461456986,-0.7618991557219175,0.5034644693800959,0.0
0,15.319999999999718,0.5343852072223486,-6.833707953656919,-1.696148744613047,-0.39677211383911976,0.0,19.589401088734558,-4.770409264499348,-0.7152901555777582,0.5799831335324804,0.0
0,15.829999999999707,0.49764934530915306,-5.496178753401878,1.6537412039191293,2.5923061178899367,0.0,18.140786432231263,-1.3237627520471582,0.9915700483227429,1.4382371968591598,0.0
0,16.339999999999755,0.40737317202498136,-2.73784452700111,2.1190380232170223,-0.08151630537850944,0.0,10.62790186914815,-2.9379681873693495,0.4591393182137769,0.13717668100642605,0.0
0,16.849999999999834,0.24243553634049164,-3.999369570382007,-1.3355941606006199,-0.19364920754851633,0.0,8.897621518691546,-2.4118197952420917,0.8915521810246574,0.5692018128707208,0.0
0,17.359999999999914,0.23161590941609575,-1.7741592702654119,-1.5589184650519474,2.7932808632006982,0.0,9.629207324367668,-1.0681919972260796,0.5560331389227162,1.5504412057688457,0.0
0,17.869999999999994,0.1559611089648367,-3.400864066904899,1.1287189215169684,-3.4162579357696936,0.0,6.64852344659413,-0.9973169347028535,0.43254592408392406,1.302710814230949,0.0
0,18.380000000000074,0.15046538824350544,-4.550449157878408,0.6511731032065123,-1.807412581620463,0.0,20.247938135957096,-0.7749996210601119,0.13340411703137142,1.6205614913331552,0.0
0,18.890000000000153,0.14230773905870722,-1.9149129737306556,0.011243590346097204,-1.2441214667170442,0.0,31.147316468892345,-5.1164395838777,-0.6170038748074803,1.500786867131118,0.0
0,19.400000000000233,0.12109752263994014,1.7107220071389353,1.9133730778794775,1.462634223348993,0.0,29.602944464463775,-4.907874085133444,-0.7436152312483266,1.1261806961557042,0.0
0,19.910000000000313,0.09956938015624782,3.6210699742944503,1.8260531839759495,-1.5939808040093428,0.0,40.36442434658258,-3.1436225997687313,0.5482067229672569,0.24768272734509267,0.0
0,20.420000000000393,0.053177513471864425,2.36949418169052,0.13339043388110436,1.0858898004011641,0.0,34.27155360406756,-4.954806923544003,-0.7757089556370628,0.7893094966463958,0.0
0,20.930000000000472,0.062084778656447195,3.072357728669819,-2.333000506240607,-2.6335394843751123,0.0,37.94570131222921,-1.4080197797920617,1.4493308734173813,1.8788860779414034,0.0
0,21.440000000000552,0.1267610094147425,4.833148700040675,-2.4357869810586394,-1.863416217418692,0.0,40.43363875109951,-1.7835321800407762,1.2757281376571366,1.4089685072121383,0.0
0,21.95000000000063,0.21278169575827838,11.41284231542799,-0.1629717052052373,2.889266998121693,0.0,35.05382774690775,-0.928401820891446,0.40359205133532433,1.6369513875459696,0.0
0,22.46000000000071,0.07709064356128821,10.677560531815633,-1.9703068083166566,2.3848670700953654,0.0,31.471274658503994,-1.0619337451548105,0.5682815983504166,1.5806656014558405,0.0
0,22.97000000000079,0.04265562544990441,12.010146870716058,-1.9980944208843807,-1.4440123983221944,0.0,33.78512766402314,-0.9064025847371754,0.413714860570078,1.4782088081725577,0.0
0,23.48000000000087,0.067542439687322,10.974324390659126,-2.989462077506237,-2.222591548316561,0.0,30.240670615062843,-3.799851386820396,-0.9229420608970708,0.41885637642675144,0.0
0,23.99000000000095,0.17465908457879875,13.81231915815265,-2.344241429269861,1.0294920230902713,0.0,24.343176665954722,-3.0614885480079463,0.6104285527572723,0.17853178597373218,0.0
0,0.02,-0.0011591456791693825,-0.011061431013735563,0.049046964274868876,0.01847513831629797,0.0,-0.04092203989762958,-0.005467023299226289,-0.007465088987048753,0.027941425882355823,0.0
0,0.5300000000000002,-0.20092803466502965,6.531122664570306,4.667435895056052,2.2855049749790415,0.0,2.403927608596901,-0.3474864211932815,-0.1262737908660579,0.3328276033782436,0.0
0,1.0400000000000007,0.0035291678960857956,2.6259568462478264,3.1659200894640493,6.746979725715217,0.0,6.23754695266302,-1.045570589207206,0.004530124283627229,0.7428184798722705,0.0
0,1.5500000000000012,-0.2708771925264319,-1.8882722858726808,5.1024475472199216,1.4120800071782231,0.0,-4.265059393447141,0.42309424915461746,-0.7770992556189964,0.4668446869951595,0.0
0,2.06,-0.37403089255353994,6.329585440396963,6.224481524046377,1.0401280272946216,0.0,-9.35056738391861,-1.5353372454108427,0.7750671438873875,1.5298191652594486,0.0
0,2.569999999999989,-0.41295329591786906,9.413312511096532,6.402491018737185,1.7633801736576382,0.0,-25.21507974427304,5.884623149360605,-0.5872973590933317,2.010249445317052,0.0
0,3.0799999999999783,-0.17834436529017786,6.815807747273708,7.713921399580314,-2.3068571040050556,0.0,-24.85195956405825,9.287301024874303,1.755499525621712,-0.952683038134393,0.0
0,3.5899999999999674,-0.05724961578904564,6.393297323129951,3.8590256137673604,2.213632871839603,0.0,-25.765195786179692,10.065827261665865,1.6181764408739447,-0.4847515806449466,0.0
0,4.099999999999957,-0.09328908576522323,4.918353544681032,3.765922456388181,2.2642543993424047,0.0,-32.72694385670453,11.325528549516525,1.6573459677835518,0.9932459000630774,0.0
0,4.609999999999946,-0.09124056353337104,-0.7402881872970577,4.786495635582515,1.5701602643711208,0.0,-37.93465088561092,10.445242944377839,1.7053507218390709,-0.03844268662157973,0.0
0,5.119999999999935,0.010572317997969156,-1.0676886077380008,-0.8790612387786547,2.203155100886809,0.0,-42.90516321466752,8.84741245820488,10.012089580568796,-1.8975931713727927,0.0
0,5.629999999999924,0.2355855231260509,0.23657382439976113,1.1039864315704582,1.446202099956614,0.0,-44.189993653186114,8.835068135514348,28.705550312627782,-2.032724711011428,0.0
0,6.1399999999999135,0.19030911177041904,-0.44994196700869143,0.9671761013350806,0.5399070228916906,0.0,-44.09311008662538,4.799869361061708,31.763907114355717,0.6471935897508597,0.0
0,6.649999999999903,0.10796888749397436,7.451106109010353,-0.6319576530242204,1.040617358729036,0.0,-46.14385668862002,8.50147953966282,31.852641213031667,-0.7828543082224753,0.0
0,7.159999999999892,0.007955079608773471,18.469927474464477,-1.6214631016118932,-2.3619620574510525,0.0,-43.05599041525839,11.057244140517465,31.92029658262327,1.0943919172419019,0.0
0,7.669999999999881,-0.32877828969378187,21.45455426441975,-1.8631597503841322,-2.811959235456188,0.0,-38.56481500446298,9.063837203924797,32.74841185003175,-0.4936494750365201,0.0
0,8.17999999999987,-0.7975239585007944,29.189333954072964,-3.9125888366943915,-1.542655661308073,0.0,-25.24899982010036,10.166339101805315,32.74086353980389,-0.732682830511598,0.0
0,8.68999999999986,-1.2582642717421426,20.158483318221148,-12.722819614163098,-0.10130266786771909,0.0,-24.907924299108256,13.062472507778871,30.424528447255852,0.05730931183231279,0.0
0,9.199999999999848,-1.6977593179896637,20.323429891626127,-25.011751636932278,-0.14673608247174,0.0,-28.977831069624834,11.625846999745336,31.353423755919415,0.8684254879122792,0.0
0,9.709999999999837,-2.141529941620043,21.95983969866439,-32.914537007242586,-0.16408024609259775,0.0,-37.13010387021789,11.678054332743805,31.349685565854802,0.9343179888853147,0.0
0,10.219999999999827,-2.6434939782382227,29.246689753770816,-32.32016399700771,1.1900298361537105,0.0,-34.144203895696414,13.406262742098841,30.616320764277425,0.44255075402247235,0.0
0,10.729999999999816,-3.151334070739327,38.20161506183593,-31.617188473876162,1.7881692235225637,0.0,-39.47516182212312,12.045201349926757,31.149110183267318,1.2883928443573263,0.0
0,11.239999999999805,-3.0165324860343876,37.77190654521143,-35.72088019524747,1.5304634118572047,0.0,-49.24128555806019,10.771145383313847,31.643644923400146,1.2689894167438713,0.0
0,11.749999999999794,-1.9429894016190417,39.354668172682786,-34.58213520254189,1.3990942959041572,0.0,-40.84210403944821,9.591968108462618,32.446197760079876,0.3667101469388304,0.0
0,12.259999999999783,0.40030502207808694,40.01703819345255,-33.55025469608007,0.4851116740477256,0.0,-42.320278897124275,10.267249415259906,32.67656931871977,1.3258652470661125,0.0
0,12.769999999999772,0.6669829152186189,41.13048633269782,-33.74279783140873,0.8438144758226043,0.0,-41.663768296008946,9.1836537614592,32.09666463349384,0.1572374138246686,0.0
0,13.279999999999761,0.6047686571302239,34.75770469187568,-33.01631670634202,0.7018152184392047,0.0,-44.43413016638032,8.422235142321037,31.74303540911951,-0.04908070598087405,0.0
0,13.78999999999975,0.5744080622326757,41.75098888832957,-35.93235522129183,2.0525928494746437,0.0,-46.027223339592965,8.644098239252449,30.31383223556034,-0.1451776074595288,0.0
0,14.29999999999974,0.5794900547167292,53.307179130525704,-33.92964102867954,-0.1341964199050524,0.0,-39.12754165642363,9.897367702339116,29.973430372572388,-1.943277488525754,0.0
0,14.809999999999729,0.6182092401269135,54.36241622410904,-35.60004922178762,0.05634679508988057,0.0,-35.693430779412736,8.355312203152298,30.265889822685835,-0.414132552904338,0.0
0,15.319999999999718,0.5983221140238933,56.02142306216136,-35.56433330575827,-1.317547800346943,0.0,-33.33990523405828,10.640602968324776,32.92491184428119,1.5229490671211112,0.0
0,15.829999999999707,0.5640228183414024,47.18261245301423,-34.86291091282879,-2.298343390305089,0.0,-29.98793855739954,10.768026231638629,32.76792138709733,1.3912421453108783,0.0
0,16.339999999999755,0.7493937128133852,48.48017368172841,-34.242044616106625,2.328866236886888,0.0,-29.77882636553395,8.449640174427103,27.57069683197909,-0.9137608977522851,0.0
0,0.02,-0.0015395082711188494,0.0,0.0,-0.030405951231018167,0.0,-0.028785519346150687,0.0,0.0,-0.04684158329867305,0.0
0,0.5300000000000002,-0.043911648245642775,0.0,0.0,1.9598667675456087,0.0,1.437788724071992,0.0,0.0,-0.6627090017151256,0.0
0,1.0400000000000007,0.5563648567705992,0.0,0.0,4.567966030216878,0.0,8.630512870415647,0.0,0.0,-0.49817407880191344,0.0
0,1.5500000000000012,0.9007208964573763,0.0,0.0,2.596248067279461,0.0,12.791027780709536,0.0,0.0,0.2782001547976096,0.0
0,2.06,1.2559939739106374,0.0,0.0,3.112082701773756,0.0,29.127367583234097,0.0,0.0,0.5998208754426194,0.0
0,2.569999999999989,1.5780626732316014,0.0,0.0,2.868879454882821,0.0,43.83419491409306,0.0,0.0,0.6920647063120335,0.0
0,3.0799999999999783,1.882986089035516,0.0,0.0,2.8497864449174095,0.0,59.211077445059196,0.0,0.0,0.7400862456289246,0.0
0,3.5899999999999674,2.1585713163237674,0.0,0.0,3.405496900723476,0.0,68.15899073716464,0.0,0.0,0.9544165817158343,0.0
0,4.099999999999957,1.6249780020864866,0.0,0.0,4.92146719246582,0.0,70.45703060459516,0.0,0.0,1.2635561303537657,0.0
0,4.609999999999946,0.4918594645170447,0.0,0.0,4.2211581986238915,0.0,70.48893244681568,0.0,0.0,-0.06604184985931842,0.0
0,5.119999999999935,0.5162320782281524,0.0,0.0,4.254660407557398,0.0,71.09144053070976,0.0,0.0,-0.22933639689200477,0.0
0,5.629999999999924,0.5516995538085281,0.0,0.0,10.888495412011192,0.0,70.67676510514087,0.0,0.0,-0.24864560935974062,0.0
0,6.1399999999999135,0.47983323776162057,0.0,0.0,18.91498238197545,0.0,69.54369270028171,0.0,0.0,-0.24216178993885007,0.0
0,6.649999999999903,0.5318551214248645,0.0,0.0,23.890104299488037,0.0,61.81376455025245,0.0,0.0,-0.5782112176145907,0.0
0,7.159999999999892,0.37324764991139364,0.0,0.0,26.8224085372126,0.0,50.66556886079142,0.0,0.0,-0.40328923959714497,0.0
0,7.669999999999881,0.29835223582785864,0.0,0.0,29.656761565226077,0.0,34.6283405431863,0.0,0.0,-0.39439843913093026,0.0
0,8.17999999999987,0.29328293285599477,0.0,0.0,29.318636536313555,0.0,20.6078673173329,0.0,0.0,-0.708806469898695,0.0
0,8.68999999999986,0.29156688504636147,0.0,0.0,29.153659621922728,0.0,10.758520589519584,0.0,0.0,-1.1504301689377916,0.0
0,9.199999999999848,0.6294770552073036,0.0,0.0,28.983129111500443,0.0,6.259586715660375,0.0,0.0,-0.8720884521156889,0.0
0,9.709999999999837,0.6599594637738656,0.0,0.0,29.27784065081107,0.0,9.642314262298836,0.0,0.0,-0.9723063593982811,0.0
0,10.219999999999827,0.5445094227760661,0.0,0.0,29.176784491664595,0.0,0.9151176425254612,0.0,0.0,-1.106157350643167,0.0
0,10.729999999999816,0.542618995395142,0.0,0.0,29.357255924033986,0.0,-12.45372326796781,0.0,0.0,-0.9610393373615367,0.0
0,11.239999999999805,0.5676596246190435,0.0,0.0,30.036259884316156,0.0,-27.552771992879425,0.0,0.0,-0.8070583811567229,0.0
0,11.749999999999794,0.5868173240166491,0.0,0.0,29.71980674736442,0.0,-40.69816530567543,0.0,0.0,-1.0172038530934018,0.0
0,12.259999999999783,0.5992001934026769,0.0,0.0,29.958293677089273,0.0,-57.59792399510945,0.0,0.0,-0.9693558921203922,0.0
0,12.769999999999772,0.6043340805171924,0.0,0.0,29.98479454886074,0.0,-65.96768306738682,0.0,0.0,-0.8904667339336145,0.0
0,13.279999999999761,0.552688687729247,0.0,0.0,29.86058552798109,0.0,-73.88653146989549,0.0,0.0,-0.9392297462640438,0.0
0,13.78999999999975,0.5074604208764464,0.0,0.0,29.755650846090266,0.0,-78.6319373004459,0.0,0.0,-0.9857142966603609,0.0
0,14.29999999999974,0.5464749610053109,0.0,0.0,31.191944165947,0.0,-80.40819440794202,0.0,0.0,-1.861838188194152,0.0
0,14.809999999999729,0.5343755863745696,0.0,0.0,31.255051713595517,0.0,-80.07632458388588,0.0,0.0,-1.5530722194175262,0.0
0,15.319999999999718,0.5387576141385471,0.0,0.0,31.31455773862963,0.0,-80.05986236102716,0.0,0.0,-1.1317769736192094,0.0
0,15.829999999999707,0.5791865580702662,0.0,0.0,31.723084847123726,0.0,-79.9992246379426,0.0,0.0,-1.096596677014876,0.0
0,16.339999999999755,0.6037364958253086,0.0,0.0,31.87387010484168,0.0,-79.91181422301997,0.0,0.0,-0.9870730618646762,0.0
0,16.849999999999834,0.6478520566603199,0.0,0.0,31.170746139363555,0.0,-80.17102606313226,0.0,0.0,-0.8804537596392495,0.0
0,17.359999999999914,0.691775276001774,0.0,0.0,29.72786710687516,0.0,-84.75167167043459,0.0,0.0,-0.8186071499082703,0.0
0,17.869999999999994,0.7461229097356622,0.0,0.0,27.960338215645848,0.0,-81.95435542834062,0.0,0.0,-0.8651564472227974,0.0
0,18.380000000000074,0.7761266558508769,0.0,0.0,27.408177819737322,0.0,-78.72312325218577,0.0,0.0,-0.8402263671420754,0.0
0,18.890000000000153,0.7570960961591392,0.0,0.0,27.283364881323894,0.0,-75.55213081225891,0.0,0.0,-0.9891207805178696,0.0
0,19.400000000000233,0.6981951386903595,0.0,0.0,27.26269561298843,0.0,-79.06150839515624,0.0,0.0,-1.030328380695297,0.0
0,19.910000000000313,0.6437532476131863,0.0,0.0,26.803500065402027,0.0,-77.31683793668302,0.0,0.0,-1.125728019859565,0.0
0,20.420000000000393,0.5881889424398659,0.0,0.0,26.28171320148401,0.0,-77.4963219260327,0.0,0.0,-1.1947093788692416,0.0
0,20.930000000000472,0.5298519895105495,0.0,0.0,25.83213459413033,0.0,-80.50334047816492,0.0,0.0,-1.303517248425334,0.0
0,0.02,-0.0015395082711188494,0.0,0.0,-0.030405951231018167,0.0,-0.028785519346150687,0.0,0.0,-0.04684158329867305,0.0
0,0.5300000000000002,-0.04034235706165768,0.0,0.0,1.9393595605814293,0.0,0.04552105020969417,0.0,0.0,-0.8415732449537148,0.0
0,1.0400000000000007,1.05665898244514,0.0,0.0,4.205172549465178,0.0,-0.7336604485127273,0.0,0.0,-0.49567335526887485,0.0
0,1.5500000000000012,1.661277230082916,0.0,0.0,-0.19760166312821176,0.0,3.831671587849877,0.0,0.0,-0.1389515347169013,0.0
0,2.06,1.706570926955608,0.0,0.0,9.851352148260633,0.0,1.0102975853656417,0.0,0.0,0.09473298690328742,0.0
0,2.569999999999989,1.6252031656880224,0.0,0.0,12.474305860281728,0.0,-5.911719887147619,0.0,0.0,0.3798897610008128,0.0
0,3.0799999999999783,1.583407659398763,0.0,0.0,12.23406636064497,0.0,-22.900302503789828,0.0,0.0,0.2768782296125931,0.0
0,0.02,-5.743216370855356e-05,-0.00017976605727285455,0.00013301929767292766,0.00012770989965552515,-0.002451844863853887,-9.498423844962896e-05,-7.170853550138191e-05,-0.000242248229648813,-0.000229457225132783,0.007367892560305263
0,0.5300000000000002,2.2035594160308336,2.614210465670155,3.0811494848710317,-0.9789455050862372,-0.017210785370802964,-1.0765952063837005,1.4627504391825414,-1.404451309958122,-0.5140179940683082,-0.06759174922037235
0,1.0400000000000007,-2.9049327125215973,0.5759533670567765,2.4389094383533103,3.090065388292502,-0.02337400402743525,-1.4431734867900996,-0.27149831193655416,-0.35288389945490545,-2.1718218902162136,-0.07890956962194001
0,1.5500000000000012,0.4543088761278728,1.6151767459954192,-1.8919816438796304,1.6238925720151618,0.008636105985917256,1.8331371155121472,-0.5383546895175628,2.7759301695658025,-2.883799922662078,-0.08231488542312279
0,2.06,0.6557355503220038,2.3669781972713286,0.5435869089594683,-2.9967418339994847,-0.03389288225250883,0.09831309542212027,0.34604384197116134,-2.9392400062589976,0.8022577699039952,-0.08521471065685755
0,2.569999999999989,-0.39580648337915253,1.2453432118177958,1.3815516955571374,-0.5285207544485905,-0.022989431718244264,2.0110424611424493,0.9369889415979435,-1.3390012347706886,2.450511169635085,-0.09100998263269922
0,3.0799999999999783,-1.2526808305192088,-0.6696811884527083,0.794716921592629,2.0225699587629187,-0.07312499577278445,-0.14123787079219197,1.5120133137527016,0.0639157214772536,-2.438215331153005,-0.09164724799907426
0,3.5899999999999674,-2.384469050622255,-0.07286554327267547,-1.282760337653149,2.199560796846516,-0.043503669358673745,-1.095268740538416,-0.2874171246384591,-0.6455557137293557,-3.1151949207727663,-0.254001351721836
0,4.099999999999957,0.643640575409359,2.2788913142873084,-1.038857507025818,-1.5934215758150758,-0.025521860758742007,0.6811012950268328,1.2724328921350236,-1.1873725586853863,-0.8736789354804558,-0.25491333370290875
0,4.609999999999946,1.1412160657851016,-2.2289546051307134,-0.27037655888839196,-1.9554375271754183,-0.02593316549986679,-1.1492404465904948,-1.3449334377832671,2.17991632763878,-1.8385846503748284,-0.2566459955916876
0,5.119999999999935,1.7049807914159605,-0.5748205013526562,2.315084145404781,-5.933615033625746,0.018883773143731495,-3.97973607720684,2.5560400112224833,2.4834303744115935,-0.9324968956344692,-0.26610459887799065
0,5.629999999999924,1.829719804993147,0.7268664809877753,-2.2199658637699042,-4.177921162802562,0.007841997865219611,-1.146527125630505,2.508177599380832,-1.5047287085551215,0.880494267857351,-0.257894560581352
0,6.1399999999999135,-1.2499128407239282,3.027245146725651,0.48937665657547924,-2.2397779849606243,-0.020531002683626107,0.0049547857285342466,-1.2512870638334168,1.5593030192083244,0.1336055036277442,-0.2610288163979854
0,6.649999999999903,2.2898383113432677,-0.8599353999759441,-1.780769167426085,1.9627984064334598,-0.014794413970831652,-1.7916251647133326,-1.4086752557976194,2.6353874299679796,-1.9156503134845275,-0.2611237056280141
0,7.159999999999892,0.345592557113394,0.7819710970351732,-1.4732878986148024,-1.8099748078095175,0.004563619220241161,-0.8040468273799699,-0.07598896815233604,-2.275980357537989,0.9775687212908437,-0.26039444011754787
0,7.669999999999881,-0.9524698163989408,-1.975681642264694,-1.7935469518442315,1.322550980262965,-0.007671738025426759,-0.8896105407236617,0.5069682694810572,-0.516002984539404,3.0307922242174454,-0.2637477419520501
0,8.17999999999987,2.3248509422825663,2.0910558480428656,2.9296439683738194,2.4922026865416123,-0.001968212941538203,-0.0021525550672456483,-1.052482571712688,2.450877914058108,-1.9625154319010818,-0.5586010520729029
0,8.68999999999986,2.3934385312684414,-2.898115602083469,-1.8890358919109749,-2.0280879501110474,-0.008440477739306666,1.0076182018654374,1.7823874370216788,-1.5784604081173281,-0.6723232068623822,-0.5600801509095167
0,9.199999999999848,0.066268721346819,-0.24194151280888404,-2.253442731047844,-2.547285059987249,-0.004916036493985565,-0.17212436221827662,1.4808007837807136,-0.7915368490840098,-0.9667806346333045,-0.5628507093919509
0,9.709999999999837,-1.981892503301881,0.6670102711187899,0.3569508884094479,-5.017247198513552,0.01463473837288086,2.101616419172079,1.8849732183654393,1.1819040169921593,2.247719062569483,-0.6158612603473773
0,10.219999999999827,2.5956019763710003,1.4417096308050776,-2.8962292758049504,-5.31258174470676,0.09603210929864836,1.472964520089731,-1.4843896253012698,0.04621295440145245,2.7735934779724762,-0.6212254957544396
0,10.729999999999816,0.06059976827200395,-2.1262360351944602,-3.0468138042918413,-3.0617547237480944,0.08583687147356225,2.226487673040337,-2.2949357470222846,4.965581861422538,1.0689633945093375,-0.6183168738669086
0,11.239999999999805,-0.06906935312568199,0.428251027962923,0.09263275383518149,-3.001984365129816,0.05378671433607765,-1.4111986396334024,-2.1167786281318475,1.4227044534132114,-2.6328944923032758,-0.6177277395245888
0,11.749999999999794,-2.935221723230187,0.9270910674757816,3.001175529741162,-2.1632313373623373,0.05368029124340816,-1.400001072358692,-2.547831444463739,-2.202621683298186,1.7092129153377764,-0.6162167585404322
0,12.259999999999783,1.0993435221241976,1.8665087085555025,-2.1589821526174355,2.6111445583493875,0.10215321779320226,0.9182403952006327,-2.3011696851831136,0.03557816448580882,2.281885345066027,-0.6886755999021473
0,12.769999999999772,-2.909620306520658,1.6810024546678808,0.6961968198540095,-0.33076506601328326,0.0754453718417304,2.8647153620152004,1.1340765340518184,-0.840316926012347,-2.383246831789859,-0.6898054508470128
0,13.279999999999761,0.3858091941424898,0.09274439834154945,-1.039133030232403,-1.4165885389252144,0.06647989007513774,1.3760125181170093,-2.2321568872913176,-0.16117757578190994,-0.9481530217743429,-0.6891893814636497
0,13.78999999999975,-2.7248624455252375,2.6775716292354144,0.01182580049231203,-0.020106891006879433,0.0927418678172392,2.9070012541420085,2.1362517853055523,1.3732782413816937,1.6482350915128132,-0.6882045487661967
0,14.29999999999974,2.117981069098569,0.38985599400080034,-1.50592838033473,0.8836391457709194,0.08361207563770359,-0.8525130751505843,0.9360329428504433,-0.4592723787115584,2.4280578494452927,-0.6890705006383591
0,14.809999999999729,2.205463643889674,-2.1621107050927226,-0.4236638775547901,0.9374891531826527,0.10595850731116005,1.339733719884205,0.03504435838333625,-2.0826282396536557,3.0172536252069047,-0.6896449281820712
0,15.319999999999718,-2.285441445736485,-2.94624382795753,2.6411063438442777,-0.18152245282637075,0.09810560179469417,0.49392976740237415,-2.2896127755645796,1.0403633071262668,-2.2694739289466375,-0.6913938135409304
0,15.829999999999707,0.14732748860678313,-0.018020407975874175,1.0161619137201063,0.010007417561359306,0.11855349180675108,0.3954131736708021,1.947272929887431,-0.7567496915638101,2.8680999198043504,-0.6894128952180425
0,16.339999999999755,1.0444069705882222,-2.098996790042771,0.5647105474111664,2.188510819774489,0.11479196492171803,-1.8394350239828607,0.4127826396079096,2.235250258013963,-1.3592921026838047,-0.6965563452137323
0,16.849999999999834,2.781491912941905,-3.1356452148535268,-0.25145563332182763,2.018686257491037,0.1019306688850151,-1.8677090261038598,1.1853780407840593,-0.3220201221626695,1.2473733481135634,-0.7003584294294762
0,17.359999999999914,-0.32979270655950443,1.196960849397326,0.1477875771025628,-2.6174925191416425,0.12360770922082202,-1.8780278334526999,-2.0679827861141264,-2.93795058975109,1.1230234481985537,-0.7037294575412767
0,17.869999999999994,-1.5890485234690783,3.061302155663942,1.5351088780813735,-1.3635184149769315,0.1409668685506236,2.0622130681540605,-2.0977941129769646,-0.18951588144093795,3.097914351998664,-0.7026197204479395
0,0.02,-5.743216370855356e-05,-0.00017976605727285455,0.00013301929767292766,0.00012770989965552515,-0.002451844863853887,-9.498423844962896e-05,-7.170853550138191e-05,-0.000242248229648813,-0.000229457225132783,0.007367892560305263
0,0.5300000000000002,3.020723871814568,2.1897572892883064,-0.06009769664896098,-1.5612287100149154,-0.018083773840968632,-2.7442291669037706,1.6145742779111927,-1.323630049150861,-1.8116085708439222,0.09641415368096637
0,1.0400000000000007,-2.892479129950693,1.1257920895471856,-1.897435650949371,-2.154650308839528,0.02260647121478792,0.06697173265712977,-1.4626433117285513,0.5704415662525943,0.31786565259804733,0.09531476340341183
0,1.5500000000000012,-0.13217146555518566,-1.9056553294156007,-1.1164714896280097,-0.12210717837762324,0.020201110379081,-0.398207415173764,0.04287546333157177,2.382985852289124,2.893074290432054,0.08834340035933097
0,2.06,-2.7495267350636006,-2.104547934721601,2.8832414719503214,-0.5901875359074537,0.014870805859508875,-0.7682746711663183,0.746875453214362,7.692501286561532,2.999651820406034,0.09898161945792266
0,2.569999999999989,1.1727641278170078,1.0566475819715524,1.057797225895686,-2.4258178795676972,0.027956604382188506,2.5345377419207895,2.2861277559552953,-1.5952083826291974,10.806769954477152,0.12283930290703657
0,3.0799999999999783,-1.6079093855906996,-0.8600051203644596,2.387624170165636,-2.620205616079087,0.05702066293755781,0.7588231019344862,1.8016844137948258,2.0188714647511805,-0.1576077041663038,0.1452641301529589
0,0.02,-5.743216370855356e-05,-0.00017976605727285455,0.00013301929767292766,0.00012770989965552515,-0.002451844863853887,-9.498423844962896e-05,-7.170853550138191e-05,-0.000242248229648813,-0.000229457225132783,0.007367892560305263
0,0.5300000000000002,-1.0909933749304173,1.6025393158993935,2.076686160241201,-3.00757442432637,-0.014484687730856302,-0.09977217277965794,2.307708061964262,0.3278604772197852,1.6502547490941002,0.012131873568717502
0,0.02,-5.743216370855356e-05,-0.00017976605727285455,0.00013301929767292766,0.00012770989965552515,-0.002451844863853887,-9.498423844962896e-05,-7.170853550138191e-05,-0.000242248229648813,-0.000229457225132783,0.007367892560305263
0,0.5300000000000002,0.5323079568697224,2.6093124472764506,2.691674186653265,2.0385139533331333,-0.015332287898172274,0.11943885639026255,-0.8231584226134443,-1.7017393291701226,-1.5317689220842403,0.09632113198365037
0,1.0400000000000007,-3.033907198876813,1.099191734439368,3.2393623699458627,1.1949414273986338,-0.01921645678032524,-1.9795857198323463,3.070169799599128,-2.037610491655861,-2.496852744126568,0.07699462986540918
1,0.4200000000000002,0.00048754506906252147,0.0007086148887936799,0.03025417895809558,-0.02459351982783976,0.05444735343474877,0.00015475300284092342,0.0008425196804296949,0.0005525920285354016,-0.007384078861114611,0.1005801115136765
1,0.9300000000000006,1.143860073218059,-0.01825946056523508,1.589360439474935,1.5389752022393872,0.08128268943102877,1.024937498868623,-1.6818613258605486,-0.2551482774592025,0.9566570367088767,-0.027125285178763232
2,0.02,-5.743216370855356e-05,-0.00017976605727285455,0.00013301929767292766,0.00012770989965552515,-0.002451844863853887,-9.498423844962896e-05,-7.170853550138191e-05,-0.000242248229648813,-0.000229457225132783,0.007367892560305263
2,0.5300000000000002,1.7394500746425943,-0.08935426724295756,-2.1074287643071394,2.457423331478967,-0.01634134056230294,2.28596021338443,-1.7016748826875845,1.2545748446349858,-0.32929542727268174,0.019896395555876845
3,0.060000000000000005,2.7825470545653774e-06,-0.0001725543445316437,0.0022860974737212232,-0.0013278123594823788,0.0010683632127231964,-6.607530486579787e-05,1.3571784356524625e-05,-7.302120701949228e-06,-0.0020767096270154902,0.020377839584055448
3,0.5700000000000003,-2.9047698817125864,-1.811441882232862,1.1651844747445093,-1.0883093182561974,-0.0016552184148113432,2.631780056444135,-1.940656894212193,-2.667599203202518,2.149348608374728,0.09435942719747578
3,1.0800000000000007,-2.8074202778257202,-0.19745400860584456,0.06906468092391399,2.6739745711473963,-0.017379851914967867,-2.573643568339912,2.4380268031994436,-2.360908130332474,-0.7530049568816314,0.0257076176471176
4,0.4400000000000002,0.0004904016365410577,0.0007581022904591654,0.03227808659564077,-0.026395553296019614,0.05848001256220978,0.00015892444223362582,0.0008882625853863285,0.0005009483817278549,-0.007483430305352394,0.10473620020391003
4,0.9500000000000006,2.3588276438246627,-1.1847976332136634,-0.08239383917860513,1.9550350442377338,0.055752139188478204,2.8792795056396026,-0.08989827852649102,-0.30323704097440474,-2.0480111951657713,0.21644132382446116
4,1.460000000000001,-1.4715438004949752,-2.8605162335777243,-1.140731404139568,1.3589922745010914,0.01390030608852232,-1.7076523111290256,-0.4513848369796737,-0.44333707623925006,-2.5628444874647975,0.2210164276794851
4,1.9700000000000015,-0.843938525038905,0.2660638743003874,-0.5535748806848344,2.956584029705838,0.027429808625845944,-1.879122723457654,-0.2256361462011852,-2.2772156911626986,0.2945687982664649,0.21830743130518274
4,2.479999999999991,0.24777570719898312,1.1267728934851053,0.930021469291537,0.8076643250038834,0.00478947850337693,-1.2520316016826745,-2.4422156539447673,1.5867205151838688,-0.1656642705768789,0.23347489925171175
5,0.47000000000000025,0.0004910462630606338,0.000829142789274568,0.035394069796644355,-0.029166199069855365,0.06458433728276072,0.00015947013424629004,0.0009583295361082607,0.00041122980291625376,-0.007620745025553043,0.11095911079301912
5,0.9800000000000006,0.24078596826751672,0.6075639298482103,-0.8383608218047749,0.6597168383261305,0.048665043814512886,0.029640496793271368,1.114576727948174,0.58401879678133,-2.726015020479695,0.16230970262423142
6,0.47000000000000025,0.0004910462630606338,0.000829142789274568,0.035394069796644355,-0.029166199069855365,0.06458433728276072,0.00015947013424629004,0.0009583295361082607,0.00041122980291625376,-0.007620745025553043,0.11095911079301912
6,0.9800000000000006,-0.6044157342936306,0.7857394348979617,2.788901244699099,2.1433421963060053,0.04826651028480296,2.3962102908956258,-1.005636561062928,-0.5397690890323502,-2.8254868748728645,0.007979468821133437
6,1.490000000000001,0.7002705905314828,2.333281121232665,-2.6663008516490643,-2.1801730873601017,-0.05702178307356422,2.688685265822299,-3.0301216024897433,2.28611423943645,-0.7678225746009796,0.12685162357885116
6,2.0000000000000013,-1.0722550899451595,-2.6223475436241963,2.3390550337095912,-1.7113946141058165,-0.18872926475737087,-2.8046685927516197,1.1837024356487515,-2.424203633165338,-0.8957792535593717,0.12166539922579256
6,2.5099999999999905,-0.1452995614352777,1.2267149870809069,-2.463162859498523,1.226072414721454,-0.17274572975323388,-1.679385568690156,2.682760699271008,2.062785444929496,2.0934234465662507,0.12604513093862635
6,3.0199999999999796,2.149640127222086,-1.7150001880095613,0.4100833555410355,-3.002817909751329,-0.1923690930691854,2.3710641678273183,1.5444906184031624,-0.5026457498935784,2.0606831586041676,0.118604737436554
6,3.5299999999999687,3.1149048191109805,2.1255238333129327,-1.767017453226549,-0.9874477940634224,-0.1731501138567979,-0.2486870401607895,-3.0928603544173403,-1.8986997477671097,2.825860579967242,0.11568440250829466
7,0.5100000000000002,0.0004822308559323283,0.0009188963539262586,0.039670324815245295,-0.032975023745070754,0.07310505668967061,0.0001501499199963058,0.0010421756294612496,0.00026505435805410836,-0.007776167758479067,0.11932368646683794
8,0.04,-3.185803147160098e-05,-0.0002002462868584482,0.001279110867780975,-0.0006282963127078132,-0.0009070520307616105,-7.93526200004519e-05,-4.780204050304694e-05,-0.0001787213264337839,-0.0010416332210424917,0.013931319868866964
8,0.5500000000000003,0.9756323946291489,0.45452296779933504,0.8551843914813186,2.9584847702318626,-0.016296215176482498,-2.266328566952978,-2.356118031523908,0.2784813786772428,-1.6524468145007565,0.15660385644894068
8,1.0600000000000007,-1.583730419668376,2.8155702192203345,0.7512474485814035,-3.110643050616262,-0.021230279406936014,2.249958899064766,-1.017537688962064,-1.1287251896296955,-1.4580406490896327,0.17309645340502727
8,1.5700000000000012,-2.1951133829222553,-0.05504361368648358,-2.669016337272471,-0.4441533504749229,-0.021113063297634946,0.4719321486411488,-1.7055895866791357,-0.3202661563241045,-0.291381674046086,0.16570986255502757
9,0.5100000000000002,0.0004822308559323283,0.0009188963539262586,0.039670324815245295,-0.032975023745070754,0.07310505668967061,0.0001501499199963058,0.0010421756294612496,0.00026505435805410836,-0.007776167758479067,0.11932368646683794
9,1.0200000000000007,-2.964459212466734,-1.4588385455241404,-2.1086569659844936,-0.05711627055107227,0.042286211709482706,-2.6539855492671367,1.2482950272375626,-0.4901658343496428,0.36871664786686387,0.15412541533892735
10,0.3000000000000001,0.0003678410568831583,0.00036213399154983757,0.019060626289247925,-0.014662450353278851,0.03249384857498485,7.136523823456363e-05,0.0005450389658906559,0.0006010184696003972,-0.006384924581785034,0.07456106754811963
10,0.8100000000000005,-1.5336063297017186,1.2795107446523777,-2.9451892273857783,-0.9749867589594083,0.05054839335829808,-0.23919517068306256,1.7935587144537242,-2.4003497125823015,-0.5039413557811612,0.1179575972113827
10,1.320000000000001,-2.4372826356100945,-2.561698626524625,-5.165177253127813,2.705336922316736,-0.03585588378267786,2.3482067568604936,-0.5990531380499158,2.82045009918767,1.4017856292220716,0.07758813937556827
10,1.8300000000000014,-0.08109835133364397,0.7545730971110606,-2.704929825794156,2.0650783588517805,-0.04607573297924797,1.7132405394758077,-1.0643240718883198,1.0127420786198742,-2.4804186611032235,0.06354177518989836
10,2.339999999999994,-1.6122816483620466,-1.6089860622606302,-1.0302031311399176,2.5130371652902617,-0.03362514850455126,-0.3717648003728328,2.810402174889003,-0.21449910966943686,1.5577049172454391,0.0643851441777493
10,2.849999999999983,1.66390986265347,1.930942046997775,-1.6558972376627028,-1.3300763126731099,-0.025559729318639434,1.2611382849182615,0.03801480845139329,-0.503646793526935,-0.7198484718816732,-0.17124001352767954
11,0.4100000000000002,0.00048434428018811684,0.0006837236803999421,0.029253354936410587,-0.023702692229394338,0.052464468192326995,0.00015099939945600175,0.000818108423169004,0.0005737784311531042,-0.007326540724934705,0.0984943937681293
11,0.9200000000000006,-2.8662645590042284,-0.249144566666508,2.1921343654391174,-2.5133166304110977,0.08943976317669317,1.0201340502832394,2.885993413591866,-2.67817812271984,-1.2831373013735912,0.12341587439034865
11,1.430000000000001,-0.8746078929585126,-0.6634897155202875,1.7186230781138063,-0.49029727743954665,-0.004415098833442174,1.2309969735156656,0.8790626568171437,0.6317836086594127,-0.46174109394494744,0.11860277479951181
11,1.9400000000000015,-1.4705992768882372,-2.9533146538778006,0.9424037282177387,-1.0588157169052619,-0.11629982564542513,-4.35406515856893,2.5599496486425792,2.1722506243919693,-1.532458797599953,0.12366426596840575
11,2.4499999999999917,-1.6446032938590607,2.9287891712497034,-0.8398993089375615,1.598899516765971,0.006344656780192312,-3.772237963462094,2.361637405831845,0.05558257378616725,-0.30045220810512385,0.1221143946538937
11,2.959999999999981,-2.680581325712545,-0.9635917401226809,-1.6263394941104188,0.7691704621541124,0.08823324262272532,-4.186830174266113,1.9533680163534042,1.693086367780233,-2.055408283005644,0.11996965372038695
11,3.46999999999997,-1.0440275101443932,-0.752351173108665,-0.39909720866859605,0.5639274665252891,-0.012266835513846552,-4.688164589291033,0.9649667727799601,0.44601264492326675,-8.045697939715324e-05,0.11825471757067978
11,3.979999999999959,-0.8648206540684052,2.8131232550180525,1.3656799326446778,-1.5442519132743848,0.09665345107310826,-3.938580002433189,-0.08570710242702778,-0.5758500016853758,1.2047855720272587,0.11505620249686953
11,4.489999999999949,-1.6345306025409436,2.492812874667362,0.6418246310996429,-0.013281271119733623,0.551199967729736,-3.7354339807200665,1.0909979829099368,3.0099989730850107,-1.3617158766032973,0.14328051451001075
11,4.999999999999938,-1.4757786154855728,-0.8622443655224559,1.10041985461226,-1.1043329240836397,0.08333980500905218,1.1749075705276004,-1.4679808366471923,-1.7781433164359082,2.449766074489026,0.1326279998124323
12,0.08,2.8872653829895892e-05,-0.00014472760717325372,0.0033633550470454888,-0.0020729482591847355,0.003410411685541798,-6.716662063629763e-05,8.521305274021663e-05,0.0001455767398571997,-0.002943896203879311,0.0262145212331694
12,0.5900000000000003,-0.7465801345116576,-0.06974613105296631,1.3989717427571051,2.0378199463049964,-0.012949850004979268,-2.098991999338248,-1.7020481084812884,1.9391362073666771,-2.140023954735964,0.09432858896076689
13,0.3000000000000001,0.0003678410568831583,0.00036213399154983757,0.019060626289247925,-0.014662450353278851,0.03249384857498485,7.136523823456363e-05,0.0005450389658906559,0.0006010184696003972,-0.006384924581785034,0.07456106754811963
13,0.8100000000000005,3.000844459999884,0.2893367210269465,2.882449231028554,3.0935362720031807,0.021734159177502262,2.4001808412054806,-2.5357005485805004,0.020593199620650718,2.1345956504870216,-0.21717476925878926
13,1.320000000000001,2.2935108786892933,0.5093208850401966,-0.7180253202429115,-0.827512607628752,0.04054023560705832,-0.9145837069256058,-0.7980397132704299,1.603099875445556,-0.1460265204296154,-0.5362930029720432
13,1.8300000000000014,-0.3667204664303669,1.687998012197932,-3.0465396372649955,2.8531881071851366,0.07244095445271441,2.424370582390797,-2.9916461789461017,3.0985701491951927,-0.3648251274218643,-0.5403823668573478
13,2.339999999999994,1.2621116013220914,-3.0614704531916366,-0.8881308184459515,2.8732656649152504,0.01721966011063661,2.0815680637529086,0.9101917782065145,2.478724091242743,0.9220989402750587,-0.527832914287474
14,0.45000000000000023,0.000491329893759129,0.0007821356795329549,0.03330783676049775,-0.027311002184114048,0.06048721346837984,0.00015987640456786284,0.0009122205521100173,0.00047298436712994995,-0.007532021310241786,0.10680994559782307
14,0.9600000000000006,0.11690069483915262,-2.0803217950742408,-1.3710205648517155,-1.867430826675442,0.09632666747669727,-1.0429972750883736,-2.916279905198168,0.028241230726727642,-1.4448196170165282,0.1307952891264172
15,0.2800000000000001,0.00034464910462627367,0.00030014808009617256,0.017406039426898542,-0.0131726683170506,0.029018112960970902,5.1071242728831595e-05,0.000499216108377694,0.0005474894930152023,-0.006117919410751871,0.06998753689361087
15,0.7900000000000005,2.0447075249680675,2.7676568889505293,-0.6270275455446782,2.226052150757896,0.01766851781616291,0.24448221615715957,0.9409213596135481,2.9582229809182943,2.2160264289146316,0.23348870326351928
15,1.300000000000001,-2.878390359368034,-1.2010906393446887,2.8888799036806896,-2.1995060921082508,0.005488691735125183,1.3248487460678817,0.3045542559082307,-1.2789516675580797,2.090121789907549,0.2846447087138318
15,1.8100000000000014,2.637065836715814,2.8623078771617254,-1.632923066792945,-2.342108766068814,0.00632264669059735,-2.1167291478192074,2.658770250739334,-2.1740668267873047,-2.0540665906043323,0.28403394272961635
15,2.3199999999999945,-2.759914645108103,3.0918025179752955,1.0453567517142885,0.2649186601841367,0.006490583442217232,0.6789848428164569,7.317411940119308,3.084804315145386,-0.12682404850043352,0.06326926060881184
15,2.8299999999999836,-1.0191639129752608,2.087105165571191,2.4752958010096457,-1.98408131471529,0.0016219296825613827,2.5488582723774247,-2.003675279008931,0.8303178734230213,3.913458388076426,0.045735485922069885
15,3.3399999999999728,-2.3843523311822836,-1.5223939909325712,-0.6123037930618951,2.3883662469136393,0.0038844727433746873,1.856615031435887,0.928956842892053,1.522353852204808,1.3967607109032047,0.04877323454343025
16,0.02,-5.743216370855356e-05,-0.00017976605727285455,0.00013301929767292766,0.00012770989965552515,-0.002451844863853887,-9.498423844962896e-05,-7.170853550138191e-05,-0.000242248229648813,-0.000229457225132783,0.007367892560305263
16,0.5300000000000002,2.763597932289058,0.7963000559158658,0.6907238611480004,2.8178560059468913,-0.008197349973782153,2.0483729019671797,-0.7261449546404597,1.5333432322038592,-2.9868007010371693,0.14508319394454022
17,0.17,0.00015094339099574306,-8.274592517117746e-05,0.009891253325864628,-0.00616799360149133,0.011063005033487245,-9.706293155566659e-05,0.00013045314894702208,-0.000145647149772794,-0.003949260589015243,0.04369297058248015
17,0.6800000000000004,-2.2160892964945758,0.3982063630715568,-0.5415880510400644,2.8980208677380896,-0.0013925627650875744,0.5872051017514417,-0.020186638847561816,0.15304872512727094,2.4694594353819608,0.09704344963427959
18,0.48000000000000026,0.0004897305181015743,0.0008519811533542681,0.036448480862072516,-0.030105137251337483,0.06667923090394334,0.0001580900574857587,0.0009799343139604813,0.00037657458288543205,-0.007660772908506222,0.11304146802682134
18,0.9900000000000007,2.0437081931457035,0.41600210623561673,1.1949094155608264,0.32355387000227226,0.029039296037635044,-0.7636696395218274,0.5081347836930861,1.2624679587774583,-0.07239759055762204,-0.21217814984736022
19,0.34000000000000014,0.0004271758161623093,0.0004734814440029575,0.022545940820031148,-0.01777204761061593,0.03958461209684175,0.0001087909184074939,0.0006478189521266596,0.0006482874856179853,-0.006806765804046977,0.08355301206269913
19,0.8500000000000005,-2.926263246737197,-0.1047841454882474,1.9472252280267557,0.3632260586470876,0.025910976343335237,-2.4671068337204076,-0.20897444390842285,3.0296593716893203,0.34936462656085837,0.09457272264206344
20,0.5100000000000002,0.0004822308559323283,0.0009188963539262586,0.039670324815245295,-0.032975023745070754,0.07310505668967061,0.0001501499199963058,0.0010421756294612496,0.00026505435805410836,-0.007776167758479067,0.11932368646683794
20,1.0200000000000007,-1.6005020113139958,1.6124859492648056,-2.192266727543212,-1.3354546130608946,0.08852557011618535,-1.7732390734250103,-1.6328789049946268,-0.3960421204920099,2.85716399482635,0.1459739693070802
20,1.5300000000000011,-2.3162798952743673,-1.8628287547958182,0.052416821678868575,-1.4599905720151976,0.032453521622116184,-0.7399757875318028,2.695902680625115,-1.7427519714022384,2.120045095355856,0.029380513197989247
20,2.0400000000000005,-2.6694334027393993,-2.079800410769149,-2.381452279419166,1.2588867133708221,0.014049196589918586,3.0972193828027224,-0.905216942043484,1.224957027665744,1.9217303374464727,0.04233541367381733
0,0.02,-5.743216370855356e-05,-0.00017976605727285455,0.00013301929767292766,0.00012770989965552515,-0.002451844863853887,-9.498423844962896e-05,-7.170853550138191e-05,-0.000242248229648813,-0.000229457225132783,0.007367892560305263
0,0.5300000000000002,0.6464866688930618,-0.2983745342205026,-0.6047871055508663,-2.513487819737498,-0.007068514097099585,-0.4836547401185354,3.0954521407333453,1.9308708020752012,1.2690449068819971,0.05786005097850842
0,1.0400000000000007,-1.3688612965568177,-0.00141758157494296,-1.50790961876541,-1.4788332085275102,-0.007955159703362462,0.1613818693036556,-2.8682750213321504,0.12855586235730415,-2.754308229448613,0.06593318070307165
1,0.5200000000000002,0.00047869723698391517,0.0009401994384059266,0.04075954486429828,-0.03394771610779483,0.07532523407562189,0.00014606511598863137,0.0010619534396205824,0.00022530223916596205,-0.0078133332909213,0.12143326611649892
1,1.0300000000000007,1.4648933663654058,-2.6955057113420136,0.08611531819290139,1.0987000234471138,0.08481323306384657,2.776693013173902,0.4186411717966426,-0.5176512495884785,0.2558342005324386,0.2056252797779034
2,0.46000000000000024,0.0004914328148640925,0.0008058108473584071,0.034346186063498575,-0.028234615679268996,0.06253481768422864,0.00016003414525471183,0.000935460402865484,0.00044319162166141793,-0.007577478500235601,0.10888369335139349
2,0.9700000000000006,-2.0253988615189336,0.9854587869900875,0.32334836457654476,-1.1876635120644794,0.0372991311636961,-2.419795973521146,-1.6623083533642964,-2.6283397857895596,1.9509949328082594,0.13842046577919978
3,0.20000000000000004,0.00019559387437866353,2.784125820595198e-05,0.011697765407046621,-0.00793385083180524,0.0154551568217744,-5.927739483423766e-05,0.00021388922805806114,0.00016339429282943174,-0.004687061953509881,0.05103520610430612
3,0.7100000000000004,0.404253839107778,-1.5420812563295667,1.336450575465873,0.3920770648744466,0.03873923205397602,-2.2765572131327905,0.837556223938169,0.5040270885653769,-2.60586127399802,0.128965590122918
3,1.2200000000000009,0.021703254073829854,-2.8196502064896616,2.810161999820039,0.27465257119696346,0.06332168473278381,2.4165476049681196,-2.376009366372193,1.7448006351491248,-1.0026039988751554,0.13580124779972472
3,1.7300000000000013,2.207884907450702,-2.8394644470323698,2.125865944758093,-0.5179808920818063,0.04954224047380566,-0.9662482019116212,-0.10960397682727102,-0.9287775669008796,-2.3125711240103812,0.13341777812115801
4,0.21000000000000005,0.00021519685395689705,6.407715762358454e-05,0.012327257043396352,-0.00851405231727884,0.017031084516805226,-4.443875541018229e-05,0.0002507782378656861,0.00023450953719224537,-0.004916391574926898,0.053465773263895976
4,0.7200000000000004,-0.33011120161627816,-1.8425983938959771,-0.11426567305738801,0.828076004234483,0.001788967011681057,-0.02957439563134992,2.6936826320884335,0.6413792735285195,-0.5144513540624666,-0.03563060467122095
5,0.16,0.00014128309126995776,-8.523187036572968e-05,0.009188919244832686,-0.005765784885310042,0.010386432672909942,-8.91010215691108e-05,0.00018076035433682773,-7.794035583062766e-05,-0.004013253186065939,0.04121742341141317
5,0.6700000000000004,0.9351932286533384,-2.9361841977796956,0.7940473956376045,-2.6773684924262158,0.0003635764024839056,-0.0698438000579102,1.7016724680588262,-1.9091418416489823,1.4032231181016035,0.07416694658546506
6,0.4100000000000002,0.00048434428018811684,0.0006837236803999421,0.029253354936410587,-0.023702692229394338,0.052464468192326995,0.00015099939945600175,0.000818108423169004,0.0005737784311531042,-0.007326540724934705,0.0984943937681293
6,0.9200000000000006,-1.8585080786019188,-0.9841953455871931,0.8982860840232408,-1.171671283312775,0.04496602181801251,-1.0181952753908594,2.778029682183252,2.4875458683642284,-0.13546262170368228,0.08051129414982106
7,0.2700000000000001,0.00032982770724828645,0.000269510525908129,0.016610970434419597,-0.01245280813323792,0.027281193602016234,3.9506378807556365e-05,0.00047203922753707783,0.0005160962451901748,-0.005974668757788352,0.06767875017582507
7,0.7800000000000005,-1.77056735410622,0.29837702203475025,1.402230208588676,-1.0606358614633506,0.01892810429629006,2.44686689665311,1.073207685628926,0.9853374630574799,-1.1041775844929658,0.18551152984352595
8,0.07,1.6421449982934954e-05,-0.00015868037692538846,0.002815905258603398,-0.001693178382202413,0.0021952096533733763,-6.56011131828643e-05,4.819698652137872e-05,7.398688554893702e-05,-0.002527582109387472,0.023390840498974275
8,0.5800000000000003,0.3787533072643295,1.194386091792057,-1.7242258669525208,0.2315638855594742,-0.011655898098623331,-0.6961874471546842,2.697820820473229,-2.766975497018057,0.5363808640148706,0.10032690340268756
8,1.0900000000000007,-2.6088976784045257,2.3840437855361123,-1.9775010773468584,1.7237272884115948,-0.012090474742527585,-2.70065466673479,0.8270907014022288,1.480712896306814,1.4973963493064575,0.1845751188716627
8,1.6000000000000012,0.21656243639481823,-0.07933715606716246,-1.0311980684423954,-2.1776458235156744,-0.010613328397379,-1.4856534719798746,-1.3932571400345222,-0.5774415262987773,2.9757564073024545,0.20058735999823168
8,2.109999999999999,0.21216252830678267,2.042113384808238,0.6846421558146624,-0.0472812142281896,0.0045184069185434245,2.0914463881989653,-0.43005974226511084,3.120049712204863,2.190324670178121,0.2010122348770444
8,2.619999999999988,2.489173580913849,0.3876505383263304,-0.66008042452708,2.3490234214158634,0.0017061381260840556,1.3098545229347185,2.052686124127395,1.1519352743964775,-1.9004002888557732,0.20005956238663875
9,0.03,-4.7331172330960155e-05,-0.00019875324024888532,0.0007427022061912752,-0.0002416153785312114,-0.001842568087756189,-8.495742940761832e-05,-8.038865491092775e-05,-0.00023748539838214965,-0.0005499791676939144,0.01064096532957526
9,0.5400000000000003,0.1390518205891876,2.936123894410555,-2.0324954116458365,-2.2213892120651217,-0.003811966607748313,-1.766929871678034,3.105785735374986,0.23862035898013131,1.5330970597434714,0.016200402774606888
10,0.17,0.00015094339099574306,-8.274592517117746e-05,0.009891253325864628,-0.00616799360149133,0.011063005033487245,-9.706293155566659e-05,0.00013045314894702208,-0.000145647149772794,-0.003949260589015243,0.04369297058248015
10,0.6800000000000004,-2.2351563839128707,1.841416905221258,-2.833082206325166,1.8999799316482113,-0.014707961784017707,0.18923418964853128,-2.0002730399739166,-1.5129610459629481,0.5587939556319064,0.0856771217172903
10,1.1900000000000008,-0.9619460561190905,1.7999871999972372,-1.4691980060563203,-0.15342600629264208,-0.015180141383873526,2.567945200107911,1.272898513349405,-2.937174276846543,-1.9800140935145927,0.09277883806120202
11,0.48000000000000026,0.0004897305181015743,0.0008519811533542681,0.036448480862072516,-0.030105137251337483,0.06667923090394334,0.0001580900574857587,0.0009799343139604813,0.00037657458288543205,-0.007660772908506222,0.11304146802682134
11,0.9900000000000007,-1.630260800634431,-0.3682788811485304,0.15352649123143627,2.265798721183789,0.05170725636383774,1.9785682252639927,-0.33172590865999485,-1.0390745666177108,-2.5502681108606127,0.1332913550124491
12,0.37000000000000016,0.00046027236701665677,0.0005679718665655906,0.02537395150672744,-0.020253589020808347,0.04455043525812681,0.00013096939231760908,0.0007279998770367533,0.0006351652273006263,-0.007072936048003883,0.09005791918569493
12,0.8800000000000006,-0.13565700801453137,-0.21397919191154188,-2.885670454166691,-2.6531484198936703,0.056909133921174596,1.4917172250435138,2.817846227913217,-2.6223891842400753,-1.667916223395234,0.21111973548503266
12,1.390000000000001,2.1229679088854376,2.434498253059911,-2.2573751058999445,1.6435628223556833,0.01865538963355328,-1.2099491597363479,0.4206629173753666,-2.8924587169193674,1.1885297950462395,0.15082765025017225
13,0.5100000000000002,0.0004822308559323283,0.0009188963539262586,0.039670324815245295,-0.032975023745070754,0.07310505668967061,0.0001501499199963058,0.0010421756294612496,0.00026505435805410836,-0.007776167758479067,0.11932368646683794
13,1.0200000000000007,1.3339557844783545,-0.746506589140206,2.113297354150227,-0.7237308495050566,0.0732532671858951,8.656844188592672e-05,-0.7880882490889639,-0.39772541671970796,0.18930234288869416,0.1652703447507403
14,0.5200000000000002,0.00047869723698391517,0.0009401994384059266,0.04075954486429828,-0.03394771610779483,0.07532523407562189,0.00014606511598863137,0.0010619534396205824,0.00022530223916596205,-0.0078133332909213,0.12143326611649892
14,1.0300000000000007,-1.3013650912547416,-3.0268437542721687,0.4295782484509826,0.11281776996017927,0.055183573591088025,0.6468974702124488,2.558459090105762,-2.3589007933369306,-1.0274117330555734,0.17940813074197146
14,1.5400000000000011,-2.258624078266984,0.916679447407393,2.1778913400069806,0.8624453246132573,0.060177465712658786,2.304320623605002,-1.5859061288205742,1.271900662580882,0.02438074476391732,-0.004215951593114645
14,2.0500000000000003,1.233563775420577,-0.9795957443027925,1.6111988366558576,2.8898107019448145,0.051367682464501845,0.7149735758772322,0.022256661256056118,-2.1134114678534317,-2.139114726359009,-0.022577937467776324
15,0.060000000000000005,2.7825470545653774e-06,-0.0001725543445316437,0.0022860974737212232,-0.0013278123594823788,0.0010683632127231964,-6.607530486579787e-05,1.3571784356524625e-05,-7.302120701949228e-06,-0.0020767096270154902,0.020377839584055448
15,0.5700000000000003,0.9330018956101784,-1.9115241468981976,0.5488219422019717,-2.9330049171931556,-0.004485731129516513,-1.3902626588215765,-1.2349778797934636,-0.8849487094517658,-2.7075154423283903,0.09400469918291596
15,1.0800000000000007,2.6843451185020437,-1.3519846778677669,0.5174137956431755,2.631229500736865,-0.011908934050159723,-2.12656291137116,2.5520144056608154,-2.9007546617813627,1.4286613097998568,0.09183284205837942
15,1.5900000000000012,1.6958349696523818,-2.802911188110715,1.027760777954559,0.42699491176499726,-0.013466774355877176,2.903149791449151,3.018138060801894,-1.7327656778797051,0.30536246326685373,0.13215582450514662
15,2.099999999999999,1.456266428191915,-0.7319048850114939,0.378263866807639,0.2979187794402739,-0.00890925689245458,0.7638556646680602,-0.8969934613981536,0.4301174421338089,0.8369150462751974,0.08887923181001384
15,2.6099999999999883,-1.4617115728260215,-0.19088837225349153,2.1270473243747725,-2.0818801603519965,-0.011946645210127496,1.70582593448153,1.7507980070805584,-1.1008738079089595,2.6173823108430634,0.04584822989110845
15,3.1199999999999775,-0.027321343035977094,-0.30990144953710785,2.8394685259534085,0.4370689564584825,-0.017681078381843563,1.0135683722096345,-1.0375545560018553,0.13512455291399353,3.005598041778891,0.04452274322751684
16,0.4200000000000002,0.00048754506906252147,0.0007086148887936799,0.03025417895809558,-0.02459351982783976,0.05444735343474877,0.00015475300284092342,0.0008425196804296949,0.0005525920285354016,-0.007384078861114611,0.1005801115136765
16,0.9300000000000006,2.1328449288437383,-1.35395519005238,1.3175815648555518,-2.6784124372628684,0.06024876641309136,-0.3484745274897885,-2.658055604306371,2.4102632233215515,-1.3923404187933655,0.14805631475289538
17,0.37000000000000016,0.00046027236701665677,0.0005679718665655906,0.02537395150672744,-0.020253589020808347,0.04455043525812681,0.00013096939231760908,0.0007279998770367533,0.0006351652273006263,-0.007072936048003883,0.09005791918569493
17,0.8800000000000006,-2.369995025170885,-1.4734239499084982,-1.5979809259040574,0.15739921145120242,0.024034736108399523,2.094705615520996,1.3741190081236705,0.06888897533901768,-2.4971912005592762,0.1300322556403114
18,0.3900000000000002,0.0004728432445917963,0.000620954649680359,0.02729857672075053,-0.0219640171713471,0.0484356828213607,0.0001435172923589997,0.0007809763641822898,0.0006139560550376079,-0.007215211423692829,0.09430181034220521
18,0.9000000000000006,-1.4880024585514753,-1.8098566498282365,1.936197045568928,1.2382581276522995,0.027294508978211358,1.3726111168231445,0.37813091765339213,-1.395083238073589,2.282090847533359,0.10090183710879369
19,0.45000000000000023,0.000491329893759129,0.0007821356795329549,0.03330783676049775,-0.027311002184114048,0.06048721346837984,0.00015987640456786284,0.0009122205521100173,0.00047298436712994995,-0.007532021310241786,0.10680994559782307
19,0.9600000000000006,-3.0020162290346626,-0.7167300065148738,0.2675163131483409,-1.2874803809511841,0.019627873071690248,2.5045239891666387,-1.196852743612816,0.48347243339812895,-2.4980913832924094,0.14457381140192663
19,1.470000000000001,-2.2379900721527424,-1.5115103553575107,0.1027839045970203,-0.4213579942782661,0.12354130518866302,1.6842448755258197,0.9170800801077511,-2.8945338466470836,-1.7002710751746586,0.321916126930059
19,1.9800000000000015,-1.470555144359835,2.1079745821087763,1.6749866206212494,0.34154245634634345,0.08524818907400274,3.082954463501408,0.8606645383611584,2.222371539579412,-1.601555374939124,0.33026545616035125
19,2.489999999999991,-0.7719132268909589,2.7063834007092678,-0.7314063659953718,0.09668938837712542,0.07078561044818064,0.24882874952213158,3.0140323412092522,2.040821937535624,-0.7320313588802623,0.32577194645227486
20,0.11999999999999998,7.609847561608179e-05,-0.00010485651135884969,0.005994319610202189,-0.003827582100566173,0.007984132893244476,-7.064541160957279e-05,0.0002364047694458939,0.00030022526492603526,-0.004166660960771041,0.03459710103622352
21,0.03,-4.7331172330960155e-05,-0.00019875324024888532,0.0007427022061912752,-0.0002416153785312114,-0.001842568087756189,-8.495742940761832e-05,-8.038865491092775e-05,-0.00023748539838214965,-0.0005499791676939144,0.01064096532957526
21,0.5400000000000003,1.9114253068923321,2.8467726074121784,-1.7168969041982873,-2.727393286388808,-0.014148913376801056,0.3581117962207871,-1.8267383182108679,-2.7472058105909385,-1.5989267651969312,0.09596400657458083
22,0.20000000000000004,0.00019559387437866353,2.784125820595198e-05,0.011697765407046621,-0.00793385083180524,0.0154551568217744,-5.927739483423766e-05,0.00021388922805806114,0.00016339429282943174,-0.004687061953509881,0.05103520610430612
22,0.7100000000000004,-2.9974501998447933,1.0248867831978203,-0.0038605720780434845,2.9569698320002513,0.010949812478141505,1.472113453423458,1.651005076671376,-0.6216501967473805,1.0542285376119132,0.06341179577202627
23,0.060000000000000005,2.7825470545653774e-06,-0.0001725543445316437,0.0022860974737212232,-0.0013278123594823788,0.0010683632127231964,-6.607530486579787e-05,1.3571784356524625e-05,-7.302120701949228e-06,-0.0020767096270154902,0.020377839584055448
23,0.5700000000000003,-2.0940893878288036,-1.9791405864912215,1.8207226347023697,0.6574863598483054,-0.008946335252240197,1.4911101910726774,1.7199774352405341,-1.4865877449831681,-0.7120168379764883,0.09759793807583536
24,0.37000000000000016,0.00046027236701665677,0.0005679718665655906,0.02537395150672744,-0.020253589020808347,0.04455043525812681,0.00013096939231760908,0.0007279998770367533,0.0006351652273006263,-0.007072936048003883,0.09005791918569493
24,0.8800000000000006,-0.32825874967910024,-1.8189646396577996,2.8366183356998333,-2.146764342868235,0.03246923258747595,0.5774529304420752,-3.024844479545165,-1.0963295576294463,-0.2308725442517915,0.12395326096281627
24,1.390000000000001,-2.7965444997648374,-1.4315737213591098,-0.2823015432528558,-3.1127366844486457,0.025746042661906856,-2.623913692485216,-1.7616555761603805,2.805469889050852,0.15662531146733552,0.05240652241846425
24,1.9000000000000015,2.7504377078656064,0.39087926060855477,2.4852584410418723,1.606336390521447,0.02488673003475737,-1.0380005749296324,0.47833178744663735,1.1555111551583834,-0.2623134809914102,0.058844330754463256
24,2.4099999999999926,-2.9980173654940483,-0.7131855536071485,-2.097679131274196,2.391744528032234,0.03638182139735598,-0.09158394579277737,2.7691626179409385,-0.671246153047735,0.8652002339716443,0.0552946216774613
24,2.9199999999999817,2.1705543230161664,1.3976198895123637,-0.9482374467047907,2.018862187167921,0.025330556596915108,2.961825002948165,-1.1317026817569698,-2.8210941948313213,-2.172525840716467,0.043738495272218715
24,3.429999999999971,2.3390078549880764,-2.1597885135076984,0.8524824579248492,-1.101785338481227,-0.011818306794736878,-1.8343374158603427,0.7903618084054213,-0.823153202381318,0.6383271988796095,0.03852219876583865
25,0.16,0.00014128309126995776,-8.523187036572968e-05,0.009188919244832686,-0.005765784885310042,0.010386432672909942,-8.91010215691108e-05,0.00018076035433682773,-7.794035583062766e-05,-0.004013253186065939,0.04121742341141317
25,0.6700000000000004,0.5751583776401797,1.3805785784458682,1.1223735628549607,-0.2642195926102908,-0.0011941247231289762,2.8872943429159674,1.0946769495132889,2.876510994759841,-0.26110951511210634,0.0818807221085696
25,1.1800000000000008,2.7823093260764327,-2.515815968927543,0.17513147750081973,2.0748570315462733,0.004819217904866846,-1.7758816844360812,0.5239177087115227,0.9043848558850874,2.009085757882713,0.0805220617452472
25,1.6900000000000013,0.8467034179579734,0.9702030677468885,-2.2765615904742056,-2.1185111483694268,0.008974566374517844,1.0849019810647589,1.8037292297279093,-2.095748619451278,-0.5018515553623358,0.08630408104901643
26,0.09,3.874800979466077e-05,-0.00013373899377141534,0.003950845832315717,-0.0024763377327775777,0.004693517396082441,-6.907095412240912e-05,0.00012152949510179366,0.00020495517837976646,-0.003324136884758351,0.028749887069757445
26,0.6000000000000003,1.3730824943520732,-2.8162907773385335,-0.9804419071493197,0.3469994907046913,-0.025992579948439953,0.6953293196676696,3.105320136210255,-0.6462383724047259,-0.049187354679654086,0.0939046633166942
27,0.08,2.8872653829895892e-05,-0.00014472760717325372,0.0033633550470454888,-0.0020729482591847355,0.003410411685541798,-6.716662063629763e-05,8.521305274021663e-05,0.0001455767398571997,-0.002943896203879311,0.0262145212331694
27,0.5900000000000003,-0.23493235452073685,2.5571595092482817,1.4015427899444821,-2.276530039100143,-0.009206574253755765,0.7261733001187515,-1.6809159467584989,-0.9268384964666393,-0.029024075442948986,-0.028507031448262245
27,1.1000000000000008,-0.727690667464947,-0.7540597902508586,1.915117714758527,0.2829830093755857,-0.010312602951709068,-1.4477119445281217,-0.7342795809483822,-3.1003492221345326,1.1837440346680903,-0.05630500004844224
27,1.6100000000000012,-1.8905474585370863,1.4889996463830624,-1.9694140406556533,1.8146548134696332,-0.007278619976431571,0.03316881410152959,-2.7796656474971764,-0.6225542216258098,1.9464548778928579,-0.05880786489208025
27,2.1199999999999988,-2.775202147792233,2.0368968268102314,-2.623780733035407,0.9688052177262945,-0.007462499886209783,0.5880640667403564,-1.4860075212867219,-1.354652399403918,-2.1543018174164565,-0.14186143959647549
27,2.629999999999988,-0.2910375656368103,0.389840194379165,-2.064911432611028,0.20304334067296512,-0.0015992775067215333,-2.187073953708571,0.9179351077101832,2.27507331539334,-2.4778147928529473,-0.16807034112674807
28,0.4200000000000002,0.00048754506906252147,0.0007086148887936799,0.03025417895809558,-0.02459351982783976,0.05444735343474877,0.00015475300284092342,0.0008425196804296949,0.0005525920285354016,-0.007384078861114611,0.1005801115136765
28,0.9300000000000006,1.9303590624466156,2.4323683961784326,-2.4712032207951222,1.232940096990812,0.023546294329296093,-1.7423793416632858,-2.3106046376918132,-0.20412821587118352,-0.43623117712060566,0.14383896140391503
29,0.5000000000000002,0.00048517242001364937,0.0008970625395818592,0.03858818824292653,-0.032010438169365954,0.0709384444211324,0.00015350180523712804,0.0010218235046815995,0.00030373785488485263,-0.0077384549540750495,0.11722249110542443
29,1.0100000000000007,0.7455505160774234,1.860404778822853,-0.3460316110592245,-0.3910541039409227,0.05493436763919744,-0.603711765268544,-2.9583690803209275,-2.239489012596258,0.004416347853278035,0.1217589390154205
30,0.47000000000000025,0.0004910462630606338,0.000829142789274568,0.035394069796644355,-0.029166199069855365,0.06458433728276072,0.00015947013424629004,0.0009583295361082607,0.00041122980291625376,-0.007620745025553043,0.11095911079301912
30,0.9800000000000006,-2.118697838547425,-2.7590925074607306,-2.3856301313653496,1.9726483248787627,0.1544357526934662,-2.5487064845728917,-0.9554411752905486,-1.250748875969001,-2.4165779360785957,0.15816970761103818
30,1.490000000000001,1.4130939238794245,2.0005777304588235,-0.10844856919907098,2.703609518643529,0.08454126211688737,3.0421565701098543,-1.7761862749036104,-0.7083025313884704,-2.0080770733226663,0.1642842913517511
30,2.0000000000000013,-0.7496417589719157,0.7752558717476287,-1.2896284803165692,-1.847076652258552,0.1156585274593628,1.231269553230326,0.42854677739249253,1.8889515456593111,-2.3278966664891705,0.15699807862070067
30,2.5099999999999905,-1.241228431167223,1.1881982935103257,-0.08246708551023697,2.5030233734169687,0.13251563216176113,-0.6408570103026321,2.1725042325678734,-2.040885521022601,0.2040612656891311,0.15569005750819415
30,3.0199999999999796,-2.174941148082246,-1.9253918067548519,-0.03964027307806227,1.56959915603932,0.13173520987490223,0.004696736817196777,2.856853724586073,2.8363873584335293,-0.9710627561565556,0.14587964586754437
30,3.5299999999999687,2.3391003125953946,0.20998843427458913,1.7508946970075396,-2.109197669380277,0.08382251720177708,-2.60374058691477,0.1537211369612676,1.4334168554717117,-0.012801365594176262,0.14703887100901217
31,0.23000000000000007,0.0002545125110378279,0.0001436060723836996,0.013657612556045055,-0.009746451576080895,0.020400592182657138,-1.4559560337008283e-05,0.00032595946269181657,0.0003516320704345557,-0.005318492918620865,0.05828109643589001
31,0.7400000000000004,0.8659011711670207,-2.398564098810603,2.5283673531635587,2.6800833562671125,0.006417797500838822,3.0214606041011955,-2.4978813943541964,-1.7759244917234893,0.6288122202187347,-0.04942648632623539
31,1.2500000000000009,2.5658620988518117,-1.9909797353978687,0.5542602341770749,0.4467451584636276,0.014205791803238957,1.913726313974561,-1.029792501611232,3.046970145327498,-0.3943629259090278,-0.056914334481908455
31,1.7600000000000013,0.4485724520167449,0.9636686595401832,-0.5961666539842368,-2.691390928386082,0.017787426267344704,-0.2865322342040299,-0.4423780110926601,2.3125535076955512,-2.2804618147636533,-0.22605347678812493
31,2.2699999999999956,-1.6474288589693502,-0.11503866857017472,-3.1029391157907966,-0.7325747821711228,0.013174152127439914,-1.2857277828341347,0.8840487690392845,-2.0565478539124036,-2.2875618279412553,-0.3268104643997911
32,0.47000000000000025,0.0004910462630606338,0.000829142789274568,0.035394069796644355,-0.029166199069855365,0.06458433728276072,0.00015947013424629004,0.0009583295361082607,0.00041122980291625376,-0.007620745025553043,0.11095911079301912
32,0.9800000000000006,-2.31161593943172,-2.1998224475719175,-2.6003752179346202,-0.6949827822841323,0.03752506346721745,2.1389052028595192,-1.9069253257729468,-1.669592910131326,-2.937430314171396,0.15059791392069108
32,1.490000000000001,-0.9582623248137061,1.261272901729117,-0.6445925186234444,3.0033513631217166,0.06492213633479053,2.8184939113016365,-2.7752546810731666,0.042540564504631874,-0.45232407201335445,0.1504751433677031
32,2.0000000000000013,-2.473004052519625,-1.255993249385203,3.078931871264184,2.949197090891539,0.0324068808719039,2.909900430348602,1.8781783710200828,-0.4532667223118986,2.065178941697324,0.1520413562070969
33,0.4000000000000002,0.0004825802859520474,0.0006558718776225171,0.02827019199611321,-0.022827967857803052,0.050466210628062246,0.00014780252239372902,0.0007996825216053859,0.0005953486917452791,-0.00727270078439554,0.09640332992308022
33,0.9100000000000006,1.438875290110832,0.7843929108236927,-0.6778487398738321,0.6480816368126983,0.0311824736287393,-0.9553608790157923,1.4239352352205819,-2.4282756267100734,1.891499671337738,0.1226634411715479
34,0.4200000000000002,0.00048754506906252147,0.0007086148887936799,0.03025417895809558,-0.02459351982783976,0.05444735343474877,0.00015475300284092342,0.0008425196804296949,0.0005525920285354016,-0.007384078861114611,0.1005801115136765
34,0.9300000000000006,-1.1934663430903267,-0.5867763637306941,-1.6570384763595525,-2.0343810259092963,0.04036840844403556,-0.9254704165902363,1.911772978056723,0.7649683282608974,0.5172488530935864,0.12464028217680527
34,1.440000000000001,-0.07541707109178124,1.4007187400156187,2.316524089745694,-2.708849642827148,0.03480565538365692,-0.9985828876088312,-2.285142274750679,-0.7820634475061118,-1.2766254576240428,0.13332150967415635
34,1.9500000000000015,0.08929909188788851,0.2851077072375262,0.2704058920842714,-2.2226154042365187,0.03940105710943404,-0.8869733633108071,0.525582157092959,-2.3326215891735753,-1.7302034680346927,0.09942879236504093
34,2.4599999999999915,1.00340538602345,-2.78584493592946,1.070241686556407,0.17610850812964618,0.03299646309071011,-2.5337583725567203,-2.443780533416831,-2.120844856638122,-2.51369111051143,0.09513277332804307
34,2.9699999999999807,-2.8066982878715456,0.49447822666244806,0.00779312400229033,0.4883587619887916,0.037201953492523754,2.167659429231509,-3.1890121615425078,0.5726742363026798,1.9137827529821752,0.12315116994034418
34,3.47999999999997,-1.5916851834836707,2.5007252670798517,0.7216927632330602,0.21124822169021892,0.03640648980569252,2.8078418901962534,2.6605485892694927,2.590534699888833,-0.6876782765121379,0.1254622618705376
35,0.46000000000000024,0.0004914328148640925,0.0008058108473584071,0.034346186063498575,-0.028234615679268996,0.06253481768422864,0.00016003414525471183,0.000935460402865484,0.00044319162166141793,-0.007577478500235601,0.10888369335139349
35,0.9700000000000006,0.2590064955138996,0.3534880318162739,1.2227113512095822,-2.010930117159126,0.06483523907399948,1.8912151586816086,-1.4433288379842772,-2.985206288394293,0.7876523115727042,0.1376246194105558
36,0.5100000000000002,0.0004822308559323283,0.0009188963539262586,0.039670324815245295,-0.032975023745070754,0.07310505668967061,0.0001501499199963058,0.0010421756294612496,0.00026505435805410836,-0.007776167758479067,0.11932368646683794
36,1.0200000000000007,1.771606685204196,0.6765761849572453,-0.6209385425118275,1.453244582131411,0.04640501779468338,2.811851508688533,-1.0493571921520137,0.37073129425860446,2.607619242780129,0.10626215455008825
36,1.5300000000000011,-2.599858130554267,2.3614041618668296,-0.5472624783985996,-2.465744315318052,0.0650990999888781,-2.862439911191415,-2.682121799742634,-1.0279498663321256,-0.9250564164247259,0.10591873513307036
36,2.0400000000000005,-0.5709019020400911,-0.23655178509971553,0.9735403873982079,0.5883634443119962,0.08804762145934786,-2.676501852413041,-1.9445705910708588,1.866341463821633,2.5298494844771406,0.10677925937380653
36,2.5499999999999896,-2.331300234360006,0.20794333977908727,0.46417126292650757,-2.032912611774059,0.050457503118895,-1.4357916625405884,-0.1082075227619362,-0.43884674947558827,1.4853925610437357,0.10713200934392629
37,0.3200000000000001,0.000398120905350065,0.00041694117276554177,0.02077361612438023,-0.016194189379857792,0.03602558780341194,9.125711464881648e-05,0.0005978695247770581,0.0006324321018347796,-0.006610575184638387,0.07908578306816044
37,0.8300000000000005,0.24025989054179303,-0.02026253727498866,-1.126904043225973,-0.4415886574672184,0.041770266327086226,0.6561028833663305,-0.5200671855793247,-0.783731793334041,-2.5622286115122277,0.14300483379846593
38,0.20000000000000004,0.00019559387437866353,2.784125820595198e-05,0.011697765407046621,-0.00793385083180524,0.0154551568217744,-5.927739483423766e-05,0.00021388922805806114,0.00016339429282943174,-0.004687061953509881,0.05103520610430612
38,0.7100000000000004,-2.8201392753722754,-2.2702568295242394,2.002239478346965,0.5897605426340925,0.02064707338341846,-1.2634526044342198,-1.5635360567579044,-1.2533913507632972,-0.5606557579710482,0.09194905771797321
39,0.26000000000000006,0.00031994374306534704,0.00023969776857897605,0.015825724754010586,-0.011737610361750736,0.025572244451278203,3.127959390889511e-05,0.0004463300799635744,0.00047747025062773625,-0.005813751684469679,0.06536612998399158
40,0.02,-5.743216370855356e-05,-0.00017976605727285455,0.00013301929767292766,0.00012770989965552515,-0.002451844863853887,-9.498423844962896e-05,-7.170853550138191e-05,-0.000242248229648813,-0.000229457225132783,0.007367892560305263
40,0.5300000000000002,1.598387669958476,2.9163533504307924,-1.6686311882772928,1.5865281885899682,-0.02029953273728893,2.8232131860229854,2.1207363124112057,1.5430602726161848,0.2611089536970479,0.0014511436679201788
40,1.0400000000000007,2.7136457183455813,1.1083990452194883,1.1004656421630818,1.9488069025830013,-0.015963785342586776,-1.9465960070195736,2.850178318426309,0.1265988375101478,-3.09159863849353,0.07849661178742014
40,1.5500000000000012,2.5037593448477558,0.6614872042112755,0.9228000900738443,1.5732396019130748,-0.004807047887579812,-2.8394643271584723,-2.0617758605568612,0.08747939072094019,2.563110739813491,0.012025053529314966
40,2.06,-1.3113551542994706,2.5086636577586807,0.4495170630897323,-0.9250566928543701,-0.013205459381624996,-2.3721304079229717,-1.4702344231043718,1.6723928515227702,1.9234653593725273,0.11515059181471447
40,2.569999999999989,-0.7025784759997616,1.663946946664271,0.07616875575601172,-1.711653835125533,-0.015040902101893992,-0.6672917812869021,0.2719040892439704,0.3374729202176165,3.1141326984649753,0.1258286488391251
40,3.0799999999999783,2.9793338234080005,-0.26838992885027124,0.3733925973286021,-2.5173619750867258,-0.022990552093606162,-0.28192795116001773,0.050531931029229725,-2.3610914868313255,-1.6142561623721317,0.1306110442856718
40,3.5899999999999674,-2.5486521948927376,-1.813177582497725,-2.360891604935407,-0.8351020578836043,-0.005943464144721739,-0.5587614955746643,2.3161357559048086,2.2028611521076202,-1.7653861995735851,0.12313217281811924
41,0.13999999999999999,8.83522384771389e-05,-8.079439935676891e-05,0.007663156457177163,-0.004908216483045624,0.009383517674973262,-6.185816583450227e-05,0.0003265681415068938,0.0002468615014872848,-0.0043121608895132155,0.03808344268279123
41,0.6500000000000004,2.7452350103447176,0.059287197994963854,2.2909527429446777,-0.6248853969596484,-0.010307404627445348,-2.685854055500053,1.2640657076530046,-0.7269951004443588,2.0809279474712943,0.05591365441450664
41,1.1600000000000008,-2.5545522931958726,2.0758565050289657,0.5845681954529486,2.1335877978820292,-0.008910902243460809,-2.826138572160025,-1.7908278983380665,-0.8583933492778322,-0.08759448495459903,0.05146613295453788
41,1.6700000000000013,-0.6897493762962995,2.4827238925593194,-2.2265706876920897,-2.488192364069892,-0.002367006780376316,2.0171488215710736,-2.7219305057950107,0.9716952799232448,0.43562068198533765,0.04365032715128493
41,2.1799999999999975,2.2391205334382143,0.05959944306386614,1.1115023413555867,2.9054475865948546,-0.007241910944493758,2.0963560743912,-1.3667972931951722,2.7350886745838086,-2.21523021978752,0.06761857107792696
41,2.6899999999999866,-1.672047418019058,1.9611320467662985,1.4596955780725298,-0.7690637337641247,-0.006063374007830874,0.9440273392302077,-3.0950855693015176,-2.5121582796597632,-0.7916938724182402,0.06855106989377432
41,3.1999999999999758,1.1171058423501492,-2.4393821384240324,1.6854559396282522,2.226690714528036,-0.007754149453352005,1.1691966869749073,0.1200424269863253,0.9320798926139938,0.8201074923243189,0.06795925974341767
41,3.709999999999965,-0.6020501449464868,1.8183102733338454,2.921720668820123,2.5082832109083326,-0.007177363940669803,-2.586955994574027,2.775650756212745,0.5329445069510996,-0.8451617999865246,0.06867079059409716
41,4.2199999999999545,-1.3035683649479664,-0.3392160062609072,3.3752738857477054,2.7390853281215186,-0.009912865148094883,0.2876258384269456,-1.9958788173684592,-2.505892185855089,-1.4072987288173913,0.0684568865711163
41,4.729999999999944,-1.618688465423785,-2.4202591361781534,6.323229484439814,-0.2754551480419424,-0.004101733189122657,-0.9044486588591235,-3.134578734325852,-2.6492775112497187,-2.5160812530540557,0.06483920051025237
41,5.239999999999933,-1.2759746864720924,-2.9164273579453237,6.34755215795796,0.020367797250835012,0.015153973624174456,2.145943476609665,2.566097000041942,-3.2002753350438136,-0.042040697408890354,0.06963399951171285
41,5.749999999999922,-0.7897316689916175,2.8449831130831,7.996057343984431,-2.151576538563877,-0.02817003009581214,1.8712031760831662,-1.6003915816568839,-1.9366712612753725,-1.9256553742255973,0.0765440957791512
41,6.259999999999911,-0.007323903067501521,1.5560535365724637,4.88376740439164,-0.0011906597747863706,-0.04825461407747085,1.7908188418214406,0.3802838861659669,1.1967126690743977,-1.2939775120214139,0.07549213083652019
41,6.7699999999999,0.5295593422170841,1.7729283453701734,-2.2743890210410203,0.46420414393870524,-0.02762922192551757,1.7498622201216276,1.4834301590711094,1.9715052557141628,-1.2458426116382455,0.06094603446037089
41,7.279999999999889,-0.2471670403574977,0.67324701524331,-0.4759401348506608,-0.33371374570408674,-0.021976282470267585,1.9746793811024814,-2.7728647975360503,0.29260149978438166,-0.9655375748213059,0.03179144734989626
41,7.789999999999878,0.5499821020175071,-0.41729766696449216,1.0458170542263998,1.0084403514902782,-0.01203116091183994,-0.23718774174801358,3.088668548750914,2.7660280552428445,-2.2971068704212607,-0.18331242942505277
41,8.299999999999867,-2.64494455355379,-0.30044511961735076,2.8961788133102058,1.5343264706721906,0.005192306400071742,2.9577199989050587,0.9014875474012279,1.347627586965001,-1.1337432620984955,-0.19458804538348698
42,0.4200000000000002,0.00048754506906252147,0.0007086148887936799,0.03025417895809558,-0.02459351982783976,0.05444735343474877,0.00015475300284092342,0.0008425196804296949,0.0005525920285354016,-0.007384078861114611,0.1005801115136765
42,0.9300000000000006,-1.979189448476291,3.0955618003625793,0.5452451269059634,-0.1632632805622847,0.055901829975419495,-0.8613007426489967,-2.9170135811126934,-0.5090847255288115,1.0647868452894507,0.11078111726073159
43,0.17,0.00015094339099574306,-8.274592517117746e-05,0.009891253325864628,-0.00616799360149133,0.011063005033487245,-9.706293155566659e-05,0.00013045314894702208,-0.000145647149772794,-0.003949260589015243,0.04369297058248015
43,0.6800000000000004,2.582734174102225,0.3484224436096306,-1.0457831996211868,2.2403370450154574,-0.06637506280677363,-2.685765048467985,1.6820426095487577,-0.9845196524147515,2.5547631567310294,-0.020060503152642573
44,0.3900000000000002,0.0004728432445917963,0.000620954649680359,0.02729857672075053,-0.0219640171713471,0.0484356828213607,0.0001435172923589997,0.0007809763641822898,0.0006139560550376079,-0.007215211423692829,0.09430181034220521
44,0.9000000000000006,-1.093421282716562,-2.9366405693074475,-0.9589370484746161,0.5587126472664105,0.04331545026369925,-2.2154323770188045,-2.8984280194410337,-0.8655904489114323,-3.09604528837099,0.12172721873643423
44,1.410000000000001,2.616164672579474,-3.118784367928943,2.5151046496087015,-2.654929056575676,0.03414503064887535,-3.0374293665450867,-1.5558498448407405,1.71565111092322,-1.808159364825803,-0.3945855803367778
45,0.34000000000000014,0.0004271758161623093,0.0004734814440029575,0.022545940820031148,-0.01777204761061593,0.03958461209684175,0.0001087909184074939,0.0006478189521266596,0.0006482874856179853,-0.006806765804046977,0.08355301206269913
45,0.8500000000000005,2.0419496886333897,-1.5130650669119599,2.2832362026853836,-2.597479929149955,0.07225099733494446,-0.8659600666850612,3.0350624332470844,0.1715004702539084,0.15675501315154378,0.007983271121175396
45,1.360000000000001,-3.5556414487789336,2.816150868977278,-0.7983869430369721,-0.930756337035045,0.002833543008998554,0.8319227010619362,-2.52210575139841,2.62878615973172,2.4516417395291414,0.060127076017990826
45,1.8700000000000014,2.398077199857947,2.7902202599331463,1.4312088284049174,0.6341557648927004,0.058291374904291246,-2.2596482191788545,2.0164137346247477,-2.3754423779675298,-0.7268094513182216,0.18490850798564137
45,2.3799999999999932,1.5241029164544615,-1.3880323934709564,3.087470483571467,1.9839768234355213,0.08094637015037713,3.042993912659891,-0.6874051252535869,0.544318694768439,1.8215542875619453,0.2157182753177349
45,2.8899999999999824,0.9378541548097733,-1.5811895145269261,1.2298038722452465,-0.31932123623701947,0.0439868625812001,-0.7783427796049678,3.0620431480888257,-0.22497710545461538,-0.3659181385555725,0.22169139166552237
45,3.3999999999999715,-2.103867710950769,2.85570911026288,1.7490052871712718,2.7422094168135933,0.06083945266912146,-2.969084953408035,1.567605802818639,1.0553472327394058,1.645990723985233,0.049026920447098714
46,0.02,-5.743216370855356e-05,-0.00017976605727285455,0.00013301929767292766,0.00012770989965552515,-0.002451844863853887,-9.498423844962896e-05,-7.170853550138191e-05,-0.000242248229648813,-0.000229457225132783,0.007367892560305263
46,0.5300000000000002,-2.010882912865369,1.1826999648339278,-1.6611636887271064,0.854499326290569,-0.0756368130164231,-1.4428719170114275,-0.7904589951909448,-0.5405312289952141,-2.931616563987799,0.10561363211816427
46,1.0400000000000007,-0.7275604518061818,0.8612269101241732,-2.087124659855512,0.9875078065601637,-0.024358231229378895,-1.2512213983991538,-1.7061956723588603,1.206465118230802,-1.8241441289309113,0.10343721310288931
47,0.37000000000000016,0.00046027236701665677,0.0005679718665655906,0.02537395150672744,-0.020253589020808347,0.04455043525812681,0.00013096939231760908,0.0007279998770367533,0.0006351652273006263,-0.007072936048003883,0.09005791918569493
47,0.8800000000000006,1.8122267926186622,-3.126523825676924,1.7766666782580145,1.114381979594579,-0.0004766136110963468,1.9085673083695252,-2.8462062703285445,0.3695761590975587,0.301259299381941,-0.01159778537230806
47,1.390000000000001,-0.9271492820810194,0.7689975972787393,3.000867847580444,-1.3714269330403375,-0.09608513676333483,-0.5132204948708506,2.5034841232397564,-0.746847824570992,-3.01619367480109,-0.015116033630680203
48,0.4000000000000002,0.0004825802859520474,0.0006558718776225171,0.02827019199611321,-0.022827967857803052,0.050466210628062246,0.00014780252239372902,0.0007996825216053859,0.0005953486917452791,-0.00727270078439554,0.09640332992308022
48,0.9100000000000006,-2.628201034406008,0.6568335938268132,-0.4032192047817712,-1.131368632548872,0.06848527141453076,2.5559474390748833,-2.8892671607034996,-2.258292124930534,0.05141129734353952,0.11633440044804548
49,0.2900000000000001,0.00035746536885987814,0.0003310244030706726,0.018223565430950155,-0.013909509150108372,0.03075545474691127,6.174820605767002e-05,0.0005237260526236952,0.0005757182189585989,-0.00625410717287966,0.07228134878826016
49,0.8000000000000005,-0.949881831060803,0.01995138640004342,-1.7878695399523457,-1.544380471891658,0.0042060913463896,-3.0243439631665177,0.8415023672730632,-0.745712711071079,-1.5334144085193557,0.10389892244694486
50,0.21000000000000005,0.00021519685395689705,6.407715762358454e-05,0.012327257043396352,-0.00851405231727884,0.017031084516805226,-4.443875541018229e-05,0.0002507782378656861,0.00023450953719224537,-0.004916391574926898,0.053465773263895976
50,0.7200000000000004,-0.090056154140172,1.6719004668622794,0.07100598280292549,1.1026767392702468,-0.04727714031866397,0.32851006887055456,2.7281674947755836,-2.2934804118093646,0.5265812057967278,0.1091897047103943
51,0.4200000000000002,0.00048754506906252147,0.0007086148887936799,0.03025417895809558,-0.02459351982783976,0.05444735343474877,0.00015475300284092342,0.0008425196804296949,0.0005525920285354016,-0.007384078861114611,0.1005801115136765
51,0.9300000000000006,-3.071199892589614,2.289521708109681,-0.6094804330661006,1.6415435116375439,0.07008665287789916,-2.62336541401521,-2.6687121966615273,2.6772675852960375,0.947183813526917,0.12750505439709667
51,1.440000000000001,-0.598658832551786,1.039718049267381,1.4284877035243213,0.736987881261888,0.04288835586973266,-1.6543542678277465,0.28695120778098415,0.23335650110980907,0.3386870474715502,0.039414921576378284
52,0.2900000000000001,0.00035746536885987814,0.0003310244030706726,0.018223565430950155,-0.013909509150108372,0.03075545474691127,6.174820605767002e-05,0.0005237260526236952,0.0005757182189585989,-0.00625410717287966,0.07228134878826016
0,0.02,-5.743216370855356e-05,-0.00017976605727285455,0.00013301929767292766,0.00012770989965552515,-0.002451844863853887,-9.498423844962896e-05,-7.170853550138191e-05,-0.000242248229648813,-0.000229457225132783,0.007367892560305263
0,0.5300000000000002,-0.507348149543773,-0.16926533537708405,0.995722247954635,-1.605162460659491,-0.009965229937967404,-2.188826999717271,0.7659596558206675,-2.119762961625317,-2.049238109689477,0.09681954404524075
0,0.02,-5.743216370855356e-05,-0.00017976605727285455,0.00013301929767292766,0.00012770989965552515,-0.002451844863853887,-9.498423844962896e-05,-7.170853550138191e-05,-0.000242248229648813,-0.000229457225132783,0.007367892560305263
0,0.5300000000000002,0.6525439364696031,-2.258091329957172,0.08898293631702385,0.32320604095248245,-0.013722810423901076,2.7705232688893116,0.9849762247963133,-2.1906112515667977,0.6494460958320194,0.10492961824647495
0,1.0400000000000007,0.5210197913827155,-1.0554854847102777,-0.05818390085662469,-0.2616147825706556,-0.012166252414605885,-1.0193396184618784,2.7809889056744392,-2.807377792984302,2.213667705187293,0.09992272129939876
1,0.5000000000000002,0.00048517242001364937,0.0008970625395818592,0.03858818824292653,-0.032010438169365954,0.0709384444211324,0.00015350180523712804,0.0010218235046815995,0.00030373785488485263,-0.0077384549540750495,0.11722249110542443
1,1.0100000000000007,3.0735394028805274,-1.0053271106986574,3.0879668172670574,-1.054285669114373,0.08989652476637539,3.0363202610628046,0.8166184512021443,0.9712513891187138,1.6111968812115767,0.12013781257983945
2,0.37000000000000016,0.00046027236701665677,0.0005679718665655906,0.02537395150672744,-0.020253589020808347,0.04455043525812681,0.00013096939231760908,0.0007279998770367533,0.0006351652273006263,-0.007072936048003883,0.09005791918569493
2,0.8800000000000006,2.9243932173419718,-0.7643540203782252,-2.0823753045261433,0.1357896280548966,0.029622838247439345,-1.998194785970361,-1.1836373010783268,-1.3986052350706553,-0.19092315365772206,0.10694742300286034
3,0.4200000000000002,0.00048754506906252147,0.0007086148887936799,0.03025417895809558,-0.02459351982783976,0.05444735343474877,0.00015475300284092342,0.0008425196804296949,0.0005525920285354016,-0.007384078861114611,0.1005801115136765
3,0.9300000000000006,-2.0714361392099883,-2.1204156380911625,1.6812839638588093,1.8906915198207754,0.033323369548744174,-1.1247799563539946,-0.09771669584594934,2.521074686846105,-1.248449549181079,-0.07206201590445226
3,1.440000000000001,0.6873550790224778,0.5690812102530546,0.06385797399718995,-1.7465969781955824,0.054057570216605,1.457842049542216,-0.18963199479713777,-3.241795370571111,-1.8771775071689492,-0.08763452549496772
3,1.9500000000000015,-2.7043523329489485,-0.9229532901215759,-2.404679393014788,2.930616611965517,0.052263091014874835,1.3306036993363213,2.3084560153019016,0.18382627631331278,-2.597267410785258,-0.08724501169511506
4,0.36000000000000015,0.0004515355058015579,0.0005380405129134238,0.02440895750842055,-0.01940952961934367,0.042903831435688676,0.0001234755494765314,0.0006968463889097086,0.0006440513685989288,-0.0069854660829455,0.08791196753082503
4,0.8700000000000006,2.693360710158133,-2.3486917478082723,2.3581909715377285,1.2403373536341915,0.013980448807743639,1.5450976837008703,2.7773128845113457,3.004974918611605,0.3036226849350012,0.06960329425219332
5,0.18000000000000002,0.00016220290440031472,-7.597637502270749e-05,0.010520431409954055,-0.006849859949832054,0.012770568468984984,-8.784358471281334e-05,0.00013940673478359152,-3.288912346344478e-05,-0.004145800912014814,0.046140628571362016
5,0.6900000000000004,1.5318002166128004,1.5988976227387681,-1.6384016723922712,2.194439815868526,0.010962763700450143,-0.3281197773253739,0.786262789149503,-2.6983127532101396,0.17237645653024952,0.09191888566099235
5,1.2000000000000008,1.1511483356022387,-2.9482432365020435,0.644309504572117,-2.176199983600517,0.0183455854320951,-2.9443035588345667,-1.9138856877882373,2.148647309714496,0.7972084886807884,0.09417895162377664
5,1.7100000000000013,2.8999117519613873,2.9158609082663136,0.18505878761520994,1.857138845747599,0.02122429223471296,0.41605339648601886,-2.224126570981632,-3.042482606247483,-0.2320131985014229,0.10168394422219015
5,2.2199999999999966,-2.2464495534435396,-2.6804155906250133,0.3591784678620379,0.5716007601075287,0.02238054588891161,1.4291960381675874,-2.350876774436634,2.5413912374261765,-1.0380162421263945,0.09957281194592411
5,2.7299999999999858,-0.1481725475864625,0.3988963562947359,-0.45644500699197194,2.874486110121715,0.03694246710262689,0.9422132935168834,-2.64175872161131,1.1506001066595772,-0.7268305320487007,0.10021313107619999
